;FLAVOR:Marlin
;TIME:8609
;Filament used: 6.46585m
;Layer height: 0.32
;MINX:28.601
;MINY:69
;MINZ:0.2
;MAXX:203.5
;MAXY:166
;MAXZ:33.8
;Generated with Cura_SteamEngine 5.3.1
M140 S50
M105
M190 S50
M104 S200
M105
M109 S200
M82 ;absolute extrusion mode
; Ender 3 Custom Start G-code
G92 E0 ; Reset Extruder
G28 ; Home all axes
G1 Z2.0 F3000 ; Move Z Axis up little to prevent scratching of Heat Bed
G1 X0.1 Y20 Z0.3 F5000.0 ; Move to start position
G1 X0.1 Y200.0 Z0.3 F1500.0 E15 ; Draw the first line
G1 X0.4 Y200.0 Z0.3 F5000.0 ; Move to side a little
G1 X0.4 Y20 Z0.3 F1500.0 E30 ; Draw the second line
G92 E0 ; Reset Extruder
G1 Z2.0 F3000 ; Move Z Axis up little to prevent scratching of Heat Bed
G1 X5 Y20 Z0.3 F5000.0 ; Move over to prevent blob squish
G92 E0
G92 E0
G1 F2700 E-5
;LAYER_COUNT:106
;LAYER:0
M107
G0 F6000 X38.563 Y90.63 Z0.2
;TYPE:SKIRT
G1 F2700 E0
G1 F1200 X39.632 Y90.181 E0.03856
G1 X42.051 Y89.127 E0.12633
G1 X44.332 Y88.056 E0.21014
G1 X46.622 Y86.899 E0.29547
G1 X48.828 Y85.706 E0.37889
G1 X51.045 Y84.425 E0.46405
G1 X53.174 Y83.112 E0.54724
G1 X55.338 Y81.692 E0.63333
G1 X57.414 Y80.245 E0.7175
G1 X59.465 Y78.727 E0.80237
G1 X60.353 Y78.053 E0.83944
G1 X61.096 Y77.54 E0.86947
G1 X61.881 Y77.094 E0.8995
G1 X62.703 Y76.719 E0.92955
G1 X63.555 Y76.419 E0.9596
G1 X64.43 Y76.194 E0.98965
G1 X65.119 Y76.075 E1.0129
G1 X65.838 Y75.976 E1.03704
G1 X67.374 Y75.785 E1.08852
G1 X69.873 Y75.401 E1.17262
G1 X72.395 Y74.942 E1.25788
G1 X74.867 Y74.418 E1.34192
G1 X77.322 Y73.826 E1.42592
G1 X79.774 Y73.16 E1.51042
G1 X82.223 Y72.418 E1.59553
G1 X84.598 Y71.627 E1.67879
G1 X87.807 Y70.442 E1.79257
G1 X88.668 Y70.167 E1.82263
G1 X89.549 Y69.969 E1.85267
G1 X90.444 Y69.85 E1.88269
G1 X91 Y69.817 E1.90122
G1 X91.67 Y69.8 E1.92351
G1 X95.673 Y69.8 E2.05665
G1 X96.517 Y69.811 E2.08473
G1 X97.362 Y69.858 E2.11287
G1 X97.887 Y69.909 E2.13042
G1 X100.446 Y70.127 E2.21584
G1 X103.007 Y70.272 E2.30115
G1 X105.541 Y70.344 E2.38547
G1 X108.073 Y70.344 E2.46968
G1 X110.607 Y70.272 E2.554
G1 X113.147 Y70.128 E2.63862
G1 X116.292 Y69.856 E2.74361
G1 X116.983 Y69.813 E2.76664
G1 X117.59 Y69.8 E2.78683
G1 X121.798 Y69.801 E2.92679
G1 X122.5 Y69.811 E2.95014
G1 X123.402 Y69.864 E2.98019
G1 X124.295 Y69.996 E3.01022
G1 X125.173 Y70.207 E3.04025
G1 X126.029 Y70.495 E3.07029
G1 X126.857 Y70.857 E3.10035
G1 X127.649 Y71.291 E3.13038
G1 X128.399 Y71.794 E3.16042
G1 X129.332 Y72.57 E3.20078
G1 X130.353 Y73.528 E3.24735
G1 X132.286 Y75.283 E3.33418
G1 X133.736 Y76.524 E3.39766
G1 X134.163 Y76.901 E3.41661
G1 X134.57 Y77.28 E3.43511
G1 X135.237 Y77.937 E3.46625
G1 X135.751 Y78.459 E3.49061
G1 X137.596 Y80.228 E3.57563
G1 X139.474 Y81.931 E3.65995
G1 X141.42 Y83.597 E3.74515
G1 X143.387 Y85.188 E3.82929
G1 X145.398 Y86.721 E3.9134
G1 X147.467 Y88.208 E3.99814
G1 X149.566 Y89.629 E4.08245
G1 X151.714 Y90.997 E4.16715
G1 X153.898 Y92.3 E4.25174
G1 X156.081 Y93.522 E4.33495
G1 X158.366 Y94.717 E4.42071
G1 X160.656 Y95.834 E4.50545
G1 X162.954 Y96.874 E4.58935
G1 X165.296 Y97.857 E4.67383
G1 X167.698 Y98.784 E4.75946
G1 X170.048 Y99.617 E4.84239
G1 X172.46 Y100.394 E4.92667
G1 X174.928 Y101.114 E5.01218
G1 X177.366 Y101.751 E5.09599
G1 X179.865 Y102.33 E5.18131
G1 X182.346 Y102.829 E5.26548
G1 X184.852 Y103.261 E5.35006
G1 X187.33 Y103.617 E5.43332
G1 X189.876 Y103.909 E5.51856
G1 X192.611 Y104.143 E5.60986
G1 X193.231 Y104.188 E5.63053
G1 X194.128 Y104.293 E5.66057
G1 X195.012 Y104.477 E5.6906
G1 X195.876 Y104.739 E5.72063
G1 X196.714 Y105.076 E5.75067
G1 X197.519 Y105.486 E5.78072
G1 X198.284 Y105.966 E5.81076
G1 X199.004 Y106.511 E5.84079
G1 X199.673 Y107.118 E5.87084
G1 X200.285 Y107.782 E5.90087
G1 X200.837 Y108.497 E5.93091
G1 X201.323 Y109.258 E5.96095
G1 X201.739 Y110.059 E5.99097
G1 X202.084 Y110.894 E6.02102
G1 X202.353 Y111.756 E6.05105
G1 X202.545 Y112.639 E6.08111
G1 X202.657 Y113.535 E6.11114
G1 X202.687 Y114.073 E6.12906
G1 X202.7 Y114.68 E6.14925
G1 X202.699 Y120.521 E6.34353
G1 X202.69 Y121.251 E6.36781
G1 X202.639 Y122.152 E6.39782
G1 X202.508 Y123.046 E6.42788
G1 X202.299 Y123.925 E6.45793
G1 X202.013 Y124.781 E6.48794
G1 X201.652 Y125.609 E6.51799
G1 X201.22 Y126.402 E6.54802
G1 X200.719 Y127.153 E6.57805
G1 X200.154 Y127.857 E6.60807
G1 X199.528 Y128.509 E6.63813
G1 X198.847 Y129.102 E6.66817
G1 X198.117 Y129.633 E6.69819
G1 X197.342 Y130.098 E6.72825
G1 X196.529 Y130.491 E6.75829
G1 X195.685 Y130.812 E6.78832
G1 X194.816 Y131.057 E6.81835
G1 X193.928 Y131.223 E6.8484
G1 X193.225 Y131.299 E6.87191
G1 X190.618 Y131.487 E6.95885
G1 X188.089 Y131.742 E7.04339
G1 X185.569 Y132.067 E7.1279
G1 X183.073 Y132.461 E7.21195
G1 X180.577 Y132.927 E7.2964
G1 X178.1 Y133.463 E7.38069
G1 X175.65 Y134.067 E7.46462
G1 X173.154 Y134.757 E7.55075
G1 X170.761 Y135.493 E7.63402
G1 X168.353 Y136.307 E7.71856
G1 X165.94 Y137.2 E7.80414
G1 X163.618 Y138.136 E7.88741
G1 X161.287 Y139.153 E7.97199
G1 X158.97 Y140.242 E8.05714
G1 X156.692 Y141.393 E8.14203
G1 X154.484 Y142.587 E8.22552
G1 X152.267 Y143.87 E8.31072
G1 X150.128 Y145.188 E8.39428
G1 X148.008 Y146.581 E8.47865
G1 X145.905 Y148.049 E8.56395
G1 X143.878 Y149.55 E8.64784
G1 X141.863 Y151.131 E8.73303
G1 X139.933 Y152.739 E8.81658
G1 X138.005 Y154.439 E8.90208
G1 X136.143 Y156.174 E8.98672
G1 X134.555 Y157.734 E9.06076
G1 X134.043 Y158.204 E9.08388
G1 X133.196 Y158.93 E9.12098
G1 X131.206 Y160.685 E9.20923
G1 X129.302 Y162.457 E9.29574
G1 X128.615 Y163.043 E9.32578
G1 X127.878 Y163.565 E9.35581
G1 X127.098 Y164.02 E9.38585
G1 X126.28 Y164.405 E9.41592
G1 X125.432 Y164.715 E9.44595
G1 X124.56 Y164.949 E9.47598
G1 X123.671 Y165.106 E9.506
G1 X122.637 Y165.187 E9.5405
G1 X122.03 Y165.2 E9.56069
G1 X117.821 Y165.199 E9.70069
G1 X117.124 Y165.189 E9.72387
G1 X116.28 Y165.142 E9.75198
G1 X115.762 Y165.091 E9.7693
G1 X113.194 Y164.873 E9.85502
G1 X110.633 Y164.728 E9.94033
G1 X108.099 Y164.656 E10.02465
G1 X105.567 Y164.656 E10.10886
G1 X103.033 Y164.728 E10.19318
G1 X100.493 Y164.872 E10.27779
G1 X97.348 Y165.144 E10.38279
G1 X96.657 Y165.187 E10.40581
G1 X96.05 Y165.2 E10.42601
G1 X91.901 Y165.199 E10.564
G1 X91.203 Y165.189 E10.58722
G1 X90.301 Y165.136 E10.61727
G1 X89.408 Y165.004 E10.6473
G1 X88.53 Y164.793 E10.67733
G1 X87.966 Y164.613 E10.69702
G1 X85.482 Y163.74 E10.78459
G1 X83.072 Y162.965 E10.86879
G1 X80.628 Y162.255 E10.95344
G1 X78.201 Y161.624 E11.03685
G1 X75.666 Y161.041 E11.12336
G1 X73.21 Y160.549 E11.20667
G1 X70.702 Y160.119 E11.29131
G1 X68.226 Y159.767 E11.37449
G1 X65.305 Y159.434 E11.47227
G1 X64.413 Y159.292 E11.50231
G1 X63.537 Y159.072 E11.53235
G1 X62.684 Y158.775 E11.56239
G1 X61.861 Y158.404 E11.59242
G1 X61.074 Y157.961 E11.62246
G1 X60.256 Y157.396 E11.65552
G1 X59.542 Y156.849 E11.68544
G1 X57.436 Y155.284 E11.77271
G1 X55.356 Y153.827 E11.85717
G1 X53.223 Y152.421 E11.94214
G1 X51.085 Y151.098 E12.02577
G1 X48.869 Y149.811 E12.111
G1 X46.675 Y148.618 E12.19406
G1 X44.377 Y147.453 E12.27976
G1 X42.08 Y146.368 E12.36425
G1 X39.717 Y145.332 E12.45006
G1 X38.598 Y144.868 E12.49035
G1 X37.78 Y144.486 E12.52038
G1 X36.999 Y144.032 E12.55043
G1 X36.262 Y143.511 E12.58045
G1 X35.573 Y142.927 E12.61049
G1 X34.939 Y142.284 E12.64052
G1 X34.364 Y141.587 E12.67057
G1 X33.852 Y140.843 E12.70061
G1 X33.409 Y140.056 E12.73065
G1 X33.037 Y139.233 E12.76069
G1 X32.74 Y138.38 E12.79073
G1 X32.519 Y137.505 E12.82075
G1 X32.375 Y136.604 E12.8511
G1 X32.244 Y135.453 E12.88963
G1 X32.166 Y134.686 E12.91527
G1 X31.837 Y132.158 E13.00006
G1 X31.436 Y129.633 E13.08509
G1 X30.965 Y127.136 E13.16961
G1 X30.442 Y124.72 E13.25183
G1 X29.706 Y121.765 E13.35311
G1 X29.527 Y120.88 E13.38314
G1 X29.427 Y119.982 E13.4132
G1 X29.404 Y119.319 E13.43526
G1 X29.401 Y116.885 E13.51622
G1 X29.411 Y116.2 E13.539
G1 X29.464 Y115.299 E13.56902
G1 X29.597 Y114.405 E13.59908
G1 X29.713 Y113.883 E13.61687
G1 X30.065 Y112.471 E13.66527
G1 X30.661 Y109.923 E13.7523
G1 X31.174 Y107.412 E13.83754
G1 X31.608 Y104.935 E13.92118
G1 X31.976 Y102.417 E14.00582
G1 X32.316 Y99.463 E14.10472
G1 X32.359 Y99.029 E14.11923
G1 X32.488 Y98.135 E14.14927
G1 X32.695 Y97.256 E14.17931
G1 X32.98 Y96.399 E14.20934
G1 X33.339 Y95.57 E14.23939
G1 X33.77 Y94.776 E14.26944
G1 X34.269 Y94.024 E14.29946
G1 X34.833 Y93.319 E14.32949
G1 X35.457 Y92.666 E14.35953
G1 X36.137 Y92.071 E14.38958
G1 X36.866 Y91.539 E14.4196
G1 X37.64 Y91.073 E14.44964
G1 X38.563 Y90.63 E14.4837
G0 F6000 X38.408 Y90.261
G1 F1200 X39.477 Y89.812 E14.52226
G1 X41.891 Y88.76 E14.60984
G1 X44.162 Y87.694 E14.69328
G1 X46.432 Y86.547 E14.77788
G1 X48.638 Y85.354 E14.86129
G1 X50.845 Y84.079 E14.94606
G1 X52.964 Y82.772 E15.02887
G1 X55.109 Y81.364 E15.11421
G1 X57.176 Y79.923 E15.19802
G1 X59.227 Y78.405 E15.28288
G1 X60.111 Y77.734 E15.3198
G1 X60.898 Y77.192 E15.35158
G1 X61.683 Y76.746 E15.38161
G1 X62.537 Y76.355 E15.41285
G1 X63.422 Y76.042 E15.44407
G1 X64.362 Y75.8 E15.47635
G1 X65.064 Y75.679 E15.50005
G1 X65.789 Y75.579 E15.52439
G1 X67.325 Y75.388 E15.57587
G1 X69.801 Y75.007 E15.65919
G1 X72.323 Y74.549 E15.74445
G1 X74.773 Y74.029 E15.82775
G1 X77.228 Y73.437 E15.91174
G1 X79.658 Y72.777 E15.99549
G1 X82.096 Y72.038 E16.08022
G1 X84.472 Y71.247 E16.16351
G1 X87.685 Y70.061 E16.27743
G1 X88.546 Y69.786 E16.30749
G1 X89.496 Y69.572 E16.33988
G1 X90.391 Y69.453 E16.36991
G1 X90.99 Y69.417 E16.38987
G1 X91.66 Y69.4 E16.41216
G1 X95.678 Y69.4 E16.5458
G1 X96.539 Y69.412 E16.57444
G1 X97.401 Y69.46 E16.60315
G1 X100.48 Y69.729 E16.70595
G1 X103.018 Y69.872 E16.7905
G1 X105.552 Y69.944 E16.87481
G1 X108.062 Y69.944 E16.9583
G1 X110.596 Y69.872 E17.04261
G1 X113.113 Y69.73 E17.12646
G1 X116.267 Y69.457 E17.23175
G1 X116.974 Y69.413 E17.25532
G1 X117.59 Y69.4 E17.27581
G1 X121.804 Y69.401 E17.41597
G1 X122.523 Y69.412 E17.43988
G1 X123.46 Y69.468 E17.4711
G1 X124.353 Y69.6 E17.50113
G1 X125.301 Y69.828 E17.53356
G1 X126.189 Y70.128 E17.56473
G1 X127.017 Y70.49 E17.59479
G1 X127.841 Y70.94 E17.62602
G1 X128.655 Y71.486 E17.65862
G1 X129.606 Y72.278 E17.69978
G1 X130.627 Y73.236 E17.74635
G1 X132.546 Y74.979 E17.83257
G1 X134.001 Y76.224 E17.89626
G1 X134.436 Y76.608 E17.91556
G1 X134.851 Y76.995 E17.93443
G1 X135.522 Y77.656 E17.96576
G1 X136.028 Y78.17 E17.98975
G1 X137.873 Y79.939 E18.07476
G1 X139.734 Y81.627 E18.15833
G1 X141.672 Y83.286 E18.24318
G1 X143.639 Y84.877 E18.32733
G1 X145.631 Y86.396 E18.41064
G1 X147.7 Y87.883 E18.49539
G1 X149.781 Y89.292 E18.57898
G1 X151.919 Y90.653 E18.66327
G1 X154.103 Y91.956 E18.74786
G1 X156.276 Y93.173 E18.8307
G1 X158.541 Y94.357 E18.9157
G1 X160.831 Y95.474 E19.00044
G1 X163.109 Y96.505 E19.08361
G1 X165.451 Y97.488 E19.16809
G1 X167.832 Y98.407 E19.25297
G1 X170.171 Y99.236 E19.33551
G1 X172.583 Y100.013 E19.4198
G1 X175.036 Y100.729 E19.50479
G1 X177.456 Y101.361 E19.58798
G1 X179.955 Y101.94 E19.67329
G1 X182.421 Y102.436 E19.75696
G1 X184.909 Y102.865 E19.84093
G1 X187.387 Y103.221 E19.92419
G1 X189.91 Y103.51 E20.00866
G1 X192.645 Y103.744 E20.09996
G1 X193.278 Y103.791 E20.12107
G1 X194.21 Y103.901 E20.15228
G1 X195.094 Y104.085 E20.18231
G1 X195.992 Y104.356 E20.21351
G1 X196.896 Y104.72 E20.24593
G1 X197.732 Y105.147 E20.27715
G1 X198.497 Y105.627 E20.30719
G1 X199.273 Y106.215 E20.33957
G1 X199.942 Y106.822 E20.36961
G1 X200.602 Y107.538 E20.402
G1 X201.154 Y108.253 E20.43204
G1 X201.678 Y109.074 E20.46444
G1 X202.109 Y109.906 E20.4956
G1 X202.454 Y110.741 E20.52565
G1 X202.744 Y111.671 E20.55805
G1 X202.942 Y112.589 E20.58929
G1 X203.054 Y113.485 E20.61932
G1 X203.087 Y114.064 E20.63861
G1 X203.1 Y114.68 E20.6591
G1 X203.099 Y120.526 E20.85354
G1 X203.089 Y121.274 E20.87842
G1 X203.035 Y122.21 E20.90961
G1 X202.904 Y123.104 E20.93966
G1 X202.688 Y124.018 E20.9709
G1 X202.38 Y124.941 E21.00326
G1 X202.019 Y125.769 E21.0333
G1 X201.553 Y126.624 E21.06569
G1 X201.052 Y127.375 E21.09572
G1 X200.443 Y128.134 E21.12808
G1 X199.791 Y128.811 E21.15934
G1 X199.11 Y129.404 E21.18938
G1 X198.323 Y129.976 E21.22174
G1 X197.548 Y130.441 E21.2518
G1 X196.671 Y130.865 E21.2842
G1 X195.794 Y131.197 E21.31539
G1 X194.925 Y131.442 E21.34542
G1 X193.971 Y131.621 E21.3777
G1 X193.254 Y131.698 E21.40168
G1 X190.651 Y131.886 E21.48849
G1 X188.14 Y132.139 E21.57242
G1 X185.62 Y132.464 E21.65693
G1 X183.135 Y132.856 E21.74061
G1 X180.662 Y133.318 E21.82428
G1 X178.185 Y133.854 E21.90858
G1 X175.757 Y134.453 E21.99175
G1 X173.261 Y135.142 E22.07787
G1 X170.889 Y135.872 E22.16042
G1 X168.481 Y136.686 E22.24496
G1 X166.09 Y137.571 E22.32976
G1 X163.778 Y138.503 E22.41267
G1 X161.447 Y139.52 E22.49726
G1 X159.14 Y140.604 E22.58204
G1 X156.882 Y141.745 E22.66618
G1 X154.674 Y142.939 E22.74967
G1 X152.477 Y144.211 E22.83411
G1 X150.338 Y145.529 E22.91767
G1 X148.228 Y146.915 E23.00164
G1 X146.134 Y148.377 E23.08658
G1 X144.125 Y149.865 E23.16973
G1 X142.11 Y151.446 E23.25492
G1 X140.198 Y153.039 E23.33769
G1 X138.27 Y154.739 E23.42318
G1 X136.415 Y156.466 E23.50748
G1 X134.825 Y158.029 E23.58164
G1 X134.303 Y158.508 E23.6052
G1 X133.456 Y159.234 E23.6423
G1 X131.471 Y160.985 E23.73034
G1 X129.562 Y162.761 E23.81706
G1 X128.875 Y163.347 E23.8471
G1 X128.08 Y163.911 E23.87952
G1 X127.3 Y164.366 E23.90955
G1 X126.417 Y164.781 E23.942
G1 X125.569 Y165.091 E23.97203
G1 X124.63 Y165.343 E24.00437
G1 X123.702 Y165.505 E24.0357
G1 X122.646 Y165.587 E24.07093
G1 X122.03 Y165.6 E24.09142
G1 X117.815 Y165.599 E24.23161
G1 X117.102 Y165.588 E24.25533
G1 X116.241 Y165.54 E24.28401
G1 X115.728 Y165.49 E24.30115
G1 X113.16 Y165.271 E24.38688
G1 X110.622 Y165.128 E24.47142
G1 X108.088 Y165.056 E24.55574
G1 X105.578 Y165.056 E24.63922
G1 X103.044 Y165.128 E24.72354
G1 X100.527 Y165.271 E24.80739
G1 X97.373 Y165.543 E24.91268
G1 X96.666 Y165.587 E24.93624
G1 X96.05 Y165.6 E24.95673
G1 X91.895 Y165.599 E25.09493
G1 X91.18 Y165.588 E25.11871
G1 X90.243 Y165.532 E25.14993
G1 X89.35 Y165.4 E25.17996
G1 X88.408 Y165.174 E25.21218
G1 X87.833 Y164.99 E25.23226
G1 X85.36 Y164.121 E25.31944
G1 X82.95 Y163.346 E25.40364
G1 X80.521 Y162.64 E25.48777
G1 X78.111 Y162.014 E25.57059
G1 X75.576 Y161.431 E25.6571
G1 X73.135 Y160.942 E25.7399
G1 X70.646 Y160.515 E25.8239
G1 X68.17 Y160.163 E25.90708
G1 X65.242 Y159.829 E26.0051
G1 X64.316 Y159.68 E26.03629
G1 X63.405 Y159.45 E26.06754
G1 X62.552 Y159.153 E26.09758
G1 X61.665 Y158.753 E26.12995
G1 X60.878 Y158.31 E26.15998
G1 X60.013 Y157.714 E26.19492
G1 X59.299 Y157.167 E26.22484
G1 X57.197 Y155.605 E26.31194
G1 X55.127 Y154.155 E26.396
G1 X53.003 Y152.755 E26.48061
G1 X50.884 Y151.444 E26.56349
G1 X48.668 Y150.157 E26.64872
G1 X46.494 Y148.975 E26.73102
G1 X44.206 Y147.815 E26.81634
G1 X41.909 Y146.73 E26.90084
G1 X39.556 Y145.698 E26.98629
G1 X38.429 Y145.23 E27.02688
G1 X37.579 Y144.832 E27.0581
G1 X36.768 Y144.359 E27.08932
G1 X36.031 Y143.838 E27.11934
G1 X35.288 Y143.208 E27.15174
G1 X34.63 Y142.539 E27.18295
G1 X34.055 Y141.842 E27.21301
G1 X33.522 Y141.07 E27.24421
G1 X33.06 Y140.252 E27.27545
G1 X32.659 Y139.365 E27.30783
G1 X32.362 Y138.512 E27.33787
G1 X32.131 Y137.603 E27.36907
G1 X31.978 Y136.649 E27.4012
G1 X31.846 Y135.493 E27.4399
G1 X31.769 Y134.738 E27.46514
G1 X31.44 Y132.21 E27.54993
G1 X31.041 Y129.696 E27.6346
G1 X30.572 Y127.21 E27.71874
G1 X30.051 Y124.805 E27.80059
G1 X29.314 Y121.844 E27.90207
G1 X29.129 Y120.924 E27.93329
G1 X29.029 Y120.026 E27.96334
G1 X29.004 Y119.319 E27.98687
G1 X29.001 Y116.879 E28.06802
G1 X29.011 Y116.194 E28.09081
G1 X29.068 Y115.24 E28.12259
G1 X29.201 Y114.346 E28.15266
G1 X29.325 Y113.786 E28.17173
G1 X29.677 Y112.374 E28.22013
G1 X30.269 Y109.843 E28.30659
G1 X30.782 Y107.332 E28.39183
G1 X31.214 Y104.866 E28.4751
G1 X31.58 Y102.359 E28.55936
G1 X31.919 Y99.417 E28.65786
G1 X31.963 Y98.972 E28.67274
G1 X32.092 Y98.078 E28.70278
G1 X32.315 Y97.13 E28.73517
G1 X32.6 Y96.273 E28.76521
G1 X32.987 Y95.379 E28.79761
G1 X33.418 Y94.585 E28.82766
G1 X33.957 Y93.774 E28.86005
G1 X34.521 Y93.069 E28.89007
G1 X35.194 Y92.365 E28.92247
G1 X35.901 Y91.748 E28.95368
G1 X36.66 Y91.196 E28.98489
G1 X37.467 Y90.712 E29.01619
G1 X38.408 Y90.261 E29.0509
G0 F6000 X38.253 Y89.892
G1 F1200 X39.322 Y89.443 E29.08946
G1 X41.731 Y88.393 E29.17687
