;FLAVOR:Marlin
;TIME:6374
;Filament used: 5.46424m
;Layer height: 0.32
;MINX:31.5
;MINY:69
;MINZ:0.2
;MAXX:203.5
;MAXY:166
;MAXZ:33.8
;Generated with Cura_SteamEngine 5.3.1
M140 S50
M105
M190 S50
M104 S200
M105
M109 S200
M82 ;absolute extrusion mode
; Ender 3 Custom Start G-code
G92 E0 ; Reset Extruder
G28 ; Home all axes
G1 Z2.0 F3000 ; Move Z Axis up little to prevent scratching of Heat Bed
G1 X0.1 Y20 Z0.3 F5000.0 ; Move to start position
G1 X0.1 Y200.0 Z0.3 F1500.0 E15 ; Draw the first line
G1 X0.4 Y200.0 Z0.3 F5000.0 ; Move to side a little
G1 X0.4 Y20 Z0.3 F1500.0 E30 ; Draw the second line
G92 E0 ; Reset Extruder
G1 Z2.0 F3000 ; Move Z Axis up little to prevent scratching of Heat Bed
G1 X5 Y20 Z0.3 F5000.0 ; Move over to prevent blob squish
G92 E0
G92 E0
G1 F2700 E-5
;LAYER_COUNT:106
;LAYER:0
M107
G0 F6000 X38.506 Y90.654 Z0.2
;TYPE:SKIRT
G1 F2700 E0
G1 F1200 X39.352 Y90.337 E0.03005
G1 X39.944 Y90.163 E0.05057
G1 X40.64 Y89.982 E0.07449
G1 X41.906 Y89.67 E0.11786
G1 X44.382 Y88.986 E0.20329
G1 X46.791 Y88.247 E0.2871
G1 X49.232 Y87.421 E0.37281
G1 X51.595 Y86.547 E0.45661
G1 X53.924 Y85.61 E0.54011
G1 X56.241 Y84.6 E0.62418
G1 X59.678 Y82.961 E0.75082
G1 X60.554 Y82.521 E0.78343
G1 X61.378 Y82.152 E0.81346
G1 X62.169 Y81.876 E0.84132
G1 X62.769 Y81.694 E0.86217
G1 X64.27 Y81.259 E0.91415
G1 X66.728 Y80.471 E1
G1 X69.102 Y79.636 E1.08371
G1 X71.453 Y78.734 E1.16746
G1 X73.831 Y77.742 E1.25316
G1 X76.141 Y76.703 E1.3374
G1 X78.4 Y75.608 E1.4209
G1 X80.696 Y74.413 E1.50699
G1 X82.882 Y73.196 E1.5902
G1 X85.101 Y71.877 E1.67606
G1 X85.971 Y71.338 E1.7101
G1 X86.759 Y70.897 E1.74013
G1 X87.583 Y70.528 E1.77016
G1 X88.437 Y70.232 E1.80022
G1 X89.313 Y70.014 E1.83025
G1 X90.205 Y69.874 E1.86028
G1 X91.031 Y69.815 E1.88782
G1 X91.67 Y69.8 E1.90908
G1 X95.673 Y69.8 E2.04222
G1 X96.517 Y69.811 E2.0703
G1 X97.362 Y69.858 E2.09844
G1 X97.887 Y69.909 E2.11599
G1 X100.446 Y70.127 E2.20141
G1 X103.007 Y70.272 E2.28672
G1 X105.541 Y70.344 E2.37104
G1 X108.073 Y70.344 E2.45525
G1 X110.607 Y70.272 E2.53957
G1 X113.147 Y70.128 E2.62419
G1 X116.292 Y69.856 E2.72918
G1 X116.983 Y69.813 E2.75221
G1 X117.59 Y69.8 E2.7724
G1 X121.798 Y69.801 E2.91236
G1 X122.5 Y69.811 E2.93571
G1 X123.402 Y69.864 E2.96576
G1 X124.295 Y69.996 E2.99579
G1 X125.173 Y70.207 E3.02582
G1 X126.029 Y70.495 E3.05586
G1 X126.857 Y70.857 E3.08592
G1 X127.649 Y71.291 E3.11595
G1 X128.399 Y71.794 E3.14599
G1 X129.332 Y72.57 E3.18635
G1 X130.353 Y73.528 E3.23292
G1 X132.286 Y75.283 E3.31976
G1 X133.736 Y76.524 E3.38323
G1 X134.163 Y76.901 E3.40218
G1 X134.57 Y77.28 E3.42068
G1 X135.237 Y77.937 E3.45182
G1 X135.751 Y78.459 E3.47618
G1 X137.596 Y80.228 E3.5612
G1 X139.474 Y81.931 E3.64552
G1 X141.42 Y83.597 E3.73072
G1 X143.387 Y85.188 E3.81486
G1 X145.398 Y86.721 E3.89897
G1 X147.456 Y88.201 E3.98328
G1 X149.566 Y89.629 E4.06802
G1 X151.714 Y90.997 E4.15272
G1 X153.898 Y92.3 E4.23731
G1 X156.081 Y93.522 E4.32052
G1 X158.366 Y94.717 E4.40628
G1 X160.656 Y95.834 E4.49102
G1 X162.954 Y96.874 E4.57492
G1 X165.296 Y97.857 E4.6594
G1 X167.698 Y98.784 E4.74503
G1 X170.048 Y99.617 E4.82796
G1 X172.46 Y100.394 E4.91224
G1 X174.928 Y101.114 E4.99775
G1 X177.366 Y101.751 E5.08156
G1 X179.865 Y102.33 E5.16688
G1 X182.346 Y102.829 E5.25105
G1 X184.852 Y103.261 E5.33563
G1 X187.33 Y103.617 E5.41889
G1 X189.876 Y103.909 E5.50413
G1 X192.611 Y104.143 E5.59543
G1 X193.231 Y104.188 E5.6161
G1 X194.128 Y104.293 E5.64614
G1 X195.012 Y104.477 E5.67617
G1 X195.876 Y104.739 E5.7062
G1 X196.714 Y105.076 E5.73624
G1 X197.519 Y105.486 E5.76629
G1 X198.284 Y105.966 E5.79633
G1 X199.004 Y106.511 E5.82636
G1 X199.673 Y107.118 E5.85641
G1 X200.285 Y107.782 E5.88644
G1 X200.837 Y108.497 E5.91649
G1 X201.323 Y109.258 E5.94652
G1 X201.739 Y110.059 E5.97654
G1 X202.084 Y110.894 E6.00659
G1 X202.353 Y111.756 E6.03662
G1 X202.545 Y112.639 E6.06668
G1 X202.657 Y113.535 E6.09671
G1 X202.687 Y114.073 E6.11463
G1 X202.7 Y114.68 E6.13482
G1 X202.699 Y120.524 E6.3292
G1 X202.69 Y121.251 E6.35338
G1 X202.639 Y122.153 E6.38343
G1 X202.508 Y123.047 E6.41348
G1 X202.299 Y123.925 E6.4435
G1 X202.013 Y124.782 E6.47355
G1 X201.652 Y125.61 E6.50359
G1 X201.22 Y126.402 E6.5336
G1 X200.719 Y127.154 E6.56365
G1 X200.153 Y127.858 E6.59369
G1 X199.528 Y128.509 E6.62371
G1 X198.847 Y129.103 E6.65377
G1 X198.116 Y129.634 E6.68382
G1 X197.342 Y130.098 E6.71383
G1 X196.529 Y130.492 E6.74388
G1 X195.685 Y130.812 E6.7739
G1 X194.815 Y131.057 E6.80396
G1 X193.928 Y131.223 E6.83398
G1 X193.225 Y131.299 E6.8575
G1 X190.618 Y131.487 E6.94443
G1 X188.089 Y131.742 E7.02897
G1 X185.569 Y132.067 E7.11348
G1 X183.073 Y132.461 E7.19753
G1 X180.577 Y132.927 E7.28198
G1 X178.1 Y133.463 E7.36627
G1 X175.65 Y134.067 E7.4502
G1 X173.154 Y134.757 E7.53633
G1 X170.761 Y135.493 E7.6196
G1 X168.353 Y136.307 E7.70414
G1 X165.94 Y137.2 E7.78972
G1 X163.618 Y138.136 E7.87299
G1 X161.287 Y139.153 E7.95757
G1 X158.97 Y140.242 E8.04272
G1 X156.692 Y141.393 E8.12761
G1 X154.484 Y142.587 E8.2111
G1 X152.267 Y143.87 E8.2963
G1 X150.128 Y145.188 E8.37986
G1 X148.008 Y146.581 E8.46423
G1 X145.905 Y148.049 E8.54953
G1 X143.878 Y149.55 E8.63343
G1 X141.863 Y151.131 E8.71861
G1 X139.933 Y152.739 E8.80216
G1 X138.005 Y154.439 E8.88766
G1 X136.143 Y156.174 E8.97231
G1 X134.555 Y157.734 E9.04634
G1 X134.043 Y158.204 E9.06946
G1 X133.196 Y158.93 E9.10656
G1 X131.206 Y160.685 E9.19481
G1 X129.302 Y162.457 E9.28132
G1 X128.615 Y163.043 E9.31136
G1 X127.878 Y163.565 E9.3414
G1 X127.098 Y164.02 E9.37143
G1 X126.28 Y164.405 E9.4015
G1 X125.432 Y164.715 E9.43153
G1 X124.56 Y164.949 E9.46156
G1 X123.671 Y165.106 E9.49158
G1 X122.637 Y165.187 E9.52608
G1 X122.03 Y165.2 E9.54627
G1 X117.821 Y165.199 E9.68627
G1 X117.124 Y165.189 E9.70945
G1 X116.28 Y165.142 E9.73757
G1 X115.762 Y165.091 E9.75488
G1 X113.194 Y164.873 E9.8406
G1 X110.633 Y164.728 E9.92591
G1 X108.099 Y164.656 E10.01023
G1 X105.567 Y164.656 E10.09444
G1 X103.033 Y164.728 E10.17876
G1 X100.493 Y164.872 E10.26337
G1 X97.348 Y165.144 E10.36837
G1 X96.657 Y165.187 E10.39139
G1 X96.05 Y165.2 E10.41159
G1 X91.888 Y165.199 E10.55002
G1 X91.183 Y165.188 E10.57347
G1 X90.281 Y165.134 E10.60352
G1 X89.388 Y165 E10.63356
G1 X88.51 Y164.788 E10.6636
G1 X87.655 Y164.499 E10.69362
G1 X86.828 Y164.136 E10.72366
G1 X86.249 Y163.826 E10.7455
G1 X85.478 Y163.381 E10.77511
G1 X84.442 Y162.763 E10.81523
G1 X82.236 Y161.531 E10.89927
G1 X79.961 Y160.344 E10.98462
G1 X77.695 Y159.242 E11.06842
G1 X75.388 Y158.199 E11.15263
G1 X73.025 Y157.21 E11.23783
G1 X70.639 Y156.291 E11.32287
G1 X68.292 Y155.462 E11.40566
G1 X65.842 Y154.675 E11.49125
G1 X63.332 Y153.944 E11.5782
G1 X62.395 Y153.69 E11.61049
G1 X61.534 Y153.415 E11.64055
G1 X60.503 Y152.969 E11.67792
G1 X58.246 Y151.84 E11.76185
G1 X55.92 Y150.757 E11.84719
G1 X53.587 Y149.75 E11.9317
G1 X51.265 Y148.823 E12.01486
G1 X48.832 Y147.932 E12.10104
G1 X46.46 Y147.137 E12.18425
G1 X44.033 Y146.4 E12.26861
G1 X40.462 Y145.449 E12.39152
G1 X40.07 Y145.352 E12.40495
G1 X39.203 Y145.097 E12.43501
G1 X38.363 Y144.767 E12.46503
G1 X37.555 Y144.364 E12.49506
G1 X36.786 Y143.89 E12.5251
G1 X36.061 Y143.351 E12.55515
G1 X35.388 Y142.75 E12.58516
G1 X34.77 Y142.091 E12.61521
G1 X34.212 Y141.38 E12.64527
G1 X33.72 Y140.623 E12.6753
G1 X33.297 Y139.825 E12.70534
G1 X32.946 Y138.993 E12.73537
G1 X32.67 Y138.133 E12.76541
G1 X32.471 Y137.252 E12.79545
G1 X32.351 Y136.357 E12.82549
G1 X32.315 Y135.756 E12.84551
G1 X32.3 Y135.117 E12.86677
G1 X32.301 Y100.564 E14.01601
G1 X32.312 Y99.873 E14.039
G1 X32.367 Y98.971 E14.06905
G1 X32.5 Y98.078 E14.09908
G1 X32.713 Y97.2 E14.12913
G1 X33.002 Y96.345 E14.15915
G1 X33.366 Y95.518 E14.1892
G1 X33.801 Y94.727 E14.21923
G1 X34.305 Y93.977 E14.24928
G1 X34.873 Y93.275 E14.27931
G1 X35.501 Y92.626 E14.30935
G1 X36.183 Y92.035 E14.33937
G1 X36.916 Y91.507 E14.36941
G1 X37.692 Y91.045 E14.39945
G1 X38.506 Y90.654 E14.42949
G0 F6000 X38.366 Y90.279
G1 F1200 X39.212 Y89.962 E14.45953
G1 X39.843 Y89.776 E14.48141
G1 X40.544 Y89.594 E14.5055
G1 X41.799 Y89.284 E14.5485
G1 X44.275 Y88.601 E14.63393
G1 X46.663 Y87.868 E14.71701
G1 X49.104 Y87.042 E14.80272
G1 X51.456 Y86.172 E14.88613
G1 X53.764 Y85.243 E14.96888
G1 X56.081 Y84.233 E15.05294
G1 X59.506 Y82.6 E15.17915
G1 X60.391 Y82.156 E15.21208
G1 X61.246 Y81.774 E15.24322
G1 X62.053 Y81.493 E15.27165
G1 X62.658 Y81.31 E15.29267
G1 X64.148 Y80.878 E15.34427
G1 X66.606 Y80.09 E15.43012
G1 X68.969 Y79.259 E15.51343
G1 X71.299 Y78.365 E15.59644
G1 X73.667 Y77.377 E15.68178
G1 X75.977 Y76.338 E15.76602
G1 X78.215 Y75.253 E15.84874
G1 X80.511 Y74.058 E15.93483
G1 X82.678 Y72.852 E16.01732
G1 X84.89 Y71.537 E16.10291
G1 X85.776 Y70.989 E16.13756
G1 X86.596 Y70.532 E16.16878
G1 X87.452 Y70.15 E16.19996
G1 X88.34 Y69.844 E16.2312
G1 X89.251 Y69.619 E16.26241
G1 X90.177 Y69.475 E16.29358
G1 X91.022 Y69.415 E16.32175
G1 X91.661 Y69.4 E16.34301
G1 X95.678 Y69.4 E16.47662
G1 X96.539 Y69.412 E16.50526
G1 X97.401 Y69.46 E16.53397
G1 X100.48 Y69.729 E16.63677
G1 X103.018 Y69.872 E16.72132
G1 X105.552 Y69.944 E16.80563
G1 X108.062 Y69.944 E16.88912
G1 X110.596 Y69.872 E16.97343
G1 X113.113 Y69.73 E17.05728
G1 X116.267 Y69.457 E17.16257
G1 X116.974 Y69.413 E17.18613
G1 X117.59 Y69.4 E17.20663
G1 X121.804 Y69.401 E17.34679
G1 X122.523 Y69.412 E17.3707
G1 X123.46 Y69.468 E17.40192
G1 X124.353 Y69.6 E17.43195
G1 X125.301 Y69.828 E17.46438
G1 X126.189 Y70.128 E17.49555
G1 X127.017 Y70.49 E17.52561
G1 X127.841 Y70.94 E17.55683
G1 X128.655 Y71.486 E17.58943
G1 X129.606 Y72.278 E17.6306
G1 X130.627 Y73.236 E17.67716
G1 X132.546 Y74.979 E17.76339
G1 X134.001 Y76.224 E17.82708
G1 X134.436 Y76.608 E17.84638
G1 X134.851 Y76.995 E17.86525
G1 X135.522 Y77.656 E17.89658
G1 X136.028 Y78.17 E17.92057
G1 X137.873 Y79.939 E18.00558
G1 X139.734 Y81.627 E18.08915
G1 X141.672 Y83.286 E18.174
G1 X143.639 Y84.877 E18.25814
G1 X145.632 Y86.396 E18.34149
G1 X147.69 Y87.877 E18.42582
G1 X149.781 Y89.292 E18.5098
G1 X151.919 Y90.653 E18.59409
G1 X154.103 Y91.956 E18.67868
G1 X156.276 Y93.173 E18.76151
G1 X158.541 Y94.357 E18.84652
G1 X160.831 Y95.474 E18.93126
G1 X163.109 Y96.505 E19.01443
G1 X165.451 Y97.488 E19.09891
G1 X167.832 Y98.407 E19.18379
G1 X170.171 Y99.236 E19.26633
G1 X172.583 Y100.013 E19.35061
G1 X175.036 Y100.729 E19.43561
G1 X177.456 Y101.361 E19.5188
G1 X179.955 Y101.94 E19.60411
G1 X182.421 Y102.436 E19.68778
G1 X184.909 Y102.865 E19.77175
G1 X187.387 Y103.221 E19.85501
G1 X189.91 Y103.51 E19.93948
G1 X192.645 Y103.744 E20.03078
G1 X193.278 Y103.791 E20.05189
G1 X194.21 Y103.901 E20.0831
G1 X195.094 Y104.085 E20.11313
G1 X195.992 Y104.356 E20.14433
G1 X196.896 Y104.72 E20.17674
G1 X197.732 Y105.147 E20.20797
G1 X198.497 Y105.627 E20.23801
G1 X199.273 Y106.215 E20.27039
G1 X199.942 Y106.822 E20.30043
G1 X200.602 Y107.538 E20.33282
G1 X201.154 Y108.253 E20.36286
G1 X201.678 Y109.074 E20.39526
G1 X202.109 Y109.906 E20.42642
G1 X202.454 Y110.741 E20.45647
G1 X202.744 Y111.671 E20.48887
G1 X202.942 Y112.589 E20.52011
G1 X203.054 Y113.485 E20.55014
G1 X203.087 Y114.064 E20.56943
G1 X203.1 Y114.68 E20.58992
G1 X203.099 Y120.529 E20.78446
G1 X203.089 Y121.274 E20.80924
G1 X203.035 Y122.211 E20.84046
G1 X202.904 Y123.105 E20.87051
G1 X202.688 Y124.018 E20.90172
G1 X202.38 Y124.942 E20.93411
G1 X202.019 Y125.77 E20.96415
G1 X201.553 Y126.624 E20.99651
G1 X201.031 Y127.405 E21.02776
G1 X200.465 Y128.109 E21.0578
G1 X199.817 Y128.786 E21.08897
G1 X199.082 Y129.427 E21.12141
G1 X198.351 Y129.958 E21.15146
G1 X197.548 Y130.441 E21.18262
G1 X196.671 Y130.866 E21.21504
G1 X195.827 Y131.186 E21.24506
G1 X194.889 Y131.45 E21.27747
G1 X193.971 Y131.621 E21.30853
G1 X193.254 Y131.698 E21.33251
G1 X190.651 Y131.886 E21.41931
G1 X188.14 Y132.139 E21.50325
G1 X185.62 Y132.464 E21.58776
G1 X183.135 Y132.856 E21.67144
G1 X180.662 Y133.318 E21.75511
G1 X178.185 Y133.854 E21.8394
G1 X175.757 Y134.453 E21.92258
G1 X173.261 Y135.142 E22.0087
G1 X170.889 Y135.872 E22.09125
G1 X168.481 Y136.686 E22.17579
G1 X166.09 Y137.571 E22.26059
G1 X163.778 Y138.503 E22.3435
G1 X161.447 Y139.52 E22.42809
G1 X159.14 Y140.604 E22.51286
G1 X156.882 Y141.745 E22.59701
G1 X154.674 Y142.939 E22.6805
G1 X152.477 Y144.211 E22.76493
G1 X150.338 Y145.529 E22.8485
G1 X148.228 Y146.915 E22.93246
G1 X146.134 Y148.377 E23.01741
G1 X144.125 Y149.865 E23.10056
G1 X142.11 Y151.446 E23.18574
G1 X140.198 Y153.039 E23.26852
G1 X138.27 Y154.739 E23.35401
G1 X136.415 Y156.466 E23.43831
G1 X134.825 Y158.029 E23.51246
G1 X134.303 Y158.508 E23.53603
G1 X133.456 Y159.234 E23.57313
G1 X131.471 Y160.985 E23.66117
G1 X129.562 Y162.761 E23.74789
G1 X128.875 Y163.347 E23.77792
G1 X128.08 Y163.911 E23.81034
G1 X127.3 Y164.366 E23.84038
G1 X126.417 Y164.781 E23.87283
G1 X125.569 Y165.091 E23.90286
G1 X124.63 Y165.343 E23.93519
G1 X123.702 Y165.505 E23.96653
G1 X122.646 Y165.587 E24.00176
G1 X122.03 Y165.6 E24.02225
G1 X117.815 Y165.599 E24.16244
G1 X117.102 Y165.588 E24.18616
G1 X116.241 Y165.54 E24.21484
G1 X115.728 Y165.49 E24.23198
G1 X113.16 Y165.271 E24.3177
G1 X110.622 Y165.128 E24.40225
G1 X108.088 Y165.056 E24.48657
G1 X105.578 Y165.056 E24.57005
G1 X103.044 Y165.128 E24.65437
G1 X100.527 Y165.271 E24.73822
G1 X97.373 Y165.543 E24.84351
G1 X96.666 Y165.587 E24.86707
G1 X96.05 Y165.6 E24.88756
G1 X91.882 Y165.599 E25.02619
G1 X91.159 Y165.587 E25.05024
G1 X90.222 Y165.53 E25.08146
G1 X89.329 Y165.396 E25.1115
G1 X88.416 Y165.177 E25.14272
G1 X87.527 Y164.878 E25.17392
G1 X86.639 Y164.489 E25.20616
G1 X86.049 Y164.172 E25.22844
G1 X85.273 Y163.725 E25.25823
G1 X84.237 Y163.107 E25.29835
G1 X82.051 Y161.886 E25.38163
G1 X79.776 Y160.699 E25.46698
G1 X77.52 Y159.602 E25.55041
G1 X75.234 Y158.568 E25.63386
G1 X72.871 Y157.579 E25.71906
G1 X70.495 Y156.664 E25.80374
G1 X68.17 Y155.843 E25.88575
G1 X65.72 Y155.056 E25.97134
G1 X63.22 Y154.328 E26.05794
G1 X62.273 Y154.071 E26.09058
G1 X61.375 Y153.782 E26.12196
G1 X60.324 Y153.327 E26.16005
G1 X58.077 Y152.203 E26.24361
G1 X55.751 Y151.12 E26.32895
G1 X53.428 Y150.117 E26.41311
G1 X51.127 Y149.199 E26.49551
G1 X48.694 Y148.307 E26.5817
G1 X46.344 Y147.52 E26.66412
G1 X43.93 Y146.787 E26.74803
G1 X40.359 Y145.835 E26.87095
G1 X39.957 Y145.736 E26.88472
G1 X39.09 Y145.481 E26.91478
G1 X38.184 Y145.125 E26.94716
G1 X37.345 Y144.705 E26.97836
G1 X36.576 Y144.231 E27.00841
G1 X35.822 Y143.672 E27.03963
G1 X35.096 Y143.024 E27.07199
G1 X34.478 Y142.365 E27.10204
G1 X33.897 Y141.627 E27.13328
G1 X33.385 Y140.841 E27.16448
G1 X32.928 Y139.98 E27.1969
G1 X32.577 Y139.148 E27.22694
G1 X32.289 Y138.255 E27.25815
G1 X32.081 Y137.34 E27.28935
G1 X31.952 Y136.381 E27.32154
G1 X31.915 Y135.765 E27.34206
G1 X31.9 Y135.117 E27.36362
G1 X31.901 Y100.558 E28.51306
G1 X31.913 Y99.849 E28.53664
G1 X31.971 Y98.912 E28.56787
G1 X32.104 Y98.019 E28.5979
G1 X32.324 Y97.106 E28.62913
G1 X32.623 Y96.217 E28.66033
G1 X33 Y95.357 E28.69156
G1 X33.469 Y94.504 E28.72394
G1 X33.994 Y93.725 E28.75518
G1 X34.562 Y93.023 E28.78522
G1 X35.239 Y92.324 E28.81758
G1 X35.949 Y91.71 E28.8488
G1 X36.711 Y91.163 E28.88
G1 X37.487 Y90.701 E28.91004
G1 X38.366 Y90.279 E28.94247
G0 F6000 X38.226 Y89.904
G1 F1200 X39.072 Y89.587 E28.97252
G1 X39.742 Y89.389 E28.99575
G1 X40.448 Y89.206 E29.02001
G1 X41.693 Y88.898 E29.06267
G1 X44.169 Y88.216 E29.14809
G1 X46.535 Y87.489 E29.23041
G1 X48.976 Y86.663 E29.31612
G1 X51.317 Y85.797 E29.39914
G1 X53.604 Y84.876 E29.48114
G1 X55.921 Y83.866 E29.56521
G1 X59.327 Y82.242 E29.69071
G1 X60.228 Y81.791 E29.72422
G1 X61.114 Y81.396 E29.75649
G1 X61.937 Y81.11 E29.78547
G1 X64.026 Y80.497 E29.85788
G1 X66.484 Y79.709 E29.94373
G1 X68.836 Y78.882 E30.02665
G1 X71.145 Y77.996 E30.10891
G1 X73.503 Y77.012 E30.19389
G1 X75.813 Y75.973 E30.27814
G1 X78.03 Y74.898 E30.36009
G1 X80.316 Y73.708 E30.4458
G1 X82.483 Y72.502 E30.52829
G1 X84.686 Y71.193 E30.61352
G1 X85.581 Y70.64 E30.64851
G1 X86.433 Y70.167 E30.68092
G1 X87.322 Y69.772 E30.71328
G1 X88.244 Y69.456 E30.74569
G1 X89.19 Y69.224 E30.77809
G1 X90.149 Y69.076 E30.81037
G1 X91.013 Y69.015 E30.83917
G1 X91.652 Y69 E30.86043
G1 X95.684 Y69 E30.99454
G1 X96.561 Y69.013 E31.02371
