;FLAVOR:Marlin
;TIME:21434
;Filament used: 21.6428m
;Layer height: 0.32
;MINX:56.5
;MINY:56.5
;MINZ:0.2
;MAXX:178.5
;MAXY:178.5
;MAXZ:100.04
;Generated with Cura_SteamEngine 5.3.1
M140 S50
M105
M190 S50
M104 S200
M105
M109 S200
M82 ;absolute extrusion mode
; Ender 3 Custom Start G-code
G92 E0 ; Reset Extruder
G28 ; Home all axes
G1 Z2.0 F3000 ; Move Z Axis up little to prevent scratching of Heat Bed
G1 X0.1 Y20 Z0.3 F5000.0 ; Move to start position
G1 X0.1 Y200.0 Z0.3 F1500.0 E15 ; Draw the first line
G1 X0.4 Y200.0 Z0.3 F5000.0 ; Move to side a little
G1 X0.4 Y20 Z0.3 F1500.0 E30 ; Draw the second line
G92 E0 ; Reset Extruder
G1 Z2.0 F3000 ; Move Z Axis up little to prevent scratching of Heat Bed
G1 X5 Y20 Z0.3 F5000.0 ; Move over to prevent blob squish
G92 E0
G92 E0
G1 F2700 E-5
;LAYER_COUNT:313
;LAYER:0
M107
G0 F6000 X60.481 Y60.117 Z0.2
;TYPE:SKIRT
G1 F2700 E0
G1 F1200 X61.162 Y59.524 E0.03003
G1 X61.894 Y58.994 E0.06009
G1 X62.669 Y58.531 E0.09012
G1 X63.482 Y58.138 E0.12015
G1 X64.327 Y57.818 E0.1502
G1 X65.196 Y57.575 E0.18022
G1 X66.084 Y57.409 E0.21026
G1 X67.223 Y57.313 E0.24828
G1 X67.83 Y57.3 E0.26847
G1 X166.939 Y57.301 E3.56485
G1 X167.637 Y57.311 E3.58807
G1 X168.539 Y57.364 E3.61812
G1 X169.432 Y57.496 E3.64815
G1 X170.31 Y57.707 E3.67818
G1 X171.166 Y57.995 E3.70822
G1 X171.993 Y58.357 E3.73825
G1 X172.785 Y58.792 E3.7683
G1 X173.536 Y59.294 E3.79834
G1 X174.239 Y59.861 E3.82838
G1 X174.889 Y60.488 E3.85842
G1 X175.481 Y61.17 E3.88846
G1 X176.011 Y61.901 E3.91849
G1 X176.473 Y62.677 E3.94853
G1 X176.866 Y63.49 E3.97856
G1 X177.184 Y64.335 E4.00859
G1 X177.427 Y65.205 E4.03864
G1 X177.592 Y66.093 E4.06868
G1 X177.687 Y67.223 E4.10639
G1 X177.7 Y67.83 E4.12659
G1 X177.699 Y166.89 E7.42133
G1 X177.69 Y167.617 E7.44552
G1 X177.639 Y168.519 E7.47557
G1 X177.508 Y169.413 E7.50562
G1 X177.299 Y170.291 E7.53564
G1 X177.013 Y171.148 E7.56569
G1 X176.652 Y171.976 E7.59573
G1 X176.22 Y172.768 E7.62573
G1 X175.719 Y173.52 E7.65579
G1 X175.153 Y174.224 E7.68583
G1 X174.528 Y174.875 E7.71585
G1 X173.847 Y175.469 E7.7459
G1 X173.116 Y176 E7.77595
G1 X172.342 Y176.464 E7.80597
G1 X171.529 Y176.858 E7.83602
G1 X170.685 Y177.178 E7.86604
G1 X169.815 Y177.423 E7.8961
G1 X168.928 Y177.589 E7.92612
G1 X167.777 Y177.687 E7.96454
G1 X167.17 Y177.7 E7.98473
G1 X68.075 Y177.699 E11.28064
G1 X67.377 Y177.69 E11.30386
G1 X66.476 Y177.639 E11.33388
G1 X65.582 Y177.507 E11.36393
G1 X64.704 Y177.298 E11.39395
G1 X63.847 Y177.011 E11.42401
G1 X63.02 Y176.65 E11.45402
G1 X62.227 Y176.217 E11.48407
G1 X61.476 Y175.716 E11.5141
G1 X60.772 Y175.15 E11.54415
G1 X60.121 Y174.524 E11.57418
G1 X59.528 Y173.843 E11.60422
G1 X58.998 Y173.112 E11.63425
G1 X58.534 Y172.337 E11.66429
G1 X58.14 Y171.524 E11.69434
G1 X57.82 Y170.68 E11.72436
G1 X57.576 Y169.81 E11.75442
G1 X57.41 Y168.922 E11.78446
G1 X57.313 Y167.767 E11.82301
G1 X57.3 Y167.158 E11.84327
G1 X57.301 Y68.036 E15.14008
G1 X57.31 Y67.371 E15.1622
G1 X57.362 Y66.469 E15.19225
G1 X57.494 Y65.576 E15.22228
G1 X57.704 Y64.698 E15.2523
G1 X57.991 Y63.841 E15.28236
G1 X58.353 Y63.014 E15.31239
G1 X58.786 Y62.222 E15.34241
G1 X59.288 Y61.471 E15.37246
G1 X59.855 Y60.767 E15.40252
G1 X60.481 Y60.117 E15.43254
G0 F6000 X60.218 Y59.815
G1 F1200 X60.899 Y59.222 E15.46257
G1 X61.659 Y58.67 E15.49381
G1 X62.495 Y58.171 E15.52619
G1 X63.34 Y57.764 E15.55739
G1 X64.185 Y57.444 E15.58744
G1 X65.122 Y57.182 E15.6198
G1 X66.05 Y57.01 E15.65119
G1 X67.189 Y56.914 E15.68921
G1 X67.83 Y56.9 E15.71054
G1 X166.945 Y56.901 E19.00711
G1 X167.66 Y56.912 E19.0309
G1 X168.597 Y56.968 E19.06212
G1 X169.49 Y57.1 E19.09214
G1 X170.438 Y57.328 E19.12457
G1 X171.294 Y57.616 E19.15461
G1 X172.186 Y58.006 E19.18699
G1 X172.978 Y58.441 E19.21704
G1 X173.758 Y58.961 E19.24822
G1 X174.517 Y59.573 E19.28065
G1 X175.167 Y60.2 E19.31069
G1 X175.805 Y60.935 E19.34306
G1 X176.355 Y61.696 E19.37429
G1 X176.817 Y62.472 E19.40433
G1 X177.24 Y63.349 E19.43671
G1 X177.569 Y64.227 E19.4679
G1 X177.82 Y65.132 E19.49914
G1 X177.991 Y66.059 E19.53049
G1 X178.086 Y67.189 E19.5682
G1 X178.1 Y67.83 E19.58953
G1 X178.099 Y166.895 E22.88444
G1 X178.089 Y167.64 E22.90923
G1 X178.035 Y168.577 E22.94044
G1 X177.904 Y169.471 E22.97049
G1 X177.688 Y170.384 E23.0017
G1 X177.38 Y171.308 E23.03409
G1 X177.019 Y172.136 E23.06414
G1 X176.553 Y172.99 E23.09649
G1 X176.031 Y173.771 E23.12774
G1 X175.465 Y174.475 E23.15778
G1 X174.817 Y175.152 E23.18895
G1 X174.082 Y175.793 E23.22139
G1 X173.351 Y176.324 E23.25144
G1 X172.548 Y176.807 E23.28261
G1 X171.671 Y177.232 E23.31502
G1 X170.827 Y177.552 E23.34504
G1 X169.889 Y177.816 E23.37745
G1 X168.962 Y177.988 E23.40881
G1 X167.811 Y178.086 E23.44723
G1 X167.179 Y178.1 E23.46826
G1 X68.07 Y178.099 E26.76464
G1 X67.354 Y178.089 E26.78845
G1 X66.418 Y178.035 E26.81964
G1 X65.524 Y177.903 E26.84969
G1 X64.611 Y177.687 E26.8809
G1 X63.687 Y177.378 E26.9133
G1 X62.86 Y177.017 E26.94332
G1 X62.005 Y176.55 E26.97572
G1 X61.225 Y176.028 E27.00693
G1 X60.521 Y175.462 E27.03698
G1 X59.819 Y174.787 E27.06937
G1 X59.226 Y174.106 E27.0994
G1 X58.674 Y173.347 E27.13062
G1 X58.174 Y172.511 E27.16302
G1 X57.766 Y171.666 E27.19423
G1 X57.446 Y170.822 E27.22425
G1 X57.183 Y169.884 E27.25665
G1 X57.011 Y168.955 E27.28807
G1 X56.913 Y167.776 E27.32742
G1 X56.9 Y167.158 E27.34798
G1 X56.901 Y68.031 E30.64496
G1 X56.911 Y67.348 E30.66768
G1 X56.966 Y66.411 E30.6989
G1 X57.098 Y65.518 E30.72892
G1 X57.315 Y64.605 E30.76013
G1 X57.612 Y63.714 E30.79137
G1 X58.002 Y62.822 E30.82375
G1 X58.453 Y62 E30.85494
G1 X58.976 Y61.22 E30.88617
G1 X59.543 Y60.516 E30.91624
G1 X60.218 Y59.815 E30.9486
G0 F6000 X59.955 Y59.513
G1 F1200 X60.636 Y58.92 E30.97864
G1 X61.424 Y58.346 E31.01106
G1 X62.321 Y57.811 E31.0458
G1 X63.198 Y57.39 E31.07816
G1 X64.043 Y57.07 E31.10821
G1 X65.049 Y56.789 E31.14295
G1 X66.016 Y56.611 E31.17565
G1 X67.155 Y56.515 E31.21367
G1 X67.83 Y56.5 E31.23613
G1 X166.951 Y56.501 E34.5329
G1 X167.684 Y56.513 E34.55729
G1 X168.655 Y56.572 E34.58964
G1 X169.584 Y56.711 E34.62088
G1 X170.532 Y56.939 E34.65331
G1 X171.454 Y57.249 E34.68567
G1 X172.379 Y57.655 E34.71926
G1 X173.171 Y58.09 E34.74932
G1 X173.98 Y58.628 E34.78163
G1 X174.795 Y59.285 E34.81645
G1 X175.445 Y59.912 E34.84649
G1 X176.107 Y60.673 E34.88004
G1 X176.699 Y61.491 E34.91362
G1 X177.161 Y62.267 E34.94366
G1 X177.615 Y63.209 E34.97844
G1 X177.944 Y64.087 E35.00962
G1 X178.213 Y65.059 E35.04317
G1 X178.39 Y66.025 E35.07583
G1 X178.485 Y67.155 E35.11355
G1 X178.5 Y67.83 E35.136
G1 X178.499 Y166.9 E38.43109
G1 X178.488 Y167.663 E38.45647
G1 X178.431 Y168.635 E38.48885
G1 X178.3 Y169.529 E38.5189
G1 X178.077 Y170.476 E38.55126
G1 X177.747 Y171.468 E38.58603
G1 X177.386 Y172.296 E38.61608
G1 X176.886 Y173.212 E38.65079
G1 X176.343 Y174.022 E38.68322
G1 X175.777 Y174.726 E38.71326
G1 X175.106 Y175.429 E38.74559
G1 X174.317 Y176.117 E38.78041
G1 X173.586 Y176.648 E38.81046
G1 X172.754 Y177.15 E38.84278
G1 X171.813 Y177.606 E38.87755
G1 X170.969 Y177.926 E38.90758
G1 X169.997 Y178.201 E38.94117
G1 X168.996 Y178.387 E38.97504
G1 X167.845 Y178.485 E39.01346
G1 X167.188 Y178.5 E39.03532
G1 X68.064 Y178.499 E42.33219
G1 X67.331 Y178.488 E42.35658
G1 X66.36 Y178.431 E42.38893
G1 X65.466 Y178.299 E42.41898
G1 X64.484 Y178.066 E42.45255
G1 X63.527 Y177.745 E42.48612
G1 X62.7 Y177.384 E42.51614
G1 X61.813 Y176.901 E42.54973
G1 X60.974 Y176.34 E42.5833
G1 X60.27 Y175.774 E42.61334
G1 X59.517 Y175.05 E42.64809
G1 X58.924 Y174.369 E42.67812
G1 X58.331 Y173.552 E42.7117
G1 X57.814 Y172.685 E42.74527
G1 X57.392 Y171.808 E42.77764
G1 X57.072 Y170.964 E42.80766
G1 X56.798 Y169.992 E42.84125
G1 X56.612 Y168.988 E42.87521
G1 X56.514 Y167.809 E42.91456
G1 X56.5 Y167.158 E42.93622
G1 X56.501 Y68.025 E46.2334
G1 X56.512 Y67.325 E46.25668
G1 X56.57 Y66.353 E46.28907
G1 X56.702 Y65.46 E46.31909
G1 X56.926 Y64.513 E46.35146
G1 X57.245 Y63.554 E46.38507
G1 X57.635 Y62.662 E46.41745
G1 X58.102 Y61.808 E46.44983
G1 X58.664 Y60.969 E46.48341
G1 X59.231 Y60.265 E46.51348
G1 X59.955 Y59.513 E46.5482
G1 F2700 E41.5482
;MESH:creeper_pen_holder.stl
G0 F6000 X168.153 Y66.847
G0 X168.165 Y167.3
G0 X167.3 Y167.3
;TYPE:WALL-OUTER
G1 F2700 E46.5482
G1 F1200 X67.7 Y167.3 E49.86091
G1 X67.7 Y67.7 E53.17362
G1 X167.3 Y67.7 E56.48633
G1 X167.3 Y167.3 E59.79904
G0 F6000 X166.94 Y166.94
;TYPE:SKIN
G1 F1200 X68.06 Y166.94 E63.0878
G1 X68.06 Y68.06 E66.37656
G1 X166.94 Y68.06 E69.66532
G1 X166.94 Y166.94 E72.95408
G1 F2700 E67.95408
G0 F6000 X168.165 Y166.94
G0 X168.165 Y68.875
G0 X166.739 Y68.875
G1 F2700 E72.95408
G1 F1200 X166.124 Y68.26 E72.98301
G0 F6000 X165.558 Y68.26
G1 F1200 X166.739 Y69.441 E73.03856
G0 F6000 X166.739 Y70.007
G1 F1200 X164.992 Y68.26 E73.12074
G0 F6000 X164.427 Y68.26
G1 F1200 X166.739 Y70.572 E73.22949
G0 F6000 X166.739 Y71.138
G1 F1200 X163.861 Y68.26 E73.36486
G0 F6000 X163.295 Y68.26
G1 F1200 X166.739 Y71.704 E73.52685
G0 F6000 X166.739 Y72.269
G1 F1200 X162.73 Y68.26 E73.71542
G0 F6000 X162.164 Y68.26
G1 F1200 X166.739 Y72.835 E73.93062
G0 F6000 X166.739 Y73.401
G1 F1200 X161.598 Y68.26 E74.17244
G0 F6000 X161.032 Y68.26
G1 F1200 X166.739 Y73.966 E74.44085
G0 F6000 X166.739 Y74.532
G1 F1200 X160.467 Y68.26 E74.73587
G0 F6000 X159.901 Y68.26
G1 F1200 X166.739 Y75.098 E75.05751
G0 F6000 X166.739 Y75.663
G1 F1200 X159.335 Y68.26 E75.40574
G0 F6000 X158.77 Y68.26
G1 F1200 X166.739 Y76.229 E75.78058
G0 F6000 X166.739 Y76.795
G1 F1200 X158.204 Y68.26 E76.18204
G0 F6000 X157.638 Y68.26
G1 F1200 X166.739 Y77.361 E76.61012
G0 F6000 X166.739 Y77.926
G1 F1200 X157.073 Y68.26 E77.06478
G0 F6000 X156.507 Y68.26
G1 F1200 X166.739 Y78.492 E77.54607
G0 F6000 X166.739 Y79.058
G1 F1200 X155.941 Y68.26 E78.05397
G0 F6000 X155.376 Y68.26
G1 F1200 X166.739 Y79.623 E78.58845
G0 F6000 X166.739 Y80.189
G1 F1200 X154.81 Y68.26 E79.14955
G0 F6000 X154.244 Y68.26
G1 F1200 X166.739 Y80.755 E79.73728
G0 F6000 X166.739 Y81.32
G1 F1200 X153.679 Y68.26 E80.35158
G0 F6000 X153.113 Y68.26
G1 F1200 X166.739 Y81.886 E80.99251
G0 F6000 X166.739 Y82.452
G1 F1200 X152.547 Y68.26 E81.66006
G0 F6000 X151.981 Y68.26
G1 F1200 X166.739 Y83.017 E82.3542
G0 F6000 X166.739 Y83.583
G1 F1200 X151.416 Y68.26 E83.07495
G0 F6000 X150.85 Y68.26
G1 F1200 X166.739 Y84.149 E83.82232
G0 F6000 X166.739 Y84.714
G1 F1200 X150.284 Y68.26 E84.59629
G0 F6000 X149.719 Y68.26
G1 F1200 X166.739 Y85.28 E85.39686
G0 F6000 X166.739 Y85.846
G1 F1200 X149.153 Y68.26 E86.22405
G0 F6000 X148.587 Y68.26
G1 F1200 X166.739 Y86.411 E87.07784
G0 F6000 X166.739 Y86.977
G1 F1200 X148.022 Y68.26 E87.95823
G0 F6000 X147.456 Y68.26
G1 F1200 X166.739 Y87.543 E88.86524
G0 F6000 X166.739 Y88.109
G1 F1200 X146.89 Y68.26 E89.79888
G0 F6000 X146.325 Y68.26
G1 F1200 X166.739 Y88.674 E90.75909
G0 F6000 X166.739 Y89.24
G1 F1200 X145.759 Y68.26 E91.74593
G0 F6000 X145.193 Y68.26
G1 F1200 X166.739 Y89.806 E92.75939
G0 F6000 X166.739 Y90.371
G1 F1200 X144.628 Y68.26 E93.79942
G0 F6000 X144.062 Y68.26
G1 F1200 X166.739 Y90.937 E94.86608
G0 F6000 X166.739 Y91.503
G1 F1200 X143.496 Y68.26 E95.95936
G0 F6000 X142.931 Y68.26
G1 F1200 X166.739 Y92.068 E97.07921
G0 F6000 X166.739 Y92.634
G1 F1200 X142.365 Y68.26 E98.22569
G0 F6000 X141.799 Y68.26
G1 F1200 X166.739 Y93.2 E99.39879
G0 F6000 X166.739 Y93.765
G1 F1200 X141.233 Y68.26 E100.59849
G0 F6000 X140.668 Y68.26
G1 F1200 X166.739 Y94.331 E101.82479
G0 F6000 X166.739 Y94.897
G1 F1200 X140.102 Y68.26 E103.07771
G0 F6000 X139.536 Y68.26
G1 F1200 X166.739 Y95.462 E104.35724
G0 F6000 X166.739 Y96.028
G1 F1200 X138.971 Y68.26 E105.66336
G0 F6000 X138.405 Y68.26
G1 F1200 X166.739 Y96.594 E106.9961
G0 F6000 X166.739 Y97.16
G1 F1200 X137.839 Y68.26 E108.35547
G0 F6000 X137.274 Y68.26
G1 F1200 X166.739 Y97.725 E109.74141
G0 F6000 X166.739 Y98.291
G1 F1200 X136.708 Y68.26 E111.15398
G0 F6000 X136.142 Y68.26
G1 F1200 X166.739 Y98.857 E112.59317
G0 F6000 X166.739 Y99.422
G1 F1200 X135.577 Y68.26 E114.05893
G0 F6000 X135.011 Y68.26
G1 F1200 X166.739 Y99.988 E115.55132
G0 F6000 X166.739 Y100.554
G1 F1200 X134.445 Y68.26 E117.07033
G0 F6000 X133.88 Y68.26
G1 F1200 X166.739 Y101.119 E118.61592
G0 F6000 X166.739 Y101.685
G1 F1200 X133.314 Y68.26 E120.18813
G0 F6000 X132.748 Y68.26
G1 F1200 X166.739 Y102.251 E121.78696
G0 F6000 X166.739 Y102.816
G1 F1200 X132.183 Y68.26 E123.41237
G0 F6000 X131.617 Y68.26
G1 F1200 X166.739 Y103.382 E125.0644
G0 F6000 X166.739 Y103.948
G1 F1200 X131.051 Y68.26 E126.74305
G0 F6000 X130.485 Y68.26
G1 F1200 X166.739 Y104.513 E128.44831
G0 F6000 X166.739 Y105.079
G1 F1200 X129.92 Y68.26 E130.18016
G0 F6000 X129.354 Y68.26
G1 F1200 X166.739 Y105.645 E131.93864
G0 F6000 X166.739 Y106.21
G1 F1200 X128.788 Y68.26 E133.72371
G0 F6000 X128.223 Y68.26
G1 F1200 X166.739 Y106.776 E135.53538
G0 F6000 X166.739 Y107.342
G1 F1200 X127.657 Y68.26 E137.37368
G0 F6000 X127.091 Y68.26
G1 F1200 X166.739 Y107.908 E139.2386
G0 F6000 X166.739 Y108.473
G1 F1200 X126.526 Y68.26 E141.1301
G0 F6000 X125.96 Y68.26
G1 F1200 X166.739 Y109.039 E143.04822
G0 F6000 X166.739 Y109.605
G1 F1200 X125.394 Y68.26 E144.99296
G0 F6000 X124.829 Y68.26
G1 F1200 X166.739 Y110.17 E146.96428
G0 F6000 X166.739 Y110.736
G1 F1200 X124.263 Y68.26 E148.96222
G0 F6000 X123.697 Y68.26
G1 F1200 X166.739 Y111.302 E150.98678
G0 F6000 X166.739 Y111.867
G1 F1200 X123.132 Y68.26 E153.03792
G0 F6000 X122.566 Y68.26
G1 F1200 X166.739 Y112.433 E155.11568
G0 F6000 X166.739 Y112.999
G1 F1200 X122 Y68.26 E157.22007
G0 F6000 X121.434 Y68.26
G1 F1200 X166.739 Y113.564 E159.35105
G0 F6000 X166.739 Y114.13
G1 F1200 X120.869 Y68.26 E161.50864
G0 F6000 X120.303 Y68.26
G1 F1200 X166.739 Y114.696 E163.69285
G0 F6000 X166.739 Y115.261
G1 F1200 X119.737 Y68.26 E165.90365
G0 F6000 X119.172 Y68.26
G1 F1200 X166.739 Y115.827 E168.14106
G0 F6000 X166.739 Y116.393
G1 F1200 X118.606 Y68.26 E170.40509
G0 F6000 X118.04 Y68.26
G1 F1200 X166.739 Y116.958 E172.69572
G0 F6000 X166.739 Y117.524
G1 F1200 X117.475 Y68.26 E175.01294
G0 F6000 X116.909 Y68.26
G1 F1200 X166.739 Y118.09 E177.35679
G0 F6000 X166.739 Y118.656
G1 F1200 X116.343 Y68.26 E179.72727
G0 F6000 X115.778 Y68.26
G1 F1200 X166.739 Y119.221 E182.12432
G0 F6000 X166.739 Y119.787
G1 F1200 X115.212 Y68.26 E184.54799
G0 F6000 X114.646 Y68.26
G1 F1200 X166.739 Y120.353 E186.99828
G0 F6000 X166.739 Y120.918
G1 F1200 X114.081 Y68.26 E189.47515
G0 F6000 X113.515 Y68.26
G1 F1200 X166.739 Y121.484 E191.97865
G0 F6000 X166.739 Y122.05
G1 F1200 X112.949 Y68.26 E194.50876
G0 F6000 X112.384 Y68.26
G1 F1200 X166.739 Y122.615 E197.06546
G0 F6000 X166.739 Y123.181
G1 F1200 X111.818 Y68.26 E199.64877
G0 F6000 X111.252 Y68.26
G1 F1200 X166.739 Y123.747 E202.25871
G0 F6000 X166.739 Y124.312
G1 F1200 X110.686 Y68.26 E204.89525
G0 F6000 X110.121 Y68.26
G1 F1200 X166.739 Y124.878 E207.55839
G0 F6000 X166.739 Y125.444
G1 F1200 X109.555 Y68.26 E210.24815
G0 F6000 X108.989 Y68.26
G1 F1200 X166.739 Y126.009 E212.9645
G0 F6000 X166.739 Y126.575
G1 F1200 X108.424 Y68.26 E215.70746
G0 F6000 X107.858 Y68.26
G1 F1200 X166.739 Y127.141 E218.47705
G0 F6000 X166.739 Y127.707
G1 F1200 X107.292 Y68.26 E221.27325
G0 F6000 X106.727 Y68.26
G1 F1200 X166.739 Y128.272 E224.09603
G0 F6000 X166.739 Y128.838
G1 F1200 X106.161 Y68.26 E226.94543
G0 F6000 X105.595 Y68.26
G1 F1200 X166.739 Y129.404 E229.82146
G0 F6000 X166.739 Y129.969
G1 F1200 X105.03 Y68.26 E232.72406
G0 F6000 X104.464 Y68.26
G1 F1200 X166.739 Y130.535 E235.65329
G0 F6000 X166.739 Y131.101
G1 F1200 X103.898 Y68.26 E238.60914
G0 F6000 X103.333 Y68.26
G1 F1200 X166.739 Y131.666 E241.59156
G0 F6000 X166.739 Y132.232
G1 F1200 X102.767 Y68.26 E244.60061
G0 F6000 X102.201 Y68.26
G1 F1200 X166.739 Y132.798 E247.63628
G0 F6000 X166.739 Y133.363
G1 F1200 X101.635 Y68.26 E250.69854
G0 F6000 X101.07 Y68.26
G1 F1200 X166.739 Y133.929 E253.78741
G0 F6000 X166.739 Y134.495
G1 F1200 X100.504 Y68.26 E256.9029
G0 F6000 X99.938 Y68.26
G1 F1200 X166.739 Y135.06 E260.045
G0 F6000 X166.739 Y135.626
G1 F1200 X99.373 Y68.26 E263.21369
G0 F6000 X98.807 Y68.26
G1 F1200 X166.739 Y136.192 E266.409
G0 F6000 X166.739 Y136.757
G1 F1200 X98.241 Y68.26 E269.63091
G0 F6000 X97.676 Y68.26
