;FLAVOR:Marlin
;TIME:9633
;Filament used: 8.51352m
;Layer height: 0.32
;MINX:6.045
;MINY:13.406
;MINZ:0.2
;MAXX:223.895
;MAXY:222.553
;MAXZ:2.12
;Generated with Cura_SteamEngine 5.3.1
M140 S50
M105
M190 S50
M104 S200
M105
M109 S200
M82 ;absolute extrusion mode
; Ender 3 Custom Start G-code
G92 E0 ; Reset Extruder
G28 ; Home all axes
G1 Z2.0 F3000 ; Move Z Axis up little to prevent scratching of Heat Bed
G1 X0.1 Y20 Z0.3 F5000.0 ; Move to start position
G1 X0.1 Y200.0 Z0.3 F1500.0 E15 ; Draw the first line
G1 X0.4 Y200.0 Z0.3 F5000.0 ; Move to side a little
G1 X0.4 Y20 Z0.3 F1500.0 E30 ; Draw the second line
G92 E0 ; Reset Extruder
G1 Z2.0 F3000 ; Move Z Axis up little to prevent scratching of Heat Bed
G1 X5 Y20 Z0.3 F5000.0 ; Move over to prevent blob squish
G92 E0
G92 E0
G1 F2700 E-5
;LAYER_COUNT:7
;LAYER:0
M107
G0 F6000 X24.839 Y19.727 Z0.2
;TYPE:SKIRT
G1 F2700 E0
G1 F1200 X25.41 Y19.027 E0.03005
G1 X26.041 Y18.381 E0.06008
G1 X26.726 Y17.793 E0.09011
G1 X27.461 Y17.267 E0.12017
G1 X28.239 Y16.809 E0.1502
G1 X29.054 Y16.421 E0.18022
G1 X29.901 Y16.108 E0.21025
G1 X30.772 Y15.87 E0.24028
G1 X31.661 Y15.71 E0.27033
G1 X32.704 Y15.624 E0.30513
G1 X33.343 Y15.609 E0.32639
G1 X39.083 Y15.61 E0.51731
G1 X40.296 Y15.627 E0.55765
G1 X42.925 Y15.627 E0.6451
G1 X43.573 Y15.613 E0.66665
G1 X49.635 Y15.609 E0.86828
G1 X50.485 Y15.62 E0.89655
G1 X51.387 Y15.673 E0.9266
G1 X52.359 Y15.821 E0.9593
G1 X55.396 Y16.434 E1.06235
G1 X57.904 Y16.863 E1.14698
G1 X60.425 Y17.223 E1.23168
G1 X62.944 Y17.508 E1.316
G1 X65.439 Y17.719 E1.39928
G1 X68.017 Y17.865 E1.48516
G1 X70.542 Y17.936 E1.56917
G1 X73.076 Y17.936 E1.65345
G1 X75.674 Y17.862 E1.7399
G1 X77.281 Y17.783 E1.79341
G1 X77.887 Y17.77 E1.81357
G1 X102.395 Y17.771 E2.62871
G1 X103.445 Y17.787 E2.66364
G1 X105.713 Y17.851 E2.7391
G1 X108.246 Y17.851 E2.82335
G1 X110.78 Y17.779 E2.90767
G1 X113.322 Y17.635 E2.99235
G1 X115.866 Y17.42 E3.07726
G1 X118.388 Y17.133 E3.16169
G1 X120.881 Y16.778 E3.24544
G1 X123.41 Y16.345 E3.33078
G1 X125.892 Y15.847 E3.41498
G1 X128.031 Y15.365 E3.48791
G1 X128.92 Y15.206 E3.51794
G1 X129.985 Y15.12 E3.55348
G1 X130.592 Y15.107 E3.57367
G1 X136.333 Y15.108 E3.76462
G1 X137.546 Y15.125 E3.80497
G1 X140.175 Y15.125 E3.89241
G1 X140.823 Y15.111 E3.91397
G1 X146.885 Y15.107 E4.11559
G1 X147.731 Y15.118 E4.14373
G1 X148.581 Y15.166 E4.17205
G1 X149.447 Y15.251 E4.20099
G1 X152.045 Y15.472 E4.28771
G1 X154.606 Y15.617 E4.37303
G1 X157.14 Y15.689 E4.45734
G1 X159.673 Y15.689 E4.54159
G1 X162.207 Y15.617 E4.6259
G1 X164.768 Y15.472 E4.71122
G1 X167.27 Y15.259 E4.79474
G1 X169.81 Y14.971 E4.87976
G1 X172.336 Y14.611 E4.96462
G1 X173.909 Y14.351 E5.01765
G1 X174.805 Y14.244 E5.04766
G1 X175.284 Y14.219 E5.06362
G1 X175.891 Y14.206 E5.08381
G1 X200.254 Y14.206 E5.89413
G1 X201.099 Y14.217 E5.92224
G1 X202 Y14.27 E5.95225
G1 X202.894 Y14.402 E5.98231
G1 X203.772 Y14.613 E6.01235
G1 X204.628 Y14.901 E6.04238
G1 X205.455 Y15.263 E6.07241
G1 X206.247 Y15.697 E6.10245
G1 X206.998 Y16.2 E6.13251
G1 X207.701 Y16.767 E6.16255
G1 X208.351 Y17.394 E6.19259
G1 X208.943 Y18.076 E6.22263
G1 X209.472 Y18.807 E6.25264
G1 X209.935 Y19.583 E6.28269
G1 X210.327 Y20.396 E6.31271
G1 X210.646 Y21.241 E6.34275
G1 X210.889 Y22.111 E6.3728
G1 X211.005 Y22.684 E6.39224
G1 X211.122 Y23.363 E6.41516
G1 X211.324 Y24.642 E6.45822
G1 X211.8 Y27.194 E6.54457
G1 X212.33 Y29.649 E6.6281
G1 X212.941 Y32.134 E6.71322
G1 X213.602 Y34.531 E6.79592
G1 X214.361 Y37.008 E6.88208
G1 X214.983 Y38.858 E6.947
G1 X215.439 Y40.182 E6.99357
G1 X215.695 Y41.049 E7.02364
G1 X215.873 Y41.934 E7.05367
G1 X215.941 Y42.457 E7.07121
G1 X216.04 Y43.423 E7.1035
G1 X223.012 Y122.6 E9.74713
G1 X223.067 Y123.334 E9.77161
G1 X223.095 Y124.237 E9.80166
G1 X223.043 Y125.138 E9.83168
G1 X222.911 Y126.032 E9.86174
G1 X222.7 Y126.91 E9.89177
G1 X222.413 Y127.766 E9.9218
G1 X222.051 Y128.593 E9.95182
G1 X221.617 Y129.386 E9.98189
G1 X221.115 Y130.136 E10.01191
G1 X220.58 Y130.804 E10.04037
G1 X219.948 Y131.528 E10.07234
G1 X219.305 Y132.245 E10.10437
G1 X217.62 Y134.233 E10.19105
G1 X216.07 Y136.168 E10.27351
G1 X214.514 Y138.23 E10.35943
G1 X213.06 Y140.272 E10.4428
G1 X211.649 Y142.378 E10.52711
G1 X210.287 Y144.541 E10.61213
G1 X208.99 Y146.739 E10.69702
G1 X207.778 Y148.927 E10.78021
G1 X206.556 Y151.291 E10.86872
G1 X206.049 Y152.309 E10.90654
G1 X205.611 Y153.098 E10.93656
G1 X205.104 Y153.846 E10.96661
G1 X204.534 Y154.546 E10.99664
G1 X203.998 Y155.102 E11.02232
G1 X203.484 Y155.595 E11.04601
G1 X202.401 Y156.603 E11.09522
G1 X200.59 Y158.387 E11.17977
G1 X198.839 Y160.213 E11.26392
G1 X197.15 Y162.076 E11.34755
G1 X195.465 Y164.045 E11.43375
G1 X193.872 Y166.016 E11.51804
G1 X192.344 Y168.02 E11.60186
G1 X190.863 Y170.08 E11.68624
G1 X189.439 Y172.185 E11.77077
G1 X188.063 Y174.347 E11.85601
G1 X186.773 Y176.508 E11.93972
G1 X185.53 Y178.729 E12.02437
G1 X184.363 Y180.962 E12.10817
G1 X183.234 Y183.278 E12.19386
G1 X182.195 Y185.575 E12.27772
G1 X181.204 Y187.937 E12.36291
G1 X180.295 Y190.291 E12.44684
G1 X179.442 Y192.7 E12.53184
G1 X178.674 Y195.084 E12.61514
G1 X177.954 Y197.552 E12.70065
G1 X177.316 Y199.996 E12.78466
G1 X177.064 Y201.087 E12.8219
G1 X176.832 Y202.037 E12.85443
G1 X176.579 Y202.904 E12.88447
G1 X176.25 Y203.745 E12.9145
G1 X175.848 Y204.554 E12.94455
G1 X175.376 Y205.324 E12.97459
G1 X174.837 Y206.049 E13.00464
G1 X174.237 Y206.723 E13.03465
G1 X173.579 Y207.342 E13.0647
G1 X172.87 Y207.901 E13.09473
G1 X172.113 Y208.394 E13.12477
G1 X171.316 Y208.818 E13.1548
G1 X170.484 Y209.171 E13.18486
G1 X169.625 Y209.448 E13.21488
G1 X168.652 Y209.665 E13.24804
G1 X167.93 Y209.789 E13.2724
G1 X166.682 Y209.986 E13.31442
G1 X164.145 Y210.459 E13.40026
G1 X161.69 Y210.989 E13.48379
G1 X159.205 Y211.6 E13.56891
G1 X156.808 Y212.261 E13.65161
G1 X154.331 Y213.02 E13.73777
G1 X152.411 Y213.666 E13.80515
G1 X151.156 Y214.098 E13.8493
G1 X150.29 Y214.354 E13.87933
G1 X149.405 Y214.532 E13.90936
G1 X148.894 Y214.598 E13.92649
G1 X147.916 Y214.699 E13.95919
G1 X68.725 Y221.673 E16.60329
G1 X67.991 Y221.727 E16.62777
G1 X67.089 Y221.753 E16.65778
G1 X66.187 Y221.699 E16.68784
G1 X65.294 Y221.566 E16.71787
G1 X64.416 Y221.354 E16.74791
G1 X63.56 Y221.066 E16.77795
G1 X62.733 Y220.703 E16.80799
G1 X61.942 Y220.268 E16.83801
G1 X61.192 Y219.765 E16.86805
G1 X60.54 Y219.242 E16.89585
G1 X59.703 Y218.511 E16.93281
G1 X59.089 Y217.96 E16.96025
G1 X57.119 Y216.289 E17.04617
G1 X55.171 Y214.729 E17.12917
G1 X53.109 Y213.173 E17.21509
G1 X51.076 Y211.725 E17.29811
G1 X48.945 Y210.298 E17.38341
G1 X46.807 Y208.952 E17.46744
G1 X44.6 Y207.649 E17.55268
G1 X42.412 Y206.437 E17.63587
G1 X40.01 Y205.196 E17.7258
G1 X39.028 Y204.706 E17.7623
G1 X38.239 Y204.268 E17.79231
G1 X37.491 Y203.761 E17.82237
G1 X36.791 Y203.19 E17.85241
G1 X36.145 Y202.56 E17.88242
G1 X35.557 Y201.874 E17.91248
G1 X35.031 Y201.14 E17.94251
G1 X34.573 Y200.361 E17.97257
G1 X34.185 Y199.546 E18.00259
G1 X33.872 Y198.699 E18.03262
G1 X33.634 Y197.828 E18.06265
G1 X33.474 Y196.939 E18.0927
G1 X33.41 Y196.315 E18.11356
G1 X33.229 Y193.81 E18.19709
G1 X32.976 Y191.29 E18.28133
G1 X32.646 Y188.725 E18.36735
G1 X32.256 Y186.254 E18.45055
G1 X31.785 Y183.73 E18.53595
G1 X31.251 Y181.261 E18.61996
G1 X30.65 Y178.815 E18.70374
G1 X29.97 Y176.354 E18.78866
G1 X29.226 Y173.93 E18.87299
G1 X28.409 Y171.514 E18.95782
G1 X27.526 Y169.128 E19.04244
G1 X26.583 Y166.787 E19.12638
G1 X25.566 Y164.453 E19.21106
G1 X24.479 Y162.14 E19.29606
G1 X23.336 Y159.876 E19.38042
G1 X22.132 Y157.65 E19.46459
G1 X20.781 Y155.313 E19.55437
G1 X20.225 Y154.38 E19.59049
G1 X19.797 Y153.585 E19.62052
G1 X19.442 Y152.755 E19.65055
G1 X19.162 Y151.896 E19.6806
G1 X18.938 Y150.902 E19.71449
G1 X18.788 Y150.03 E19.74392
G1 X18.613 Y148.915 E19.78146
G1 X18.139 Y146.373 E19.86746
G1 X17.609 Y143.918 E19.951
G1 X17.004 Y141.457 E20.03529
G1 X16.323 Y138.988 E20.12047
G1 X15.585 Y136.581 E20.20421
G1 X14.929 Y134.628 E20.27273
G1 X14.504 Y133.396 E20.31608
G1 X14.247 Y132.53 E20.34612
G1 X14.068 Y131.645 E20.37615
G1 X14 Y131.113 E20.39399
G1 X13.902 Y130.157 E20.42596
G1 X6.92 Y50.893 E23.07249
G1 X6.871 Y50.222 E23.09487
G1 X6.845 Y49.319 E23.12492
G1 X6.899 Y48.418 E23.15494
G1 X7.033 Y47.524 E23.18501
G1 X7.245 Y46.647 E23.21502
G1 X7.534 Y45.791 E23.24506
G1 X7.898 Y44.964 E23.27512
G1 X8.333 Y44.173 E23.30514
G1 X8.836 Y43.423 E23.33518
G1 X9.369 Y42.761 E23.36345
G1 X10.119 Y41.905 E23.4013
G1 X10.639 Y41.325 E23.42721
G1 X12.281 Y39.391 E23.51159
G1 X13.864 Y37.415 E23.5958
G1 X15.394 Y35.388 E23.68027
G1 X16.893 Y33.284 E23.76619
G1 X18.271 Y31.229 E23.84849
G1 X19.65 Y29.039 E23.93456
G1 X20.936 Y26.861 E24.01869
G1 X22.151 Y24.669 E24.10205
G1 X23.397 Y22.26 E24.19225
G1 X23.894 Y21.264 E24.22927
G1 X24.332 Y20.474 E24.25932
G1 X24.839 Y19.727 E24.28935
G0 F6000 X24.508 Y19.502
G1 F1200 X25.124 Y18.747 E24.32175
G1 X25.78 Y18.077 E24.35294
G1 X26.465 Y17.489 E24.38297
G1 X27.258 Y16.922 E24.41539
G1 X28.036 Y16.464 E24.44542
G1 X28.915 Y16.046 E24.47779
G1 X29.796 Y15.722 E24.50901
G1 X30.701 Y15.476 E24.54021
G1 X31.628 Y15.311 E24.57152
G1 X32.695 Y15.224 E24.60713
G1 X33.343 Y15.209 E24.62869
G1 X39.089 Y15.21 E24.8198
G1 X40.302 Y15.227 E24.86015
G1 X42.916 Y15.227 E24.94709
G1 X43.573 Y15.213 E24.96895
G1 X49.64 Y15.209 E25.17074
G1 X50.508 Y15.221 E25.19961
G1 X51.41 Y15.274 E25.22966
G1 X52.438 Y15.429 E25.26424
G1 X55.477 Y16.042 E25.36735
G1 X57.961 Y16.467 E25.45117
G1 X60.482 Y16.827 E25.53587
G1 X62.978 Y17.109 E25.61942
G1 X65.473 Y17.321 E25.7027
G1 X68.028 Y17.465 E25.78781
G1 X70.553 Y17.536 E25.87183
G1 X73.065 Y17.536 E25.95538
G1 X75.654 Y17.462 E26.04152
G1 X77.272 Y17.383 E26.0954
G1 X77.887 Y17.37 E26.11586
G1 X102.401 Y17.371 E26.9312
G1 X103.456 Y17.387 E26.96629
G1 X105.724 Y17.451 E27.04176
G1 X108.235 Y17.451 E27.12527
G1 X110.769 Y17.379 E27.20959
G1 X113.288 Y17.236 E27.29351
G1 X115.832 Y17.022 E27.37842
G1 X118.332 Y16.737 E27.46211
G1 X120.825 Y16.382 E27.54586
G1 X123.335 Y15.952 E27.63056
G1 X125.813 Y15.455 E27.71462
G1 X127.961 Y14.971 E27.78786
G1 X128.888 Y14.807 E27.81917
G1 X129.976 Y14.72 E27.85547
G1 X130.592 Y14.707 E27.87596
G1 X136.339 Y14.708 E28.06711
G1 X137.552 Y14.725 E28.10746
G1 X140.166 Y14.725 E28.1944
G1 X140.823 Y14.711 E28.21626
G1 X146.89 Y14.707 E28.41804
G1 X147.754 Y14.719 E28.44678
G1 X148.62 Y14.768 E28.47563
G1 X149.481 Y14.852 E28.50441
G1 X152.079 Y15.074 E28.59113
G1 X154.617 Y15.217 E28.67568
G1 X157.151 Y15.289 E28.75999
G1 X159.662 Y15.289 E28.84351
G1 X162.196 Y15.217 E28.92783
G1 X164.734 Y15.073 E29.01238
G1 X167.236 Y14.861 E29.09589
G1 X169.754 Y14.575 E29.18018
G1 X172.271 Y14.216 E29.26474
G1 X173.862 Y13.954 E29.31837
G1 X174.758 Y13.847 E29.34838
G1 X175.275 Y13.819 E29.3656
G1 X175.882 Y13.806 E29.3858
G1 X200.259 Y13.806 E30.19658
G1 X201.122 Y13.818 E30.22529
G1 X202.058 Y13.874 E30.25647
G1 X202.952 Y14.006 E30.28653
G1 X203.9 Y14.234 E30.31896
G1 X204.756 Y14.522 E30.349
G1 X205.647 Y14.912 E30.38135
G1 X206.439 Y15.346 E30.41139
G1 X207.221 Y15.868 E30.44266
G1 X207.979 Y16.479 E30.47504
G1 X208.629 Y17.106 E30.50508
G1 X209.267 Y17.841 E30.53745
G1 X209.816 Y18.602 E30.56866
G1 X210.279 Y19.378 E30.59871
G1 X210.687 Y20.222 E30.62989
G1 X211.031 Y21.133 E30.66228
G1 X211.281 Y22.032 E30.69332
G1 X211.399 Y22.616 E30.71313
G1 X211.517 Y23.301 E30.73625
G1 X211.717 Y24.569 E30.77895
G1 X212.191 Y27.11 E30.86492
G1 X212.718 Y29.553 E30.94804
G1 X213.327 Y32.028 E31.03282
G1 X213.987 Y34.425 E31.11551
G1 X214.74 Y36.881 E31.20095
G1 X215.361 Y38.728 E31.26576
G1 X215.823 Y40.069 E31.31293
G1 X216.079 Y40.936 E31.343
G1 X216.27 Y41.882 E31.3751
G1 X216.339 Y42.416 E31.39301
G1 X216.438 Y43.388 E31.42551
G1 X223.411 Y122.57 E34.0693
G1 X223.467 Y123.322 E34.09438
G1 X223.495 Y124.225 E34.12443
G1 X223.439 Y125.196 E34.15678
G1 X223.307 Y126.09 E34.18684
G1 X223.089 Y127.003 E34.21806
G1 X222.792 Y127.893 E34.24926
G1 X222.402 Y128.785 E34.28164
G1 X221.968 Y129.578 E34.31171
G1 X221.427 Y130.386 E34.34405
G1 X220.881 Y131.067 E34.37308
G1 X220.246 Y131.795 E34.40521
G1 X219.603 Y132.512 E34.43725
G1 X217.925 Y134.492 E34.52357
G1 X216.382 Y136.418 E34.60565
G1 X214.84 Y138.462 E34.69081
G1 X213.386 Y140.504 E34.77419
G1 X211.981 Y142.601 E34.85814
G1 X210.625 Y144.754 E34.94277
G1 X209.34 Y146.933 E35.02691
G1 X208.128 Y149.121 E35.1101
G1 X206.911 Y151.475 E35.19824
G1 X206.399 Y152.503 E35.23643
G1 X205.961 Y153.292 E35.26645
G1 X205.414 Y154.099 E35.29887
G1 X204.822 Y154.824 E35.33001
G1 X204.275 Y155.391 E35.35621
G1 X203.757 Y155.888 E35.38009
G1 X202.674 Y156.896 E35.42929
G1 X200.871 Y158.672 E35.51347
G1 X199.128 Y160.49 E35.59724
G1 X197.446 Y162.345 E35.68052
G1 X195.769 Y164.305 E35.76632
G1 X194.19 Y166.259 E35.84987
G1 X192.662 Y168.263 E35.93369
G1 X191.188 Y170.313 E36.01767
G1 X189.77 Y172.409 E36.10184
G1 X188.4 Y174.562 E36.18672
G1 X187.116 Y176.713 E36.27004
G1 X185.885 Y178.914 E36.35391
G1 X184.718 Y181.147 E36.43771
G1 X183.594 Y183.453 E36.52304
G1 X182.564 Y185.73 E36.60616
G1 X181.573 Y188.092 E36.69135
G1 X180.668 Y190.435 E36.77489
G1 X179.819 Y192.834 E36.85953
G1 X179.055 Y195.207 E36.94245
G1 X178.338 Y197.664 E37.02758
G1 X177.703 Y200.097 E37.11121
G1 X177.453 Y201.182 E37.14824
G1 X177.216 Y202.149 E37.18136
G1 X176.952 Y203.05 E37.21259
G1 X176.623 Y203.891 E37.24262
G1 X176.189 Y204.763 E37.27502
G1 X175.697 Y205.563 E37.30626
G1 X175.136 Y206.315 E37.33746
G1 X174.536 Y206.989 E37.36747
G1 X173.827 Y207.656 E37.39985
G1 X173.118 Y208.215 E37.42988
G1 X172.301 Y208.747 E37.46231
G1 X171.504 Y209.171 E37.49233
G1 X170.607 Y209.552 E37.52475
G1 X169.748 Y209.829 E37.55477
G1 X168.72 Y210.059 E37.5898
G1 X167.992 Y210.184 E37.61437
G1 X166.744 Y210.381 E37.65639
G1 X164.229 Y210.85 E37.74148
G1 X161.774 Y211.38 E37.82502
G1 X159.311 Y211.986 E37.90938
G1 X156.914 Y212.646 E37.99207
G1 X154.459 Y213.399 E38.07748
G1 X152.539 Y214.045 E38.14486
G1 X151.269 Y214.482 E38.18953
G1 X150.403 Y214.738 E38.21956
G1 X149.456 Y214.929 E38.2517
G1 X148.935 Y214.996 E38.26917
G1 X147.951 Y215.097 E38.30207
G1 X68.754 Y222.072 E40.94637
G1 X68.003 Y222.127 E40.97141
G1 X67.101 Y222.153 E41.00142
G1 X66.128 Y222.095 E41.03384
G1 X65.235 Y221.962 E41.06387
G1 X64.322 Y221.743 E41.0951
G1 X63.432 Y221.445 E41.12632
G1 X62.572 Y221.069 E41.15754
G1 X61.719 Y220.6 E41.18991
G1 X60.969 Y220.097 E41.21995
G1 X60.277 Y219.543 E41.24943
G1 X59.436 Y218.809 E41.28656
G1 X58.822 Y218.258 E41.314
G1 X56.86 Y216.594 E41.39956
G1 X54.921 Y215.041 E41.48219
G1 X52.877 Y213.499 E41.56735
G1 X50.844 Y212.051 E41.65037
G1 X48.732 Y210.637 E41.7349
G1 X46.594 Y209.29 E41.81895
G1 X44.406 Y207.999 E41.90344
G1 X42.218 Y206.787 E41.98664
G1 X39.831 Y205.554 E42.07599
G1 X38.834 Y205.056 E42.11306
G1 X38.045 Y204.618 E42.14308
G1 X37.238 Y204.071 E42.1755
G1 X36.538 Y203.5 E42.20555
G1 X35.841 Y202.82 E42.23793
G1 X35.253 Y202.134 E42.26799
G1 X34.686 Y201.343 E42.30035
G1 X34.228 Y200.564 E42.33041
G1 X33.81 Y199.685 E42.36278
G1 X33.486 Y198.804 E42.394
G1 X33.24 Y197.899 E42.4252
G1 X33.08 Y197.01 E42.45524
G1 X33.011 Y196.344 E42.47751
G1 X32.83 Y193.839 E42.56104
G1 X32.578 Y191.33 E42.64491
G1 X32.249 Y188.776 E42.73056
G1 X31.861 Y186.316 E42.81339
G1 X31.394 Y183.815 E42.89801
G1 X30.861 Y181.346 E42.98203
G1 X30.264 Y178.922 E43.06506
G1 X29.585 Y176.461 E43.14997
G1 X28.847 Y174.058 E43.23358
G1 X28.03 Y171.642 E43.3184
G1 X27.151 Y169.267 E43.40263
G1 X26.216 Y166.947 E43.48583
G1 X25.199 Y164.613 E43.57051
G1 X24.117 Y162.31 E43.65514
G1 X22.979 Y160.056 E43.73912
G1 X21.78 Y157.84 E43.82292
G1 X20.437 Y155.518 E43.91214
G1 X19.873 Y154.57 E43.94883
G1 X19.429 Y153.742 E43.98008
G1 X19.074 Y152.912 E44.0101
G1 X18.772 Y151.984 E44.04256
G1 X18.544 Y150.97 E44.07713
G1 X18.393 Y150.092 E44.10676
G1 X18.218 Y148.977 E44.1443
G1 X17.746 Y146.446 E44.22993
G1 X17.218 Y144.002 E44.31309
G1 X16.618 Y141.563 E44.39663
G1 X15.938 Y139.094 E44.48181
G1 X15.203 Y136.698 E44.56517
G1 X14.55 Y134.755 E44.63334
G1 X14.121 Y133.51 E44.67714
G1 X13.855 Y132.609 E44.70839
