;FLAVOR:Marlin
;TIME:6534
;Filament used: 5.13784m
;Layer height: 0.32
;MINX:53.14
;MINY:65.5
;MINZ:0.2
;MAXX:181.87
;MAXY:169.499
;MAXZ:41.16
;Generated with Cura_SteamEngine 5.3.1
M140 S50
M105
M190 S50
M104 S200
M105
M109 S200
M82 ;absolute extrusion mode
; Ender 3 Custom Start G-code
G92 E0 ; Reset Extruder
G28 ; Home all axes
G1 Z2.0 F3000 ; Move Z Axis up little to prevent scratching of Heat Bed
G1 X0.1 Y20 Z0.3 F5000.0 ; Move to start position
G1 X0.1 Y200.0 Z0.3 F1500.0 E15 ; Draw the first line
G1 X0.4 Y200.0 Z0.3 F5000.0 ; Move to side a little
G1 X0.4 Y20 Z0.3 F1500.0 E30 ; Draw the second line
G92 E0 ; Reset Extruder
G1 Z2.0 F3000 ; Move Z Axis up little to prevent scratching of Heat Bed
G1 X5 Y20 Z0.3 F5000.0 ; Move over to prevent blob squish
G92 E0
G92 E0
G1 F2700 E-5
;LAYER_COUNT:129
;LAYER:0
M107
G0 F6000 X68.117 Y93.957 Z0.2
;TYPE:SKIRT
G1 F2700 E0
G1 F1200 X68.887 Y93.485 E0.03004
G1 X69.558 Y93.144 E0.05507
G1 X70.093 Y92.897 E0.07467
G1 X71.588 Y92.233 E0.12908
G1 X73.874 Y91.142 E0.21333
G1 X76.135 Y89.982 E0.29785
G1 X78.617 Y88.617 E0.39206
G1 X79.427 Y88.217 E0.42211
G1 X80.617 Y87.781 E0.46426
G1 X81.076 Y87.644 E0.48019
G1 X83.608 Y86.848 E0.56847
G1 X86.126 Y85.977 E0.65709
G1 X87.349 Y85.536 E0.70033
G1 X88.212 Y85.267 E0.73039
G1 X89.094 Y85.077 E0.7604
G1 X89.579 Y85.006 E0.77671
G1 X90.835 Y84.854 E0.81879
G1 X93.462 Y84.498 E0.90696
G1 X95.951 Y84.087 E0.99086
G1 X98.431 Y83.607 E1.07488
G1 X100.931 Y83.049 E1.16008
G1 X103.384 Y82.428 E1.24424
G1 X105.816 Y81.738 E1.32832
G1 X108.25 Y80.973 E1.41318
G1 X110.665 Y80.138 E1.49817
G1 X113.026 Y79.247 E1.5821
G1 X115.4 Y78.273 E1.66745
G1 X117.672 Y77.263 E1.75014
G1 X119.999 Y76.151 E1.83592
G1 X122.253 Y74.994 E1.92019
G1 X124.484 Y73.768 E2.00486
G1 X126.653 Y72.494 E2.08853
G1 X128.84 Y71.126 E2.17432
G1 X130.929 Y69.735 E2.2578
G1 X133.133 Y68.178 E2.34755
G1 X133.893 Y67.691 E2.37757
G1 X134.693 Y67.272 E2.40761
G1 X135.527 Y66.926 E2.43764
G1 X136.389 Y66.654 E2.4677
G1 X137.271 Y66.461 E2.49773
G1 X138.166 Y66.346 E2.52775
G1 X138.704 Y66.315 E2.54567
G1 X139.343 Y66.3 E2.56693
G1 X147.192 Y66.3 E2.82799
G1 X149.053 Y66.325 E2.88989
G1 X151.702 Y66.325 E2.978
G1 X153.04 Y66.3 E3.02251
G1 X161.023 Y66.301 E3.28802
G1 X161.721 Y66.311 E3.31124
G1 X162.623 Y66.364 E3.34129
G1 X163.516 Y66.496 E3.37132
G1 X164.394 Y66.707 E3.40135
G1 X165.25 Y66.995 E3.43139
G1 X166.077 Y67.357 E3.46142
G1 X166.869 Y67.792 E3.49147
G1 X167.62 Y68.294 E3.52151
G1 X168.323 Y68.861 E3.55155
G1 X168.973 Y69.488 E3.58159
G1 X169.565 Y70.17 E3.61163
G1 X170.095 Y70.901 E3.64166
G1 X170.557 Y71.677 E3.6717
G1 X170.95 Y72.49 E3.70173
G1 X171.268 Y73.335 E3.73176
G1 X171.511 Y74.205 E3.7618
G1 X171.676 Y75.093 E3.79184
G1 X171.771 Y76.223 E3.82956
G1 X171.784 Y76.83 E3.84976
G1 X171.784 Y93.27 E4.39655
G1 X171.821 Y95.876 E4.48324
G1 X171.93 Y98.441 E4.56863
G1 X172.108 Y100.948 E4.65222
G1 X172.359 Y103.489 E4.73714
G1 X172.68 Y105.997 E4.82124
G1 X173.074 Y108.502 E4.90558
G1 X173.535 Y110.984 E4.98955
G1 X173.857 Y112.479 E5.04041
G1 X174.001 Y113.193 E5.06464
G1 X174.164 Y114.336 E5.10304
G1 X174.256 Y115.41 E5.13889
G1 X174.524 Y118.076 E5.22801
G1 X174.853 Y120.628 E5.31359
G1 X175.244 Y123.107 E5.39706
G1 X175.708 Y125.588 E5.48101
G1 X176.255 Y128.113 E5.56694
G1 X176.851 Y130.54 E5.65006
G1 X177.526 Y132.98 E5.73426
G1 X178.285 Y135.448 E5.82014
G1 X179.084 Y137.812 E5.90314
G1 X180.039 Y140.39 E5.99458
G1 X180.374 Y141.257 E6.02549
G1 X180.662 Y142.113 E6.05553
G1 X180.873 Y142.991 E6.08557
G1 X181.006 Y143.884 E6.11559
G1 X181.055 Y144.62 E6.14013
G1 X181.07 Y145.259 E6.16139
G1 X181.069 Y151.19 E6.35865
G1 X181.059 Y151.918 E6.38287
G1 X181.007 Y152.82 E6.41292
G1 X180.875 Y153.713 E6.44294
G1 X180.664 Y154.591 E6.47298
G1 X180.377 Y155.448 E6.50304
G1 X180.015 Y156.275 E6.53306
G1 X179.582 Y157.067 E6.56308
G1 X179.079 Y157.818 E6.59315
G1 X178.513 Y158.521 E6.62317
G1 X177.887 Y159.172 E6.6532
G1 X177.205 Y159.764 E6.68324
G1 X176.474 Y160.294 E6.71327
G1 X175.698 Y160.757 E6.74333
G1 X174.885 Y161.15 E6.77336
G1 X174.399 Y161.344 E6.79077
G1 X171.716 Y162.337 E6.88592
G1 X169.371 Y163.28 E6.96998
G1 X167.045 Y164.295 E7.05439
G1 X164.748 Y165.375 E7.13881
G1 X162.478 Y166.522 E7.22341
G1 X161.065 Y167.284 E7.2768
G1 X160.589 Y167.531 E7.29464
G1 X159.77 Y167.911 E7.32467
G1 X158.92 Y168.217 E7.35471
G1 X158.047 Y168.447 E7.38474
G1 X157.156 Y168.598 E7.4148
G1 X156.112 Y168.675 E7.44962
G1 X155.051 Y168.698 E7.48491
G1 X145.288 Y168.699 E7.80963
G1 X144.59 Y168.689 E7.83285
G1 X143.688 Y168.636 E7.8629
G1 X142.795 Y168.504 E7.89293
G1 X141.917 Y168.293 E7.92296
G1 X141.207 Y168.06 E7.94781
G1 X139.772 Y167.531 E7.99868
G1 X137.27 Y166.651 E8.0869
G1 X134.875 Y165.885 E8.17053
G1 X132.421 Y165.175 E8.2555
G1 X129.982 Y164.544 E8.33929
G1 X127.458 Y163.967 E8.4254
G1 X125.023 Y163.482 E8.50798
G1 X122.493 Y163.052 E8.59334
G1 X120 Y162.7 E8.67708
G1 X117.43 Y162.412 E8.76309
G1 X114.934 Y162.203 E8.8464
G1 X112.437 Y162.065 E8.92958
G1 X108.594 Y161.986 E9.05742
G1 X96.002 Y161.985 E9.47623
G1 X95.302 Y161.975 E9.49952
G1 X94.401 Y161.922 E9.52954
G1 X93.507 Y161.79 E9.55959
G1 X92.629 Y161.579 E9.58963
G1 X91.773 Y161.291 E9.61967
G1 X90.946 Y160.929 E9.64969
G1 X90.154 Y160.495 E9.67973
G1 X89.404 Y159.992 E9.70977
G1 X88.701 Y159.425 E9.73981
G1 X88.05 Y158.799 E9.76984
G1 X87.458 Y158.117 E9.79988
G1 X86.929 Y157.385 E9.82992
G1 X86.615 Y156.877 E9.84978
G1 X85.222 Y154.466 E9.9424
G1 X83.887 Y152.303 E10.02694
G1 X82.512 Y150.205 E10.11037
G1 X81.031 Y148.084 E10.19641
G1 X79.547 Y146.079 E10.27937
G1 X77.963 Y144.062 E10.36467
G1 X76.341 Y142.113 E10.44901
G1 X74.647 Y140.191 E10.53422
G1 X72.921 Y138.339 E10.61842
G1 X71.175 Y136.57 E10.70109
G1 X69.299 Y134.774 E10.78747
G1 X67.434 Y133.086 E10.87114
G1 X65.503 Y131.437 E10.95559
G1 X63.493 Y129.814 E11.04152
G1 X61.51 Y128.305 E11.1244
G1 X61.064 Y127.983 E11.1427
G1 X60.421 Y127.501 E11.16942
G1 X59.57 Y126.785 E11.20641
G1 X59.113 Y126.349 E11.22742
G1 X57.426 Y124.663 E11.30675
G1 X56.822 Y124.042 E11.33556
G1 X56.222 Y123.367 E11.3656
G1 X55.684 Y122.641 E11.39565
G1 X55.213 Y121.871 E11.42568
G1 X54.812 Y121.062 E11.45571
G1 X54.484 Y120.22 E11.48576
G1 X54.231 Y119.353 E11.5158
G1 X54.056 Y118.467 E11.54584
G1 X53.961 Y117.569 E11.57587
G1 X53.941 Y116.862 E11.5994
G1 X53.963 Y113.941 E11.69655
G1 X53.948 Y113.209 E11.7209
G1 X53.94 Y112.178 E11.7552
G1 X53.973 Y111.276 E11.78522
G1 X54.086 Y110.38 E11.81525
G1 X54.277 Y109.497 E11.8453
G1 X54.546 Y108.635 E11.87534
G1 X54.89 Y107.8 E11.90537
G1 X55.307 Y106.999 E11.93541
G1 X55.793 Y106.237 E11.96547
G1 X56.344 Y105.522 E11.99549
G1 X56.671 Y105.153 E12.01189
G1 X57.113 Y104.687 E12.03325
G1 X66.189 Y95.611 E12.46016
G1 X66.718 Y95.096 E12.48472
G1 X67.392 Y94.496 E12.51473
G1 X68.117 Y93.957 E12.54478
G0 F6000 X67.878 Y93.636
G1 F1200 X68.706 Y93.128 E12.57709
G1 X69.39 Y92.781 E12.6026
G1 X69.931 Y92.531 E12.62242
G1 X71.426 Y91.867 E12.67683
G1 X73.691 Y90.786 E12.7603
G1 X75.952 Y89.626 E12.84482
G1 X78.44 Y88.258 E12.93926
G1 X79.289 Y87.841 E12.97072
G1 X80.479 Y87.405 E13.01287
G1 X80.956 Y87.262 E13.02943
G1 X83.488 Y86.466 E13.11771
G1 X85.995 Y85.599 E13.20594
G1 X87.23 Y85.154 E13.2496
G1 X88.093 Y84.885 E13.27966
G1 X89.036 Y84.681 E13.31175
G1 X89.531 Y84.609 E13.32839
G1 X90.787 Y84.457 E13.37047
G1 X93.397 Y84.103 E13.45807
G1 X95.881 Y83.693 E13.54181
G1 X98.355 Y83.215 E13.62562
G1 X100.833 Y82.661 E13.71007
G1 X103.286 Y82.04 E13.79423
G1 X105.696 Y81.356 E13.87756
G1 X108.13 Y80.591 E13.96241
G1 X110.534 Y79.76 E14.04701
G1 X112.874 Y78.877 E14.1302
G1 X115.238 Y77.907 E14.21519
G1 X117.51 Y76.897 E14.29789
G1 X119.816 Y75.795 E14.38289
G1 X122.06 Y74.643 E14.46679
G1 X124.291 Y73.417 E14.55146
G1 X126.45 Y72.149 E14.63473
G1 X128.618 Y70.793 E14.71979
G1 X130.698 Y69.408 E14.8029
G1 X132.917 Y67.841 E14.89325
G1 X133.677 Y67.354 E14.92327
G1 X134.507 Y66.918 E14.95446
G1 X135.407 Y66.545 E14.98686
G1 X136.303 Y66.263 E15.0181
G1 X137.22 Y66.064 E15.04931
G1 X138.115 Y65.949 E15.07932
G1 X138.695 Y65.915 E15.09865
G1 X139.334 Y65.9 E15.11991
G1 X147.197 Y65.9 E15.38143
G1 X149.058 Y65.925 E15.44333
G1 X151.695 Y65.925 E15.53104
G1 X153.04 Y65.9 E15.57578
G1 X161.029 Y65.901 E15.8415
G1 X161.744 Y65.912 E15.86528
G1 X162.681 Y65.968 E15.8965
G1 X163.574 Y66.1 E15.92653
G1 X164.522 Y66.328 E15.95896
G1 X165.378 Y66.616 E15.989
G1 X166.27 Y67.006 E16.02138
G1 X167.062 Y67.441 E16.05143
G1 X167.842 Y67.961 E16.08261
G1 X168.601 Y68.573 E16.11504
G1 X169.251 Y69.2 E16.14508
G1 X169.889 Y69.935 E16.17745
G1 X170.439 Y70.696 E16.20868
G1 X170.901 Y71.472 E16.23871
G1 X171.324 Y72.349 E16.2711
G1 X171.653 Y73.227 E16.30228
G1 X171.904 Y74.132 E16.33352
G1 X172.075 Y75.059 E16.36487
G1 X172.17 Y76.189 E16.40259
G1 X172.184 Y76.821 E16.42362
G1 X172.184 Y93.27 E16.97071
G1 X172.221 Y95.859 E17.05683
G1 X172.33 Y98.424 E17.14222
G1 X172.506 Y100.909 E17.22508
G1 X172.756 Y103.438 E17.3096
G1 X173.077 Y105.946 E17.3937
G1 X173.467 Y108.429 E17.4773
G1 X173.926 Y110.9 E17.56089
G1 X174.249 Y112.4 E17.61192
G1 X174.397 Y113.137 E17.63692
G1 X174.563 Y114.302 E17.67606
G1 X174.654 Y115.37 E17.71171
G1 X174.921 Y118.025 E17.80047
G1 X175.25 Y120.577 E17.88605
G1 X175.637 Y123.033 E17.96874
G1 X176.099 Y125.503 E18.05232
G1 X176.645 Y128.028 E18.13824
G1 X177.237 Y130.433 E18.22062
G1 X177.911 Y132.873 E18.30482
G1 X178.664 Y135.32 E18.38997
G1 X179.459 Y137.673 E18.47258
G1 X180.412 Y140.246 E18.56384
G1 X180.753 Y141.129 E18.59532
G1 X181.051 Y142.02 E18.62657
G1 X181.269 Y142.932 E18.65776
G1 X181.402 Y143.825 E18.68778
G1 X181.455 Y144.611 E18.71399
G1 X181.47 Y145.259 E18.73554
G1 X181.469 Y151.195 E18.93298
G1 X181.458 Y151.941 E18.95779
G1 X181.403 Y152.878 E18.98901
G1 X181.271 Y153.771 E19.01903
G1 X181.053 Y154.684 E19.05025
G1 X180.756 Y155.575 E19.08149
G1 X180.366 Y156.467 E19.11387
G1 X179.914 Y157.29 E19.1451
G1 X179.391 Y158.069 E19.17631
G1 X178.825 Y158.772 E19.20633
G1 X178.149 Y159.474 E19.23874
G1 X177.44 Y160.088 E19.26994
G1 X176.679 Y160.638 E19.30117
G1 X175.903 Y161.101 E19.33122
G1 X175.059 Y161.51 E19.36241
G1 X174.538 Y161.719 E19.38109
G1 X171.855 Y162.712 E19.47624
G1 X169.531 Y163.647 E19.55956
G1 X167.205 Y164.662 E19.64396
G1 X164.918 Y165.737 E19.72801
G1 X162.668 Y166.874 E19.81186
G1 X161.249 Y167.639 E19.86548
G1 X160.757 Y167.894 E19.88391
G1 X159.938 Y168.274 E19.91394
G1 X159.022 Y168.604 E19.94632
G1 X158.149 Y168.834 E19.97635
G1 X157.185 Y168.997 E20.00887
G1 X156.121 Y169.075 E20.04435
G1 X155.051 Y169.098 E20.07995
G1 X145.282 Y169.099 E20.40487
G1 X144.567 Y169.088 E20.42865
G1 X143.63 Y169.032 E20.45987
G1 X142.737 Y168.9 E20.48989
G1 X141.792 Y168.673 E20.52222
G1 X141.069 Y168.435 E20.54754
G1 X139.639 Y167.908 E20.59822
G1 X137.148 Y167.032 E20.68605
G1 X134.753 Y166.266 E20.76968
G1 X132.315 Y165.56 E20.8541
G1 X129.893 Y164.934 E20.93731
G1 X127.369 Y164.357 E21.02342
G1 X124.949 Y163.875 E21.10549
G1 X122.437 Y163.448 E21.19024
G1 X119.955 Y163.098 E21.27361
G1 X117.385 Y162.81 E21.35962
G1 X114.901 Y162.601 E21.44253
G1 X112.429 Y162.465 E21.52487
G1 X108.586 Y162.386 E21.65272
G1 X95.996 Y162.385 E22.07146
G1 X95.296 Y162.375 E22.09475
G1 X94.343 Y162.318 E22.1265
G1 X93.449 Y162.186 E22.15656
G1 X92.501 Y161.958 E22.18899
G1 X91.645 Y161.67 E22.21903
G1 X90.754 Y161.28 E22.25138
G1 X89.931 Y160.827 E22.28262
G1 X89.181 Y160.324 E22.31266
G1 X88.45 Y159.736 E22.34386
G1 X87.748 Y159.061 E22.37625
G1 X87.156 Y158.379 E22.40629
G1 X86.605 Y157.619 E22.43751
G1 X86.269 Y157.077 E22.45872
G1 X84.876 Y154.666 E22.55133
G1 X83.552 Y152.522 E22.63515
G1 X82.177 Y150.424 E22.71858
G1 X80.709 Y148.322 E22.80385
G1 X79.225 Y146.317 E22.88682
G1 X77.648 Y144.309 E22.97174
G1 X76.034 Y142.369 E23.05567
G1 X74.354 Y140.464 E23.14015
G1 X72.628 Y138.612 E23.22435
G1 X70.89 Y136.851 E23.30665
G1 X69.022 Y135.063 E23.39265
G1 X67.166 Y133.383 E23.47592
G1 X65.243 Y131.741 E23.56002
G1 X63.242 Y130.125 E23.64557
G1 X61.268 Y128.623 E23.72807
G1 X60.824 Y128.303 E23.74627
G1 X60.163 Y127.807 E23.77376
G1 X59.312 Y127.091 E23.81075
G1 X58.83 Y126.632 E23.83288
G1 X57.139 Y124.942 E23.9124
G1 X56.523 Y124.308 E23.9418
G1 X55.923 Y123.633 E23.97184
G1 X55.343 Y122.85 E24.00425
G1 X54.872 Y122.08 E24.03427
G1 X54.439 Y121.207 E24.06668
G1 X54.111 Y120.365 E24.09673
G1 X53.847 Y119.465 E24.12793
G1 X53.658 Y118.509 E24.16034
G1 X53.561 Y117.58 E24.19141
G1 X53.541 Y116.859 E24.2154
G1 X53.563 Y113.938 E24.31255
G1 X53.548 Y113.212 E24.33671
G1 X53.54 Y112.163 E24.3716
G1 X53.573 Y111.261 E24.40162
G1 X53.695 Y110.295 E24.434
G1 X53.895 Y109.378 E24.46522
G1 X54.176 Y108.483 E24.49642
G1 X54.535 Y107.615 E24.52766
G1 X54.952 Y106.814 E24.5577
G1 X55.476 Y105.993 E24.59009
G1 X56.027 Y105.278 E24.62011
G1 X56.381 Y104.878 E24.63788
G1 X56.83 Y104.404 E24.6596
G1 X65.91 Y95.324 E25.08669
G1 X66.452 Y94.797 E25.11183
G1 X67.153 Y94.175 E25.143
G1 X67.878 Y93.636 E25.17305
G0 F6000 X67.639 Y93.315
G1 F1200 X68.525 Y92.771 E25.20763
G1 X69.222 Y92.418 E25.23362
G1 X69.769 Y92.165 E25.25366
G1 X71.264 Y91.501 E25.30807
G1 X73.508 Y90.43 E25.39077
G1 X75.759 Y89.275 E25.47492
G1 X78.247 Y87.907 E25.56936
G1 X79.151 Y87.465 E25.60282
G1 X80.341 Y87.029 E25.64498
G1 X80.836 Y86.88 E25.66217
G1 X83.368 Y86.084 E25.75045
G1 X85.864 Y85.221 E25.83829
G1 X87.111 Y84.772 E25.88237
G1 X88.008 Y84.494 E25.9136
G1 X88.978 Y84.285 E25.94661
G1 X89.483 Y84.212 E25.96358
G1 X90.739 Y84.06 E26.00566
G1 X93.332 Y83.708 E26.09269
G1 X95.812 Y83.299 E26.17629
G1 X98.279 Y82.823 E26.25986
G1 X100.735 Y82.273 E26.34357
G1 X103.188 Y81.652 E26.42773
G1 X105.576 Y80.974 E26.51029
G1 X108.01 Y80.209 E26.59515
G1 X110.403 Y79.382 E26.67936
G1 X112.722 Y78.507 E26.7618
G1 X115.076 Y77.541 E26.84643
G1 X117.348 Y76.531 E26.92913
G1 X119.633 Y75.439 E27.01336
G1 X121.867 Y74.292 E27.09689
G1 X124.098 Y73.066 E27.18155
G1 X126.247 Y71.804 E27.26444
G1 X128.396 Y70.46 E27.34875
G1 X130.467 Y69.081 E27.4315
G1 X132.701 Y67.504 E27.52245
G1 X133.461 Y67.017 E27.55248
G1 X134.354 Y66.548 E27.58602
G1 X135.287 Y66.163 E27.61959
G1 X136.183 Y65.881 E27.65084
G1 X137.169 Y65.667 E27.68439
G1 X138.064 Y65.552 E27.71441
G1 X138.686 Y65.515 E27.73513
G1 X139.325 Y65.5 E27.75639
G1 X147.202 Y65.5 E28.01838
G1 X149.063 Y65.525 E28.08028
G1 X151.688 Y65.525 E28.16759
G1 X153.04 Y65.5 E28.21257
G1 X161.035 Y65.501 E28.47848
G1 X161.768 Y65.513 E28.50286
G1 X162.739 Y65.572 E28.53522
G1 X163.668 Y65.711 E28.56646
G1 X164.616 Y65.939 E28.59889
G1 X165.538 Y66.249 E28.63124
G1 X166.463 Y66.655 E28.66484
G1 X167.255 Y67.09 E28.6949
G1 X168.064 Y67.628 E28.72721
G1 X168.879 Y68.285 E28.76203
G1 X169.529 Y68.912 E28.79207
G1 X170.191 Y69.673 E28.82561
G1 X170.783 Y70.491 E28.8592
G1 X171.245 Y71.267 E28.88924
G1 X171.699 Y72.209 E28.92402
G1 X172.028 Y73.087 E28.9552
G1 X172.297 Y74.059 E28.98875
G1 X172.474 Y75.025 E29.02141
G1 X172.569 Y76.155 E29.05913
G1 X172.584 Y76.812 E29.08098
G1 X172.584 Y93.27 E29.62838
G1 X172.621 Y95.842 E29.71393
G1 X172.73 Y98.407 E29.79932
G1 X172.904 Y100.87 E29.88145
G1 X173.153 Y103.387 E29.96557
G1 X173.474 Y105.895 E30.04967
G1 X173.86 Y108.356 E30.13252
G1 X174.317 Y110.816 E30.21574
G1 X174.641 Y112.321 E30.26694
G1 X174.793 Y113.081 E30.29272
G1 X174.962 Y114.268 E30.3326
G1 X175.052 Y115.33 E30.36805
G1 X175.318 Y117.974 E30.45643
G1 X175.647 Y120.526 E30.54202
G1 X176.03 Y122.959 E30.62393
G1 X176.49 Y125.418 E30.70714
G1 X177.036 Y127.943 E30.79306
G1 X177.623 Y130.326 E30.87469
G1 X178.296 Y132.766 E30.95888
G1 X179.043 Y135.192 E31.0433
G1 X179.834 Y137.534 E31.12552
G1 X180.785 Y140.102 E31.2166
G1 X181.132 Y141.002 E31.24868
G1 X181.44 Y141.927 E31.28111
G1 X181.665 Y142.873 E31.31345
G1 X181.798 Y143.766 E31.34348
G1 X181.855 Y144.602 E31.37135
G1 X181.87 Y145.259 E31.39321
G1 X181.869 Y151.201 E31.59084
G1 X181.857 Y151.964 E31.61622
G1 X181.799 Y152.936 E31.64861
G1 X181.667 Y153.829 E31.67863
G1 X181.442 Y154.777 E31.71104
G1 X181.123 Y155.735 E31.74462
