;FLAVOR:Marlin
;TIME:7653
;Filament used: 5.58083m
;Layer height: 0.32
;MINX:54.861
;MINY:62.05
;MINZ:0.2
;MAXX:191.28
;MAXY:172.949
;MAXZ:24.2
;Generated with Cura_SteamEngine 5.3.1
M140 S50
M105
M190 S50
M104 S200
M105
M109 S200
M82 ;absolute extrusion mode
; Ender 3 Custom Start G-code
G92 E0 ; Reset Extruder
G28 ; Home all axes
G1 Z2.0 F3000 ; Move Z Axis up little to prevent scratching of Heat Bed
G1 X0.1 Y20 Z0.3 F5000.0 ; Move to start position
G1 X0.1 Y200.0 Z0.3 F1500.0 E15 ; Draw the first line
G1 X0.4 Y200.0 Z0.3 F5000.0 ; Move to side a little
G1 X0.4 Y20 Z0.3 F1500.0 E30 ; Draw the second line
G92 E0 ; Reset Extruder
G1 Z2.0 F3000 ; Move Z Axis up little to prevent scratching of Heat Bed
G1 X5 Y20 Z0.3 F5000.0 ; Move over to prevent blob squish
G92 E0
G92 E0
G1 F2700 E-5
;LAYER_COUNT:76
;LAYER:0
M107
G0 F6000 X60.264 Y98.793 Z0.2
;TYPE:SKIRT
G1 F2700 E0
G1 F1200 X61.04 Y98.331 E0.03004
G1 X61.853 Y97.939 E0.06006
G1 X62.698 Y97.62 E0.0901
G1 X63.568 Y97.377 E0.12014
G1 X64.411 Y97.219 E0.14867
G1 X65.197 Y97.105 E0.17508
G1 X67.798 Y96.696 E0.26266
G1 X70.311 Y96.226 E0.34769
G1 X72.787 Y95.692 E0.43193
G1 X75.228 Y95.093 E0.51553
G1 X77.675 Y94.417 E0.59997
G1 X80.134 Y93.663 E0.68551
G1 X82.509 Y92.86 E0.7689
G1 X84.933 Y91.963 E0.85486
G1 X87.252 Y91.03 E0.938
G1 X89.593 Y90.01 E1.02293
G1 X91.889 Y88.933 E1.10728
G1 X94.155 Y87.788 E1.19173
G1 X96.413 Y86.568 E1.27709
G1 X98.592 Y85.309 E1.36079
G1 X100.757 Y83.976 E1.44535
G1 X102.873 Y82.589 E1.5295
G1 X104.971 Y81.126 E1.61457
G1 X106.999 Y79.625 E1.69849
G1 X108.99 Y78.063 E1.78266
G1 X110.98 Y76.407 E1.86877
G1 X112.883 Y74.732 E1.95309
G1 X114.683 Y73.066 E2.03466
G1 X115.372 Y72.483 E2.06468
G1 X116.245 Y71.878 E2.10001
G1 X117.034 Y71.394 E2.13079
G1 X117.725 Y70.992 E2.15738
G1 X119.987 Y69.734 E2.24347
G1 X122.246 Y68.394 E2.33083
G1 X122.852 Y68.049 E2.35402
G1 X123.661 Y67.649 E2.38404
G1 X124.503 Y67.321 E2.41409
G1 X125.37 Y67.07 E2.44411
G1 X126.635 Y66.846 E2.48684
G1 X128.36 Y66.652 E2.54458
G1 X130.956 Y66.31 E2.63167
G1 X133.43 Y65.913 E2.71501
G1 X135.942 Y65.438 E2.80004
G1 X138.432 Y64.892 E2.88482
G1 X140.874 Y64.286 E2.96851
G1 X143.166 Y63.649 E3.04763
G1 X144.477 Y63.267 E3.09305
G1 X145.355 Y63.053 E3.1231
G1 X146.248 Y62.917 E3.15315
G1 X147.019 Y62.865 E3.17885
G1 X147.658 Y62.85 E3.20011
G1 X149.621 Y62.85 E3.2654
G1 X150.469 Y62.861 E3.2936
G1 X151.371 Y62.914 E3.32366
G1 X152.264 Y63.046 E3.35368
G1 X153.142 Y63.257 E3.38371
G1 X153.998 Y63.545 E3.41375
G1 X154.825 Y63.907 E3.44378
G1 X155.617 Y64.341 E3.47382
G1 X156.515 Y64.953 E3.50996
G1 X158.932 Y66.799 E3.61112
G1 X161.004 Y68.285 E3.69592
G1 X163.06 Y69.674 E3.77845
G1 X165.428 Y71.176 E3.87171
G1 X166.539 Y71.916 E3.91611
G1 X166.844 Y72.129 E3.92849
G1 X168.242 Y73.14 E3.98587
G1 X170.962 Y75.025 E4.09594
G1 X171.494 Y75.38 E4.11721
G1 X172.009 Y75.743 E4.13817
G1 X172.719 Y76.301 E4.1682
G1 X173.376 Y76.921 E4.19825
G1 X173.976 Y77.596 E4.22828
G1 X174.514 Y78.321 E4.25831
G1 X174.908 Y78.953 E4.28308
G1 X175.313 Y79.659 E4.31015
G1 X175.821 Y80.572 E4.3449
G1 X177.12 Y82.761 E4.42957
G1 X178.482 Y84.915 E4.51433
G1 X179.909 Y87.039 E4.59944
G1 X181.374 Y89.091 E4.68329
G1 X182.918 Y91.129 E4.76833
G1 X184.489 Y93.086 E4.8518
G1 X186.164 Y95.054 E4.93776
G1 X187.829 Y96.912 E5.02074
G1 X188.405 Y97.607 E5.05076
G1 X188.918 Y98.351 E5.08082
G1 X189.362 Y99.137 E5.11084
G1 X189.735 Y99.959 E5.14087
G1 X190.035 Y100.811 E5.17091
G1 X190.257 Y101.687 E5.20097
G1 X190.401 Y102.578 E5.23098
G1 X190.465 Y103.454 E5.2602
G1 X190.48 Y104.093 E5.28146
G1 X190.479 Y130.683 E6.16584
G1 X190.469 Y131.388 E6.1893
G1 X190.416 Y132.289 E6.21931
G1 X190.284 Y133.183 E6.24937
G1 X190.073 Y134.061 E6.27941
G1 X189.785 Y134.917 E6.30944
G1 X189.423 Y135.744 E6.33947
G1 X188.989 Y136.536 E6.36951
G1 X188.487 Y137.287 E6.39955
G1 X187.924 Y137.985 E6.42938
G1 X187.29 Y138.705 E6.46129
G1 X185.596 Y140.686 E6.54798
G1 X184.004 Y142.659 E6.6323
G1 X182.458 Y144.69 E6.7172
G1 X180.988 Y146.74 E6.8011
G1 X179.551 Y148.868 E6.8865
G1 X178.195 Y151.005 E6.97068
G1 X176.899 Y153.178 E7.05483
G1 X175.656 Y155.404 E7.13963
G1 X174.467 Y157.684 E7.22516
G1 X173.78 Y159.06 E7.27631
G1 X173.341 Y159.849 E7.30634
G1 X172.835 Y160.597 E7.33638
G1 X172.264 Y161.297 E7.36642
G1 X171.633 Y161.943 E7.39646
G1 X170.948 Y162.532 E7.4265
G1 X170.214 Y163.057 E7.45652
G1 X169.435 Y163.515 E7.48657
G1 X168.727 Y163.857 E7.51273
G1 X166.412 Y164.865 E7.59671
G1 X164.097 Y165.952 E7.68177
G1 X161.849 Y167.086 E7.76551
G1 X159.606 Y168.298 E7.85031
G1 X157.407 Y169.569 E7.93479
G1 X156.314 Y170.243 E7.9775
G1 X155.549 Y170.7 E8.00713
G1 X154.754 Y171.128 E8.03716
G1 X153.924 Y171.483 E8.06719
G1 X153.066 Y171.764 E8.09722
G1 X152.186 Y171.968 E8.12726
G1 X151.291 Y172.093 E8.15732
G1 X150.637 Y172.134 E8.17911
G1 X149.998 Y172.149 E8.20037
G1 X147.864 Y172.148 E8.27135
G1 X147.148 Y172.136 E8.29517
G1 X146.247 Y172.08 E8.32519
G1 X145.354 Y171.946 E8.35523
G1 X144.483 Y171.735 E8.38504
G1 X142.122 Y171.052 E8.46678
G1 X139.652 Y170.408 E8.55168
G1 X137.135 Y169.83 E8.63758
G1 X134.688 Y169.338 E8.72059
G1 X132.2 Y168.912 E8.80455
G1 X129.673 Y168.552 E8.88944
G1 X127.14 Y168.264 E8.97424
G1 X124.64 Y168.051 E9.05769
G1 X123.319 Y167.976 E9.10169
G1 X122.472 Y167.916 E9.12994
G1 X121.575 Y167.812 E9.15997
G1 X120.691 Y167.628 E9.19
G1 X119.826 Y167.368 E9.22004
G1 X118.988 Y167.031 E9.25009
G1 X118.183 Y166.622 E9.28012
G1 X117.417 Y166.144 E9.31015
G1 X116.697 Y165.599 E9.34018
G1 X115.847 Y164.81 E9.37876
G1 X115.43 Y164.376 E9.39877
G1 X113.631 Y162.553 E9.48396
G1 X111.769 Y160.771 E9.56968
G1 X109.888 Y159.069 E9.65405
G1 X107.954 Y157.418 E9.73863
G1 X105.981 Y155.826 E9.82295
G1 X103.982 Y154.305 E9.9065
G1 X101.899 Y152.811 E9.99175
G1 X99.783 Y151.382 E10.07668
G1 X97.653 Y150.03 E10.16059
G1 X95.478 Y148.734 E10.2448
G1 X93.235 Y147.482 E10.33024
G1 X90.999 Y146.316 E10.41411
G1 X88.724 Y145.21 E10.49824
G1 X86.392 Y144.157 E10.58335
G1 X84.071 Y143.187 E10.66701
G1 X81.652 Y142.255 E10.75324
G1 X79.282 Y141.419 E10.83682
G1 X76.891 Y140.651 E10.92035
G1 X74.434 Y139.937 E11.00545
G1 X71.961 Y139.294 E11.09044
G1 X69.501 Y138.727 E11.1744
G1 X67.02 Y138.23 E11.25856
G1 X64.154 Y137.741 E11.35526
G1 X63.272 Y137.55 E11.38528
G1 X62.409 Y137.281 E11.41534
G1 X61.574 Y136.937 E11.44538
G1 X60.773 Y136.521 E11.4754
G1 X60.011 Y136.036 E11.50544
G1 X59.296 Y135.485 E11.53546
G1 X58.632 Y134.873 E11.5655
G1 X58.024 Y134.204 E11.59557
G1 X57.479 Y133.485 E11.62557
G1 X56.999 Y132.72 E11.65561
G1 X56.588 Y131.915 E11.68567
G1 X56.25 Y131.078 E11.7157
G1 X55.988 Y130.213 E11.74576
G1 X55.803 Y129.329 E11.7758
G1 X55.697 Y128.433 E11.80581
G1 X55.674 Y127.962 E11.82149
G1 X55.661 Y127.354 E11.84172
G1 X55.662 Y107.854 E12.49029
G1 X55.672 Y107.166 E12.51317
G1 X55.725 Y106.264 E12.54323
G1 X55.858 Y105.371 E12.57326
G1 X56.069 Y104.493 E12.60329
G1 X56.357 Y103.637 E12.63333
G1 X56.719 Y102.81 E12.66335
G1 X57.154 Y102.018 E12.69341
G1 X57.656 Y101.268 E12.72343
G1 X58.223 Y100.565 E12.75346
G1 X58.85 Y99.915 E12.7835
G1 X59.532 Y99.323 E12.81354
G1 X60.264 Y98.793 E12.8436
G0 F6000 X60.059 Y98.449
G1 F1200 X60.835 Y97.987 E12.87364
G1 X61.679 Y97.579 E12.90482
G1 X62.59 Y97.235 E12.9372
G1 X63.494 Y96.984 E12.96841
G1 X64.354 Y96.823 E12.99751
G1 X65.14 Y96.709 E13.02392
G1 X67.728 Y96.302 E13.11106
G1 X70.232 Y95.834 E13.19579
G1 X72.703 Y95.301 E13.27986
G1 X75.121 Y94.707 E13.36268
G1 X77.568 Y94.032 E13.4471
G1 X80.006 Y93.284 E13.53192
G1 X82.381 Y92.481 E13.61531
G1 X84.794 Y91.588 E13.70088
G1 X87.092 Y90.663 E13.78328
G1 X89.433 Y89.643 E13.86821
G1 X91.719 Y88.571 E13.95218
G1 X93.965 Y87.436 E14.03588
G1 X96.223 Y86.216 E14.12125
G1 X98.382 Y84.968 E14.20419
G1 X100.547 Y83.635 E14.28875
G1 X102.654 Y82.254 E14.37254
G1 X104.733 Y80.804 E14.45685
G1 X106.761 Y79.303 E14.54076
G1 X108.743 Y77.748 E14.62455
G1 X110.724 Y76.1 E14.71026
G1 X112.611 Y74.438 E14.79389
G1 X114.411 Y72.772 E14.87547
G1 X115.144 Y72.154 E14.90736
G1 X116.036 Y71.537 E14.94343
G1 X116.833 Y71.048 E14.97453
G1 X117.531 Y70.642 E15.00139
G1 X119.793 Y69.384 E15.08748
G1 X122.048 Y68.046 E15.17469
G1 X122.675 Y67.69 E15.19867
G1 X123.484 Y67.29 E15.22868
G1 X124.358 Y66.948 E15.2599
G1 X125.3 Y66.676 E15.29251
G1 X126.565 Y66.452 E15.33524
G1 X128.308 Y66.255 E15.39358
G1 X130.904 Y65.913 E15.48067
G1 X133.367 Y65.518 E15.56364
G1 X135.856 Y65.047 E15.64789
G1 X138.346 Y64.501 E15.73268
G1 X140.778 Y63.898 E15.81601
G1 X143.054 Y63.265 E15.89459
G1 X144.382 Y62.878 E15.94059
G1 X145.26 Y62.664 E15.97065
G1 X146.221 Y62.518 E16.00298
G1 X147.01 Y62.465 E16.02928
G1 X147.649 Y62.45 E16.05054
G1 X149.626 Y62.45 E16.1163
G1 X150.492 Y62.462 E16.1451
G1 X151.429 Y62.518 E16.17632
G1 X152.322 Y62.65 E16.20635
G1 X153.27 Y62.878 E16.23878
G1 X154.126 Y63.166 E16.26882
G1 X155.017 Y63.556 E16.30116
G1 X155.842 Y64.01 E16.33248
G1 X156.758 Y64.635 E16.36937
G1 X159.175 Y66.481 E16.47052
G1 X161.237 Y67.96 E16.55492
G1 X163.274 Y69.336 E16.63668
G1 X165.65 Y70.843 E16.73026
G1 X166.768 Y71.588 E16.77495
G1 X168.47 Y72.811 E16.84466
G1 X171.184 Y74.692 E16.95448
G1 X171.724 Y75.053 E16.97609
G1 X172.256 Y75.429 E16.99776
G1 X172.994 Y76.01 E17.029
G1 X173.651 Y76.63 E17.05904
G1 X174.275 Y77.33 E17.09023
G1 X174.853 Y78.109 E17.12249
G1 X175.255 Y78.754 E17.14777
G1 X175.663 Y79.465 E17.17504
G1 X176.165 Y80.368 E17.2094
G1 X177.458 Y82.547 E17.29367
G1 X178.814 Y84.692 E17.37808
G1 X180.235 Y86.807 E17.46282
G1 X181.693 Y88.849 E17.54628
G1 X183.237 Y90.887 E17.63132
G1 X184.794 Y92.827 E17.71405
G1 X186.462 Y94.787 E17.79965
G1 X188.137 Y96.657 E17.88315
G1 X188.713 Y97.352 E17.91318
G1 X189.266 Y98.154 E17.94558
G1 X189.71 Y98.94 E17.9756
G1 X190.112 Y99.826 E18.00796
G1 X190.423 Y100.713 E18.03922
G1 X190.652 Y101.623 E18.07044
G1 X190.796 Y102.514 E18.10045
G1 X190.865 Y103.445 E18.1315
G1 X190.88 Y104.093 E18.15306
G1 X190.879 Y130.689 E19.03765
G1 X190.869 Y131.394 E19.0611
G1 X190.812 Y132.347 E19.09285
G1 X190.68 Y133.241 E19.12291
G1 X190.452 Y134.189 E19.15534
G1 X190.164 Y135.045 E19.18538
G1 X189.774 Y135.936 E19.21773
G1 X189.322 Y136.758 E19.24893
G1 X188.82 Y137.509 E19.27897
G1 X188.224 Y138.249 E19.31058
G1 X187.594 Y138.965 E19.3423
G1 X185.9 Y140.946 E19.42899
G1 X184.315 Y142.91 E19.51293
G1 X182.783 Y144.923 E19.59707
G1 X181.313 Y146.973 E19.68097
G1 X179.889 Y149.082 E19.76561
G1 X178.539 Y151.21 E19.84943
G1 X177.243 Y153.383 E19.93358
G1 X176.011 Y155.589 E20.01762
G1 X174.822 Y157.869 E20.10314
G1 X174.13 Y159.254 E20.15464
G1 X173.691 Y160.043 E20.18467
G1 X173.145 Y160.85 E20.21708
G1 X172.55 Y161.577 E20.24832
G1 X171.919 Y162.223 E20.27836
G1 X171.181 Y162.857 E20.31072
G1 X170.417 Y163.402 E20.34193
G1 X169.638 Y163.86 E20.37199
G1 X168.887 Y164.224 E20.39975
G1 X166.572 Y165.232 E20.48372
G1 X164.267 Y166.314 E20.56842
G1 X162.039 Y167.438 E20.65142
G1 X159.796 Y168.65 E20.73621
G1 X157.607 Y169.915 E20.8203
G1 X156.519 Y170.586 E20.86282
G1 X155.739 Y171.052 E20.89304
G1 X154.911 Y171.496 E20.92429
G1 X154.081 Y171.851 E20.95431
G1 X153.156 Y172.154 E20.98669
G1 X152.276 Y172.358 E21.01673
G1 X151.316 Y172.492 E21.04897
G1 X150.646 Y172.534 E21.0713
G1 X149.998 Y172.549 E21.09286
G1 X147.857 Y172.548 E21.16407
G1 X147.123 Y172.535 E21.18848
G1 X146.188 Y172.476 E21.21964
G1 X145.26 Y172.335 E21.25086
G1 X144.372 Y172.119 E21.28126
G1 X142.021 Y171.439 E21.36266
G1 X139.562 Y170.798 E21.44718
G1 X137.045 Y170.22 E21.53307
G1 X134.613 Y169.731 E21.61558
G1 X132.144 Y169.308 E21.6989
G1 X129.617 Y168.948 E21.78379
G1 X127.106 Y168.663 E21.86785
G1 X124.606 Y168.449 E21.9513
G1 X123.291 Y168.375 E21.99511
G1 X122.426 Y168.313 E22.02395
G1 X121.493 Y168.204 E22.05519
G1 X120.609 Y168.02 E22.08523
G1 X119.677 Y167.739 E22.1176
G1 X118.807 Y167.388 E22.1488
G1 X118.002 Y166.979 E22.17884
G1 X117.176 Y166.463 E22.21123
G1 X116.425 Y165.892 E22.24261
G1 X115.559 Y165.087 E22.28193
G1 X115.145 Y164.657 E22.30179
G1 X113.346 Y162.834 E22.38697
G1 X111.492 Y161.06 E22.47232
G1 X109.62 Y159.366 E22.55629
G1 X107.694 Y157.722 E22.64051
G1 X105.73 Y156.137 E22.72445
G1 X103.749 Y154.63 E22.80724
G1 X101.666 Y153.136 E22.8925
G1 X99.569 Y151.72 E22.97666
G1 X97.448 Y150.374 E23.06021
G1 X95.273 Y149.078 E23.14442
G1 X93.05 Y147.837 E23.2291
G1 X90.814 Y146.671 E23.31297
G1 X88.559 Y145.575 E23.39636
G1 X86.227 Y144.521 E23.48148
G1 X83.917 Y143.556 E23.56474
G1 X81.508 Y142.628 E23.65061
G1 X79.16 Y141.8 E23.73341
G1 X76.769 Y141.032 E23.81694
G1 X74.327 Y140.322 E23.90153
G1 X71.871 Y139.684 E23.98592
G1 X69.411 Y139.117 E24.06989
G1 X66.941 Y138.622 E24.15367
G1 X64.069 Y138.132 E24.25058
G1 X63.153 Y137.932 E24.28176
G1 X62.257 Y137.651 E24.31299
G1 X61.422 Y137.307 E24.34303
G1 X60.589 Y136.876 E24.37423
G1 X59.767 Y136.353 E24.40663
G1 X59.052 Y135.802 E24.43665
G1 X58.336 Y135.142 E24.46904
G1 X57.705 Y134.446 E24.50029
G1 X57.14 Y133.698 E24.53147
G1 X56.66 Y132.933 E24.5615
G1 X56.217 Y132.065 E24.59392
G1 X55.867 Y131.194 E24.62514
G1 X55.596 Y130.295 E24.65637
G1 X55.411 Y129.411 E24.68641
G1 X55.297 Y128.453 E24.71849
G1 X55.274 Y127.971 E24.73454
G1 X55.261 Y127.354 E24.75507
G1 X55.262 Y107.848 E25.40384
G1 X55.273 Y107.143 E25.42729
G1 X55.329 Y106.205 E25.45855
G1 X55.462 Y105.312 E25.48858
G1 X55.69 Y104.365 E25.52097
G1 X55.978 Y103.509 E25.55101
G1 X56.368 Y102.617 E25.58339
G1 X56.803 Y101.825 E25.61345
G1 X57.345 Y101.017 E25.64581
G1 X57.935 Y100.287 E25.67702
G1 X58.562 Y99.637 E25.70706
G1 X59.297 Y98.999 E25.73943
G1 X60.059 Y98.449 E25.77069
G0 F6000 X59.854 Y98.105
G1 F1200 X60.63 Y97.643 E25.80073
G1 X61.505 Y97.219 E25.83307
G1 X62.483 Y96.85 E25.86783
G1 X63.42 Y96.591 E25.90017
G1 X64.297 Y96.427 E25.92984
G1 X65.083 Y96.313 E25.95626
G1 X67.666 Y95.907 E26.04322
G1 X70.146 Y95.443 E26.12714
G1 X72.619 Y94.91 E26.21128
G1 X75.015 Y94.321 E26.29335
G1 X77.462 Y93.647 E26.37776
G1 X79.878 Y92.905 E26.46182
G1 X82.253 Y92.102 E26.54521
G1 X84.655 Y91.213 E26.6304
G1 X86.932 Y90.296 E26.71204
G1 X89.273 Y89.276 E26.79697
G1 X91.549 Y88.209 E26.88058
G1 X93.775 Y87.084 E26.96353
G1 X96.033 Y85.864 E27.0489
G1 X98.172 Y84.627 E27.13108
G1 X100.337 Y83.294 E27.21564
G1 X102.435 Y81.919 E27.29907
G1 X104.495 Y80.482 E27.38261
G1 X106.523 Y78.981 E27.46653
G1 X108.487 Y77.44 E27.54956
G1 X110.468 Y75.793 E27.63525
G1 X112.339 Y74.144 E27.7182
G1 X114.153 Y72.466 E27.80038
G1 X114.916 Y71.825 E27.83353
G1 X115.827 Y71.196 E27.87035
G1 X116.632 Y70.702 E27.90176
G1 X117.337 Y70.292 E27.92889
G1 X119.599 Y69.034 E28.01497
G1 X121.851 Y67.698 E28.10207
G1 X122.498 Y67.331 E28.12681
G1 X123.307 Y66.931 E28.15682
G1 X124.247 Y66.564 E28.19039
G1 X125.23 Y66.282 E28.2244
G1 X126.495 Y66.058 E28.26713
G1 X128.256 Y65.858 E28.32608
G1 X130.852 Y65.516 E28.41316
G1 X133.304 Y65.123 E28.49576
G1 X135.77 Y64.656 E28.57924
G1 X138.26 Y64.11 E28.66402
G1 X140.682 Y63.51 E28.74701
G1 X142.942 Y62.881 E28.82504
G1 X144.287 Y62.489 E28.87163
G1 X145.165 Y62.275 E28.90169
G1 X146.194 Y62.119 E28.93631
G1 X147.001 Y62.065 E28.96321
G1 X147.64 Y62.05 E28.98447
G1 X149.632 Y62.05 E29.05072
G1 X150.516 Y62.063 E29.08013
G1 X151.487 Y62.122 E29.11248
G1 X152.416 Y62.261 E29.14372
G1 X153.364 Y62.489 E29.17615
G1 X154.254 Y62.787 E29.20737
G1 X155.21 Y63.206 E29.24209
G1 X156.035 Y63.66 E29.27341
G1 X157.001 Y64.317 E29.31226
G1 X159.418 Y66.163 E29.41342
G1 X161.47 Y67.635 E29.49741
G1 X163.488 Y68.998 E29.57841
G1 X165.872 Y70.51 E29.6723
G1 X167.001 Y71.263 E29.71744
G1 X168.698 Y72.482 E29.78693
G1 X171.406 Y74.359 E29.89652
G1 X171.955 Y74.726 E29.91849
G1 X172.487 Y75.102 E29.94015
G1 X173.269 Y75.719 E29.97328
G1 X173.926 Y76.339 E30.00333
G1 X174.574 Y77.064 E30.03567
G1 X175.192 Y77.897 E30.07017
G1 X175.602 Y78.555 E30.09596
G1 X176.013 Y79.271 E30.12341
G1 X176.509 Y80.164 E30.15739
G1 X177.796 Y82.333 E30.24127
G1 X179.146 Y84.469 E30.32532
G1 X180.561 Y86.575 E30.40971
G1 X182.012 Y88.607 E30.49275
G1 X183.556 Y90.645 E30.57779
G1 X185.099 Y92.568 E30.6598
