;FLAVOR:Marlin
;TIME:19129
;Filament used: 16.4368m
;Layer height: 0.32
;MINX:7.634
;MINY:10.055
;MINZ:0.2
;MAXX:228.049
;MAXY:225.273
;MAXZ:33.8
;Generated with Cura_SteamEngine 5.3.1
M140 S50
M105
M190 S50
M104 S200
M105
M109 S200
M82 ;absolute extrusion mode
; Ender 3 Custom Start G-code
G92 E0 ; Reset Extruder
G28 ; Home all axes
G1 Z2.0 F3000 ; Move Z Axis up little to prevent scratching of Heat Bed
G1 X0.1 Y20 Z0.3 F5000.0 ; Move to start position
G1 X0.1 Y200.0 Z0.3 F1500.0 E15 ; Draw the first line
G1 X0.4 Y200.0 Z0.3 F5000.0 ; Move to side a little
G1 X0.4 Y20 Z0.3 F1500.0 E30 ; Draw the second line
G92 E0 ; Reset Extruder
G1 Z2.0 F3000 ; Move Z Axis up little to prevent scratching of Heat Bed
G1 X5 Y20 Z0.3 F5000.0 ; Move over to prevent blob squish
G92 E0
G92 E0
G1 F2700 E-5
;LAYER_COUNT:106
;LAYER:0
M107
G0 F6000 X59.079 Y48.572 Z0.2
;TYPE:SKIRT
G1 F2700 E0
G1 F1200 X59.673 Y47.891 E0.03006
G1 X60.324 Y47.266 E0.06007
G1 X61.028 Y46.7 E0.09012
G1 X61.78 Y46.2 E0.12015
G1 X62.573 Y45.767 E0.1502
G1 X63.401 Y45.406 E0.18025
G1 X64.257 Y45.12 E0.21026
G1 X65.136 Y44.911 E0.24031
G1 X66.321 Y44.756 E0.28006
G1 X68.91 Y44.569 E0.3664
G1 X71.446 Y44.315 E0.45117
G1 X73.977 Y43.988 E0.53605
G1 X76.473 Y43.594 E0.62009
G1 X78.956 Y43.13 E0.70411
G1 X81.48 Y42.583 E0.79001
G1 X83.877 Y41.994 E0.8721
G1 X86.381 Y41.301 E0.95852
G1 X88.808 Y40.556 E1.04296
G1 X91.202 Y39.745 E1.12703
G1 X93.586 Y38.863 E1.21157
G1 X95.925 Y37.92 E1.29545
G1 X98.266 Y36.9 E1.38038
G1 X100.575 Y35.815 E1.46524
G1 X102.853 Y34.663 E1.55014
G1 X105.076 Y33.461 E1.63419
G1 X107.238 Y32.211 E1.71726
G1 X109.422 Y30.864 E1.8026
G1 X111.564 Y29.459 E1.8878
G1 X113.64 Y28.009 E1.97202
G1 X115.672 Y26.505 E2.05611
G1 X117.664 Y24.94 E2.14036
G1 X119.624 Y23.31 E2.22515
G1 X121.549 Y21.613 E2.3105
G1 X123.384 Y19.902 E2.39395
G1 X124.988 Y18.325 E2.46877
G1 X125.509 Y17.848 E2.49226
G1 X126.34 Y17.137 E2.52864
G1 X128.326 Y15.385 E2.61672
G1 X130.24 Y13.602 E2.70372
G1 X130.928 Y13.016 E2.73378
G1 X131.664 Y12.493 E2.76381
G1 X132.444 Y12.038 E2.79385
G1 X133.261 Y11.653 E2.82388
G1 X134.109 Y11.342 E2.85393
G1 X134.981 Y11.108 E2.88396
G1 X135.87 Y10.951 E2.91398
G1 X136.88 Y10.87 E2.94768
G1 X137.519 Y10.855 E2.96894
G1 X141.582 Y10.855 E3.10408
G1 X142.426 Y10.866 E3.13215
G1 X143.271 Y10.913 E3.1603
G1 X143.796 Y10.964 E3.17784
G1 X146.355 Y11.182 E3.26326
G1 X148.916 Y11.327 E3.34858
G1 X151.45 Y11.399 E3.43289
G1 X153.982 Y11.399 E3.51711
G1 X156.516 Y11.327 E3.60142
G1 X159.056 Y11.183 E3.68604
G1 X162.201 Y10.911 E3.79103
G1 X162.892 Y10.868 E3.81406
G1 X163.499 Y10.855 E3.83425
G1 X167.648 Y10.856 E3.97225
G1 X168.351 Y10.866 E3.99564
G1 X169.253 Y10.919 E4.02569
G1 X170.146 Y11.051 E4.05571
G1 X171.024 Y11.262 E4.08575
G1 X171.88 Y11.55 E4.11578
G1 X172.707 Y11.912 E4.14581
G1 X173.298 Y12.227 E4.16808
G1 X174.072 Y12.674 E4.19781
G1 X175.108 Y13.292 E4.23794
G1 X177.314 Y14.524 E4.32197
G1 X179.589 Y15.711 E4.40732
G1 X181.855 Y16.813 E4.49113
G1 X184.162 Y17.856 E4.57534
G1 X186.525 Y18.845 E4.66054
G1 X188.911 Y19.764 E4.74558
G1 X191.258 Y20.593 E4.82837
G1 X193.708 Y21.38 E4.91395
G1 X196.204 Y22.107 E5.00042
G1 X197.152 Y22.364 E5.03309
G1 X198.012 Y22.639 E5.06312
G1 X199.038 Y23.083 E5.1003
G1 X201.316 Y24.221 E5.185
G1 X203.618 Y25.292 E5.26944
G1 X206 Y26.32 E5.35573
G1 X208.318 Y27.245 E5.43874
G1 X210.731 Y28.128 E5.5242
G1 X213.113 Y28.925 E5.60775
G1 X215.522 Y29.655 E5.69147
G1 X219.126 Y30.616 E5.81553
G1 X219.469 Y30.7 E5.82727
G1 X220.336 Y30.953 E5.85731
G1 X221.177 Y31.283 E5.88736
G1 X221.986 Y31.685 E5.91741
G1 X222.755 Y32.158 E5.94743
G1 X223.48 Y32.696 E5.97746
G1 X224.155 Y33.297 E6.00752
G1 X224.773 Y33.955 E6.03755
G1 X225.331 Y34.665 E6.06758
G1 X225.824 Y35.422 E6.09763
G1 X226.248 Y36.219 E6.12765
G1 X226.6 Y37.051 E6.1577
G1 X226.877 Y37.91 E6.18772
G1 X227.077 Y38.791 E6.21777
G1 X227.198 Y39.686 E6.24781
G1 X227.236 Y40.321 E6.26896
G1 X227.249 Y40.928 E6.28916
G1 X227.248 Y75.464 E7.43783
G1 X227.238 Y76.169 E7.46128
G1 X227.185 Y77.07 E7.4913
G1 X227.053 Y77.964 E7.52136
G1 X226.842 Y78.842 E7.55139
G1 X226.391 Y80.095 E7.59568
G1 X225.998 Y80.997 E7.62841
G1 X225.557 Y81.975 E7.66409
G1 X224.582 Y84.31 E7.74825
G1 X223.665 Y86.697 E7.8333
G1 X222.83 Y89.068 E7.91691
G1 X222.051 Y91.497 E8.00175
G1 X221.344 Y93.932 E8.08608
G1 X220.703 Y96.401 E8.17092
G1 X220.135 Y98.873 E8.25528
G1 X219.638 Y101.359 E8.33961
G1 X219.209 Y103.873 E8.42443
G1 X218.853 Y106.387 E8.50888
G1 X218.57 Y108.884 E8.59246
G1 X218.355 Y111.437 E8.67768
G1 X218.213 Y113.965 E8.76189
G1 X218.142 Y116.504 E8.84637
G1 X218.144 Y119.038 E8.93065
G1 X218.217 Y121.598 E9.01583
G1 X218.361 Y124.107 E9.09942
G1 X218.579 Y126.658 E9.18458
G1 X218.868 Y129.182 E9.26907
G1 X219.222 Y131.664 E9.35246
G1 X219.656 Y134.189 E9.43767
G1 X220.156 Y136.68 E9.52218
G1 X220.728 Y139.158 E9.60676
G1 X221.363 Y141.59 E9.69036
G1 X222.071 Y144.022 E9.77461
G1 X222.864 Y146.484 E9.86064
G1 X223.704 Y148.862 E9.94452
G1 X224.614 Y151.219 E10.02855
G1 X225.606 Y153.588 E10.11398
G1 X226.093 Y154.69 E10.15405
G1 X226.421 Y155.532 E10.1841
G1 X226.674 Y156.399 E10.21414
G1 X226.849 Y157.285 E10.24418
G1 X226.957 Y158.447 E10.283
G1 X226.976 Y159.147 E10.30629
G1 X226.975 Y193.663 E11.45429
G1 X226.964 Y194.392 E11.47854
G1 X226.91 Y195.293 E11.50856
G1 X226.777 Y196.187 E11.53863
G1 X226.566 Y197.065 E11.56866
G1 X226.277 Y197.92 E11.59868
G1 X225.914 Y198.747 E11.62872
G1 X225.479 Y199.539 E11.65877
G1 X224.976 Y200.289 E11.68881
G1 X224.409 Y200.992 E11.71885
G1 X223.782 Y201.641 E11.74886
G1 X223.099 Y202.233 E11.77892
G1 X222.367 Y202.762 E11.80896
G1 X221.591 Y203.224 E11.839
G1 X220.778 Y203.616 E11.86902
G1 X219.932 Y203.934 E11.89908
G1 X219.337 Y204.108 E11.9197
G1 X218.494 Y204.327 E11.94867
G1 X217.372 Y204.603 E11.9871
G1 X214.909 Y205.282 E12.07207
G1 X212.497 Y206.023 E12.156
G1 X210.077 Y206.84 E12.24095
G1 X207.675 Y207.729 E12.32614
G1 X205.356 Y208.662 E12.40927
G1 X203.055 Y209.664 E12.49275
G1 X199.62 Y211.302 E12.61932
G1 X198.731 Y211.749 E12.65242
G1 X197.907 Y212.118 E12.68244
G1 X197.134 Y212.389 E12.70969
G1 X196.588 Y212.556 E12.72868
G1 X195.056 Y212.999 E12.78172
G1 X192.637 Y213.772 E12.86619
G1 X190.218 Y214.621 E12.95145
G1 X187.825 Y215.538 E13.03669
G1 X185.514 Y216.5 E13.11995
G1 X183.19 Y217.545 E13.2047
G1 X180.901 Y218.652 E13.28927
G1 X178.651 Y219.821 E13.3736
G1 X176.437 Y221.052 E13.45785
G1 X174.225 Y222.365 E13.54341
G1 X173.304 Y222.935 E13.57944
G1 X172.516 Y223.376 E13.60947
G1 X171.692 Y223.745 E13.6395
G1 X170.839 Y224.041 E13.66953
G1 X169.962 Y224.259 E13.69959
G1 X169.07 Y224.4 E13.72962
G1 X168.245 Y224.458 E13.75713
G1 X167.606 Y224.473 E13.77839
G1 X163.457 Y224.472 E13.91638
G1 X162.76 Y224.462 E13.93957
G1 X161.916 Y224.415 E13.96768
G1 X161.398 Y224.364 E13.985
G1 X158.83 Y224.146 E14.07072
G1 X156.269 Y224.001 E14.15603
G1 X153.735 Y223.929 E14.24035
G1 X151.203 Y223.929 E14.32456
G1 X148.669 Y224.001 E14.40888
G1 X146.129 Y224.145 E14.49349
G1 X142.984 Y224.417 E14.59849
G1 X142.293 Y224.46 E14.62151
G1 X141.686 Y224.473 E14.64171
G1 X137.478 Y224.472 E14.78167
G1 X136.777 Y224.462 E14.80498
G1 X135.875 Y224.409 E14.83504
G1 X134.982 Y224.277 E14.86506
G1 X134.103 Y224.066 E14.89513
G1 X133.247 Y223.778 E14.92517
G1 X132.42 Y223.416 E14.95519
G1 X131.628 Y222.982 E14.98523
G1 X130.878 Y222.479 E15.01526
G1 X129.983 Y221.739 E15.05389
G1 X128.865 Y220.692 E15.10483
G1 X126.99 Y218.99 E15.18906
G1 X125.54 Y217.749 E15.25254
G1 X125.113 Y217.372 E15.27148
G1 X124.706 Y216.993 E15.28998
G1 X124.039 Y216.336 E15.32112
G1 X123.525 Y215.814 E15.34548
G1 X121.68 Y214.045 E15.4305
G1 X119.802 Y212.342 E15.51482
G1 X117.855 Y210.675 E15.60007
G1 X115.89 Y209.085 E15.68414
G1 X113.878 Y207.552 E15.76827
G1 X111.809 Y206.065 E15.85302
G1 X109.71 Y204.644 E15.93732
G1 X107.562 Y203.276 E16.02203
G1 X105.378 Y201.973 E16.10661
G1 X103.195 Y200.751 E16.18982
G1 X100.91 Y199.556 E16.27558
G1 X98.62 Y198.439 E16.36033
G1 X96.322 Y197.399 E16.44422
G1 X93.98 Y196.416 E16.5287
G1 X91.578 Y195.489 E16.61434
G1 X89.228 Y194.656 E16.69726
G1 X86.816 Y193.879 E16.78154
G1 X84.348 Y193.159 E16.86705
G1 X81.91 Y192.522 E16.95086
G1 X79.411 Y191.943 E17.03618
G1 X76.93 Y191.444 E17.12035
G1 X74.424 Y191.012 E17.20493
G1 X71.946 Y190.656 E17.2882
G1 X69.4 Y190.364 E17.37343
G1 X66.662 Y190.13 E17.46483
G1 X66.059 Y190.087 E17.48494
G1 X65.162 Y189.984 E17.51497
G1 X64.278 Y189.801 E17.54499
G1 X63.413 Y189.541 E17.57503
G1 X62.575 Y189.205 E17.60506
G1 X61.769 Y188.796 E17.63513
G1 X61.003 Y188.318 E17.66516
G1 X60.282 Y187.774 E17.6952
G1 X59.612 Y187.168 E17.72524
G1 X58.999 Y186.506 E17.75525
G1 X58.446 Y185.791 E17.78532
G1 X57.88 Y184.892 E17.82065
G1 X57.36 Y183.96 E17.85615
G1 X57.001 Y183.296 E17.88125
G1 X55.725 Y181.084 E17.96619
G1 X54.4 Y178.934 E18.05019
G1 X53.007 Y176.807 E18.13475
G1 X51.545 Y174.708 E18.21983
G1 X50.045 Y172.679 E18.30375
G1 X48.481 Y170.684 E18.38807
G1 X46.861 Y168.736 E18.47234
G1 X45.172 Y166.816 E18.55739
G1 X43.446 Y164.962 E18.64164
G1 X41.65 Y163.139 E18.72675
G1 X39.852 Y161.415 E18.8096
G1 X37.944 Y159.686 E18.89524
G1 X36.007 Y158.029 E18.98002
G1 X34.054 Y156.449 E19.06358
G1 X32.017 Y154.899 E19.14871
G1 X29.95 Y153.413 E19.23338
G1 X27.851 Y151.994 E19.31765
G1 X25.726 Y150.642 E19.40142
G1 X23.524 Y149.328 E19.48671
G1 X21.319 Y148.095 E19.57074
G1 X19.055 Y146.911 E19.65571
G1 X16.77 Y145.799 E19.74023
G1 X14.435 Y144.741 E19.8255
G1 X13.629 Y144.332 E19.85556
G1 X12.863 Y143.854 E19.88559
G1 X12.143 Y143.309 E19.91562
G1 X11.473 Y142.704 E19.94565
G1 X10.859 Y142.041 E19.9757
G1 X10.307 Y141.326 E20.00575
G1 X9.82 Y140.566 E20.03577
G1 X9.402 Y139.765 E20.06582
G1 X9.056 Y138.931 E20.09585
G1 X8.786 Y138.069 E20.12589
G1 X8.593 Y137.187 E20.15592
G1 X8.479 Y136.291 E20.18597
G1 X8.449 Y135.765 E20.20349
G1 X8.434 Y135.126 E20.22475
G1 X8.435 Y100.578 E21.37382
G1 X8.445 Y99.887 E21.3968
G1 X8.498 Y98.986 E21.42682
G1 X8.631 Y98.093 E21.45685
G1 X8.842 Y97.214 E21.48692
G1 X9.13 Y96.358 E21.51696
G1 X9.492 Y95.531 E21.54698
G1 X9.926 Y94.739 E21.57702
G1 X10.429 Y93.989 E21.60706
G1 X10.996 Y93.286 E21.6371
G1 X11.623 Y92.636 E21.66713
G1 X12.305 Y92.044 E21.69717
G1 X13.037 Y91.515 E21.72721
G1 X13.812 Y91.052 E21.75724
G1 X14.426 Y90.748 E21.78002
G1 X15.52 Y90.251 E21.81999
G1 X17.886 Y89.138 E21.90695
G1 X20.134 Y88.003 E21.99071
G1 X22.394 Y86.779 E22.0762
G1 X24.558 Y85.527 E22.15935
G1 X26.739 Y84.182 E22.24458
G1 X28.871 Y82.782 E22.32941
G1 X30.951 Y81.329 E22.4138
G1 X32.983 Y79.825 E22.49788
G1 X34.984 Y78.253 E22.58251
G1 X36.924 Y76.637 E22.66649
G1 X38.852 Y74.937 E22.75199
G1 X40.709 Y73.206 E22.83642
G1 X42.492 Y71.446 E22.91975
G1 X44.253 Y69.606 E23.00446
G1 X45.957 Y67.722 E23.08895
G1 X47.615 Y65.781 E23.17386
G1 X49.232 Y63.777 E23.2595
G1 X50.735 Y61.8 E23.3421
G1 X52.226 Y59.721 E23.42719
G1 X53.649 Y57.613 E23.51178
G1 X55.002 Y55.48 E23.5958
G1 X56.314 Y53.276 E23.68111
G1 X57.562 Y51.043 E23.76619
G1 X58.084 Y50.077 E23.80271
G1 X58.548 Y49.302 E23.83275
G1 X59.079 Y48.572 E23.86278
G0 F6000 X58.778 Y48.309
G1 F1200 X59.396 Y47.602 E23.89401
G1 X60.073 Y46.954 E23.92518
G1 X60.777 Y46.388 E23.95522
G1 X61.588 Y45.849 E23.98761
G1 X62.413 Y45.4 E24.01885
G1 X63.241 Y45.039 E24.04889
G1 X64.164 Y44.731 E24.08126
G1 X65.084 Y44.514 E24.1127
G1 X66.292 Y44.357 E24.15321
G1 X68.877 Y44.17 E24.23941
G1 X71.395 Y43.918 E24.32358
G1 X73.926 Y43.591 E24.40846
G1 X76.411 Y43.199 E24.49214
G1 X78.871 Y42.739 E24.57537
G1 X81.395 Y42.193 E24.66127
G1 X83.77 Y41.608 E24.74262
G1 X86.274 Y40.916 E24.82902
G1 X88.68 Y40.177 E24.91274
G1 X91.074 Y39.366 E24.99681
G1 X93.436 Y38.492 E25.08057
G1 X95.764 Y37.553 E25.16406
G1 X98.106 Y36.533 E25.24903
G1 X100.394 Y35.458 E25.33311
G1 X102.672 Y34.306 E25.41801
G1 X104.886 Y33.109 E25.50172
G1 X107.038 Y31.865 E25.5844
G1 X109.212 Y30.524 E25.66935
G1 X111.335 Y29.131 E25.75381
G1 X113.402 Y27.687 E25.83767
G1 X115.434 Y26.183 E25.92175
G1 X117.408 Y24.632 E26.00525
G1 X119.368 Y23.002 E26.09004
G1 X121.284 Y21.313 E26.17499
G1 X123.112 Y19.61 E26.25809
G1 X124.718 Y18.03 E26.33302
G1 X125.249 Y17.544 E26.35696
G1 X126.08 Y16.833 E26.39334
G1 X128.061 Y15.085 E26.48121
G1 X129.981 Y13.297 E26.56847
G1 X130.696 Y12.69 E26.59966
G1 X131.462 Y12.147 E26.63089
G1 X132.242 Y11.692 E26.66093
G1 X133.123 Y11.277 E26.69332
G1 X133.971 Y10.966 E26.72336
G1 X134.911 Y10.714 E26.75573
G1 X135.838 Y10.552 E26.78703
G1 X136.871 Y10.47 E26.82149
G1 X137.51 Y10.455 E26.84275
G1 X141.587 Y10.455 E26.97835
G1 X142.448 Y10.467 E27.00699
G1 X143.31 Y10.515 E27.03571
G1 X146.389 Y10.784 E27.13851
G1 X148.927 Y10.927 E27.22305
G1 X151.461 Y10.999 E27.30737
G1 X153.971 Y10.999 E27.39085
G1 X156.505 Y10.927 E27.47517
G1 X159.022 Y10.785 E27.55902
G1 X162.176 Y10.512 E27.66431
G1 X162.883 Y10.468 E27.68787
G1 X163.499 Y10.455 E27.70836
G1 X167.654 Y10.456 E27.84656
G1 X168.374 Y10.467 E27.87051
G1 X169.311 Y10.523 E27.90173
G1 X170.204 Y10.655 E27.93175
G1 X171.152 Y10.883 E27.96418
G1 X172.008 Y11.171 E27.99422
G1 X172.895 Y11.559 E28.02642
G1 X173.498 Y11.881 E28.04916
G1 X174.277 Y12.33 E28.07907
G1 X175.313 Y12.948 E28.11919
G1 X177.499 Y14.169 E28.20247
G1 X179.764 Y15.351 E28.28744
G1 X182.03 Y16.453 E28.37125
G1 X184.316 Y17.487 E28.4547
G1 X186.669 Y18.472 E28.53954
G1 X189.051 Y19.39 E28.62445
G1 X191.38 Y20.212 E28.70659
G1 X193.827 Y20.998 E28.79208
G1 X196.309 Y21.721 E28.87806
G1 X197.274 Y21.983 E28.91132
G1 X198.171 Y22.272 E28.94266
G1 X199.217 Y22.725 E28.98057
G1 X201.485 Y23.858 E29.0649
G1 X203.787 Y24.93 E29.14936
G1 X206.148 Y25.948 E29.23487
G1 X208.467 Y26.873 E29.31791
G1 X210.868 Y27.752 E29.40295
G1 X213.229 Y28.542 E29.48576
G1 X215.638 Y29.272 E29.56948
G1 X219.221 Y30.227 E29.69281
G1 X219.581 Y30.316 E29.70515
G1 X220.448 Y30.569 E29.73519
G1 X221.355 Y30.925 E29.76759
G1 X222.196 Y31.344 E29.79884
G1 X222.965 Y31.817 E29.82887
G1 X223.746 Y32.397 E29.86123
G1 X224.447 Y33.023 E29.89249
G1 X225.065 Y33.681 E29.92251
G1 X225.666 Y34.447 E29.95489
G1 X226.177 Y35.234 E29.9861
G1 X226.601 Y36.031 E30.01613
G1 X226.981 Y36.928 E30.04853
G1 X227.258 Y37.787 E30.07855
G1 X227.467 Y38.702 E30.10977
G1 X227.597 Y39.662 E30.14199
G1 X227.636 Y40.312 E30.16365
G1 X227.649 Y40.928 E30.18414
G1 X227.648 Y75.47 E31.33301
G1 X227.638 Y76.175 E31.35646
G1 X227.581 Y77.128 E31.38821
G1 X227.449 Y78.022 E31.41827
G1 X227.231 Y78.935 E31.44949
G1 X226.758 Y80.255 E31.49613
G1 X226.363 Y81.161 E31.529
G1 X225.922 Y82.139 E31.56468
G1 X224.951 Y84.464 E31.64849
G1 X224.038 Y86.84 E31.73315
G1 X223.207 Y89.201 E31.8164
G1 X222.432 Y91.619 E31.90085
G1 X221.728 Y94.044 E31.98483
G1 X221.09 Y96.502 E32.0693
G1 X220.525 Y98.963 E32.15328
G1 X220.03 Y101.437 E32.2372
G1 X219.603 Y103.94 E32.32165
G1 X219.249 Y106.443 E32.40573
G1 X218.969 Y108.918 E32.48857
G1 X218.753 Y111.471 E32.57379
G1 X218.613 Y113.976 E32.65723
G1 X218.542 Y116.515 E32.74172
G1 X218.544 Y119.038 E32.82563
G1 X218.617 Y121.587 E32.91045
G1 X218.76 Y124.073 E32.99327
G1 X218.977 Y126.624 E33.07842
G1 X219.264 Y129.126 E33.16218
G1 X219.616 Y131.596 E33.24516
G1 X220.048 Y134.11 E33.33001
G1 X220.546 Y136.59 E33.41414
G1 X221.115 Y139.057 E33.49835
G1 X221.747 Y141.478 E33.58157
G1 X222.452 Y143.899 E33.66543
G1 X223.245 Y146.361 E33.75146
G1 X224.077 Y148.718 E33.8346
G1 X224.983 Y151.065 E33.91827
G1 X225.972 Y153.426 E34.00341
G1 X226.466 Y154.545 E34.0441
G1 X226.794 Y155.387 E34.07415
G1 X227.058 Y156.287 E34.10535
G1 X227.247 Y157.248 E34.13792
G1 X227.357 Y158.436 E34.1776
G1 X227.376 Y159.147 E34.20126
G1 X227.375 Y193.669 E35.34947
G1 X227.363 Y194.416 E35.37431
G1 X227.306 Y195.352 E35.4055
G1 X227.173 Y196.246 E35.43557
G1 X226.945 Y197.193 E35.46796
G1 X226.656 Y198.048 E35.49798
G1 X226.265 Y198.94 E35.53037
G1 X225.83 Y199.732 E35.56043
G1 X225.308 Y200.512 E35.59164
G1 X224.697 Y201.27 E35.62403
G1 X224.07 Y201.919 E35.65404
G1 X223.361 Y202.535 E35.68528
G1 X222.572 Y203.106 E35.71767
G1 X221.796 Y203.568 E35.74771
