;FLAVOR:Marlin
;TIME:1982
;Filament used: 1.76363m
;Layer height: 0.32
;MINX:114.068
;MINY:77.32
;MINZ:0.2
;MAXX:185.931
;MAXY:222.68
;MAXZ:2.12
;Generated with Cura_SteamEngine 5.4.0
M140 S60
M105
M190 S60
M104 S200
M105
M109 S200
M82 ;absolute extrusion mode
; Ender 3 Max Custom Start G-code
G92 E0 ; Reset Extruder
G28 ; Home all axes
G1 Z2.0 F3000 ; Move Z Axis up little to prevent scratching of Heat Bed
G1 X0.1 Y20 Z0.3 F5000.0 ; Move to start position
G1 X0.1 Y200.0 Z0.3 F1500.0 E15 ; Draw the first line
G1 X0.4 Y200.0 Z0.3 F5000.0 ; Move to side a little
G1 X0.4 Y20 Z0.3 F1500.0 E30 ; Draw the second line
G92 E0 ; Reset Extruder
G1 Z2.0 F3000 ; Move Z Axis up little to prevent scratching of Heat Bed
G1 X5 Y20 Z0.3 F5000.0 ; Move over to prevent blob squish
G92 E0
G92 E0
G1 F1500 E-6.5
;LAYER_COUNT:7
;LAYER:0
M107
G0 F6000 X131.689 Y82.537 Z0.2
;TYPE:SKIRT
G1 F1500 E0
G1 F1200 X132.238 Y81.732 E0.03241
G1 X132.809 Y81.032 E0.06245
G1 X133.539 Y80.284 E0.09722
G1 X134.279 Y79.654 E0.12954
G1 X135.074 Y79.088 E0.162
G1 X135.915 Y78.597 E0.19439
G1 X136.763 Y78.196 E0.22559
G1 X137.71 Y77.847 E0.25916
G1 X138.65 Y77.593 E0.29154
G1 X139.614 Y77.423 E0.3241
G1 X140.705 Y77.335 E0.3605
G1 X141.344 Y77.32 E0.38176
G1 X146.971 Y77.32 E0.56892
G1 X148.327 Y77.338 E0.61402
G1 X150.928 Y77.338 E0.70053
G1 X151.594 Y77.324 E0.72269
G1 X157.666 Y77.32 E0.92464
G1 X158.551 Y77.333 E0.95408
G1 X159.522 Y77.392 E0.98644
G1 X160.486 Y77.538 E1.01887
G1 X161.433 Y77.769 E1.05129
G1 X162.289 Y78.057 E1.08133
G1 X163.245 Y78.476 E1.11604
G1 X164.098 Y78.947 E1.14845
G1 X164.905 Y79.492 E1.18084
G1 X165.66 Y80.105 E1.21319
G1 X166.361 Y80.783 E1.24562
G1 X166.997 Y81.521 E1.27803
G1 X167.548 Y82.287 E1.30941
G1 X168.178 Y83.375 E1.35123
G1 X169.4 Y85.796 E1.44142
G1 X170.604 Y88.021 E1.52557
G1 X171.884 Y90.232 E1.61054
G1 X173.176 Y92.332 E1.69255
G1 X174.577 Y94.466 E1.77745
G1 X175.992 Y96.492 E1.85965
G1 X177.508 Y98.541 E1.94442
G1 X179.061 Y100.521 E2.02812
G1 X180.66 Y102.445 E2.11132
G1 X182.418 Y104.439 E2.19974
G1 X183.097 Y105.187 E2.23334
G1 X183.718 Y105.938 E2.26575
G1 X184.269 Y106.74 E2.29812
G1 X184.747 Y107.589 E2.33052
G1 X185.148 Y108.477 E2.36293
G1 X185.47 Y109.396 E2.39532
G1 X185.708 Y110.34 E2.4277
G1 X185.862 Y111.301 E2.46007
G1 X185.931 Y112.283 E2.49281
G1 X185.898 Y113.469 E2.53227
G1 X185.833 Y114.221 E2.55738
G1 X177.787 Y192.967 E5.19011
G1 X177.683 Y193.872 E5.22041
G1 X177.524 Y194.84 E5.25304
G1 X177.234 Y195.935 E5.29072
G1 X176.954 Y196.795 E5.3208
G1 X176.198 Y199.241 E5.40595
G1 X175.517 Y201.683 E5.49027
G1 X174.92 Y204.091 E5.57278
G1 X174.368 Y206.617 E5.65878
G1 X173.911 Y209.036 E5.74066
G1 X173.506 Y211.571 E5.82605
G1 X173.283 Y213.196 E5.8806
G1 X173.106 Y214.154 E5.913
G1 X172.856 Y215.058 E5.9442
G1 X172.5 Y216.003 E5.97778
G1 X172.077 Y216.88 E6.01017
G1 X171.579 Y217.716 E6.04253
G1 X171.009 Y218.506 E6.07494
G1 X170.395 Y219.216 E6.10616
G1 X169.669 Y219.918 E6.13974
G1 X168.911 Y220.529 E6.17213
G1 X168.102 Y221.07 E6.2045
G1 X167.248 Y221.539 E6.2369
G1 X166.356 Y221.931 E6.26931
G1 X165.433 Y222.242 E6.3017
G1 X164.487 Y222.47 E6.33407
G1 X163.594 Y222.605 E6.36411
G1 X162.693 Y222.667 E6.39415
G1 X162.069 Y222.68 E6.4149
G1 X137.548 Y222.679 E7.23048
G1 X136.831 Y222.668 E7.25433
G1 X135.843 Y222.608 E7.28725
G1 X134.879 Y222.462 E7.31968
G1 X133.932 Y222.231 E7.3521
G1 X133.076 Y221.943 E7.38214
G1 X132.12 Y221.524 E7.41685
G1 X131.267 Y221.053 E7.44926
G1 X130.46 Y220.508 E7.48165
G1 X129.703 Y219.894 E7.51407
G1 X129.005 Y219.216 E7.54643
G1 X128.369 Y218.479 E7.57881
G1 X127.8 Y217.689 E7.61119
G1 X127.337 Y216.913 E7.64125
G1 X126.885 Y215.972 E7.67597
G1 X126.544 Y215.06 E7.70835
G1 X126.287 Y214.133 E7.74035
G1 X126.167 Y213.536 E7.7606
G1 X126.016 Y212.654 E7.79036
G1 X125.843 Y211.553 E7.82743
G1 X125.372 Y209.025 E7.91296
G1 X124.855 Y206.63 E7.99445
G1 X124.256 Y204.198 E8.07776
G1 X123.574 Y201.719 E8.16328
G1 X122.849 Y199.359 E8.24539
G1 X121.753 Y196.129 E8.35884
G1 X121.481 Y195.195 E8.39119
G1 X121.293 Y194.255 E8.42307
G1 X121.223 Y193.711 E8.44132
G1 X121.124 Y192.733 E8.47401
G1 X114.148 Y113.53 E11.11851
G1 X114.092 Y112.761 E11.14416
G1 X114.068 Y111.788 E11.17653
G1 X114.128 Y110.815 E11.20895
G1 X114.275 Y109.852 E11.24135
G1 X114.507 Y108.907 E11.27372
G1 X114.821 Y107.985 E11.30611
G1 X115.216 Y107.094 E11.33853
G1 X115.687 Y106.243 E11.37088
G1 X116.23 Y105.439 E11.40315
G1 X116.773 Y104.761 E11.43204
G1 X117.419 Y104.02 E11.46474
G1 X118.069 Y103.296 E11.4971
G1 X119.721 Y101.347 E11.58208
G1 X121.276 Y99.407 E11.66477
G1 X122.779 Y97.412 E11.74785
G1 X124.267 Y95.32 E11.83323
G1 X125.661 Y93.239 E11.91654
G1 X126.994 Y91.123 E11.99972
G1 X128.272 Y88.957 E12.08337
G1 X129.491 Y86.754 E12.16711
G1 X130.712 Y84.389 E12.25563
G1 X131.214 Y83.386 E12.29294
G1 X131.689 Y82.537 E12.3253
G0 F6000 X132.02 Y82.762
G1 F1200 X132.548 Y81.985 E12.35654
G1 X133.119 Y81.285 E12.38659
G1 X133.799 Y80.588 E12.41897
G1 X134.512 Y79.979 E12.45016
G1 X135.276 Y79.433 E12.48139
G1 X136.086 Y78.959 E12.51261
G1 X136.934 Y78.558 E12.54381
G1 X137.815 Y78.233 E12.57504
G1 X138.72 Y77.987 E12.60623
G1 X139.647 Y77.822 E12.63755
G1 X140.714 Y77.735 E12.67316
G1 X141.353 Y77.72 E12.69441
G1 X146.966 Y77.72 E12.8811
G1 X148.322 Y77.738 E12.92621
G1 X150.937 Y77.738 E13.01318
G1 X151.594 Y77.724 E13.03504
G1 X157.66 Y77.72 E13.2368
G1 X158.527 Y77.732 E13.26564
G1 X159.463 Y77.788 E13.29682
G1 X160.392 Y77.927 E13.32807
G1 X161.305 Y78.148 E13.35931
G1 X162.161 Y78.436 E13.38935
G1 X163.052 Y78.826 E13.4217
G1 X163.875 Y79.279 E13.45294
G1 X164.653 Y79.803 E13.48414
G1 X165.382 Y80.393 E13.51533
G1 X166.058 Y81.045 E13.54657
G1 X166.672 Y81.755 E13.57779
G1 X167.223 Y82.521 E13.60918
G1 X167.821 Y83.555 E13.6489
G1 X169.048 Y85.986 E13.73947
G1 X170.252 Y88.211 E13.82362
G1 X171.543 Y90.442 E13.90935
G1 X172.836 Y92.542 E13.99137
G1 X174.249 Y94.695 E14.07703
G1 X175.67 Y96.73 E14.15958
G1 X177.193 Y98.788 E14.24473
G1 X178.753 Y100.777 E14.32881
G1 X180.353 Y102.701 E14.41204
G1 X182.122 Y104.708 E14.50102
G1 X182.789 Y105.442 E14.53401
G1 X183.389 Y106.165 E14.56526
G1 X183.921 Y106.937 E14.59644
G1 X184.383 Y107.754 E14.62766
G1 X184.771 Y108.609 E14.65889
G1 X185.082 Y109.495 E14.69012
G1 X185.313 Y110.404 E14.72131
G1 X185.463 Y111.33 E14.75251
G1 X185.531 Y112.272 E14.78392
G1 X185.499 Y113.435 E14.82262
G1 X185.435 Y114.18 E14.84749
G1 X177.39 Y192.921 E17.48006
G1 X177.288 Y193.808 E17.50976
G1 X177.137 Y194.738 E17.54109
G1 X176.847 Y195.833 E17.57877
G1 X176.574 Y196.671 E17.60808
G1 X175.816 Y199.123 E17.69344
G1 X175.132 Y201.576 E17.77814
G1 X174.529 Y204.006 E17.86142
G1 X173.977 Y206.532 E17.94741
G1 X173.518 Y208.962 E18.02967
G1 X173.111 Y211.508 E18.11542
G1 X172.89 Y213.124 E18.16967
G1 X172.72 Y214.047 E18.20089
G1 X172.47 Y214.951 E18.23208
G1 X172.14 Y215.83 E18.26331
G1 X171.733 Y216.676 E18.29453
G1 X171.254 Y217.482 E18.32572
G1 X170.706 Y218.244 E18.35694
G1 X170.092 Y218.954 E18.38816
G1 X169.417 Y219.607 E18.41939
G1 X168.688 Y220.197 E18.45059
G1 X167.909 Y220.72 E18.48179
G1 X167.087 Y221.173 E18.51301
G1 X166.228 Y221.552 E18.54424
G1 X165.339 Y221.853 E18.57546
G1 X164.427 Y222.074 E18.60667
G1 X163.534 Y222.209 E18.6367
G1 X162.685 Y222.267 E18.66501
G1 X162.069 Y222.28 E18.6855
G1 X137.554 Y222.279 E19.50087
G1 X136.855 Y222.269 E19.52412
G1 X135.902 Y222.212 E19.55588
G1 X134.973 Y222.073 E19.58712
G1 X134.06 Y221.852 E19.61836
G1 X133.204 Y221.564 E19.6484
G1 X132.313 Y221.174 E19.68075
G1 X131.49 Y220.721 E19.712
G1 X130.711 Y220.197 E19.74322
G1 X129.981 Y219.607 E19.77444
G1 X129.307 Y218.954 E19.80566
G1 X128.693 Y218.245 E19.83685
G1 X128.144 Y217.484 E19.86806
G1 X127.681 Y216.708 E19.89812
G1 X127.259 Y215.831 E19.93049
G1 X126.929 Y214.953 E19.96168
G1 X126.679 Y214.054 E19.99272
G1 X126.561 Y213.468 E20.0126
G1 X126.411 Y212.592 E20.04216
G1 X126.238 Y211.491 E20.07923
G1 X125.765 Y208.952 E20.16513
G1 X125.246 Y206.546 E20.24699
G1 X124.642 Y204.092 E20.33105
G1 X123.959 Y201.613 E20.41657
G1 X123.228 Y199.23 E20.49948
G1 X122.137 Y196.017 E20.61234
G1 X121.873 Y195.116 E20.64356
G1 X121.69 Y194.204 E20.6745
G1 X121.621 Y193.67 E20.69241
G1 X121.522 Y192.698 E20.72491
G1 X114.547 Y113.501 E23.3692
G1 X114.492 Y112.75 E23.39425
G1 X114.467 Y111.812 E23.42546
G1 X114.524 Y110.875 E23.45668
G1 X114.664 Y109.947 E23.4879
G1 X114.886 Y109.035 E23.51911
G1 X115.187 Y108.146 E23.55033
G1 X115.566 Y107.287 E23.58156
G1 X116.019 Y106.466 E23.61275
G1 X116.542 Y105.689 E23.6439
G1 X117.074 Y105.024 E23.67222
G1 X117.717 Y104.287 E23.70475
G1 X118.367 Y103.563 E23.73712
G1 X120.026 Y101.606 E23.82245
G1 X121.588 Y99.657 E23.90552
G1 X123.105 Y97.644 E23.98936
G1 X124.593 Y95.552 E24.07474
G1 X125.993 Y93.462 E24.15841
G1 X127.332 Y91.336 E24.24198
G1 X128.622 Y89.151 E24.32637
G1 X129.841 Y86.948 E24.41011
G1 X131.07 Y84.568 E24.4992
G1 X131.563 Y83.581 E24.5359
G1 X132.02 Y82.762 E24.56709
G0 F6000 X132.351 Y82.986
G1 F1200 X132.858 Y82.238 E24.59715
G1 X133.429 Y81.538 E24.62719
G1 X134.059 Y80.892 E24.6572
G1 X134.745 Y80.304 E24.68726
G1 X135.479 Y79.778 E24.71729
G1 X136.258 Y79.32 E24.74735
G1 X137.073 Y78.933 E24.77735
G1 X137.92 Y78.619 E24.8074
G1 X138.791 Y78.381 E24.83743
G1 X139.68 Y78.221 E24.86747
G1 X140.723 Y78.135 E24.90228
G1 X141.362 Y78.12 E24.92354
G1 X146.961 Y78.12 E25.10976
G1 X148.317 Y78.138 E25.15487
G1 X150.946 Y78.138 E25.24231
G1 X151.594 Y78.124 E25.26387
G1 X157.655 Y78.12 E25.46546
G1 X158.504 Y78.131 E25.4937
G1 X159.405 Y78.184 E25.52372
G1 X160.299 Y78.316 E25.55377
G1 X161.177 Y78.527 E25.58381
G1 X162.033 Y78.815 E25.61385
G1 X162.86 Y79.177 E25.64387
G1 X163.652 Y79.611 E25.67391
G1 X164.402 Y80.114 E25.70395
G1 X165.105 Y80.681 E25.73398
G1 X165.756 Y81.307 E25.76402
G1 X166.348 Y81.989 E25.79406
G1 X166.877 Y82.721 E25.8241
G1 X167.464 Y83.735 E25.86307
G1 X168.696 Y86.176 E25.95401
G1 X169.9 Y88.401 E26.03815
G1 X171.202 Y90.652 E26.12465
G1 X172.496 Y92.752 E26.20669
G1 X173.921 Y94.924 E26.29309
G1 X175.348 Y96.968 E26.376
G1 X176.878 Y99.035 E26.46153
G1 X178.438 Y101.024 E26.54561
G1 X180.053 Y102.965 E26.62959
G1 X181.826 Y104.977 E26.71879
G1 X182.482 Y105.698 E26.75121
G1 X183.06 Y106.392 E26.78125
G1 X183.573 Y107.135 E26.81128
G1 X184.019 Y107.92 E26.84131
G1 X184.394 Y108.742 E26.87136
G1 X184.694 Y109.594 E26.9014
G1 X184.918 Y110.469 E26.93144
G1 X185.064 Y111.36 E26.96147
G1 X185.131 Y112.261 E26.99152
G1 X185.1 Y113.401 E27.02945
G1 X185.037 Y114.139 E27.05409
G1 X176.993 Y192.875 E29.68649
G1 X176.893 Y193.745 E29.71561
G1 X176.75 Y194.636 E29.74563
G1 X176.46 Y195.731 E29.7833
G1 X176.194 Y196.547 E29.81185
G1 X175.434 Y199.005 E29.89742
G1 X174.747 Y201.469 E29.9825
G1 X174.138 Y203.921 E30.06653
G1 X173.586 Y206.447 E30.15253
G1 X173.125 Y208.888 E30.23515
G1 X172.716 Y211.445 E30.32128
G1 X172.496 Y213.052 E30.37523
G1 X172.334 Y213.941 E30.40528
G1 X172.095 Y214.811 E30.43529
G1 X171.779 Y215.657 E30.46533
G1 X171.389 Y216.472 E30.49538
G1 X170.929 Y217.249 E30.52541
G1 X170.403 Y217.983 E30.55545
G1 X169.813 Y218.667 E30.58549
G1 X169.165 Y219.296 E30.61553
G1 X168.464 Y219.865 E30.64556
G1 X167.715 Y220.37 E30.6756
G1 X166.925 Y220.807 E30.70563
G1 X166.099 Y221.173 E30.73568
G1 X165.244 Y221.464 E30.76572
G1 X164.367 Y221.678 E30.79574
G1 X163.474 Y221.813 E30.82578
G1 X162.676 Y221.867 E30.85238
G1 X162.069 Y221.88 E30.87258
G1 X137.56 Y221.879 E31.68775
G1 X136.861 Y221.869 E31.711
G1 X135.96 Y221.816 E31.74102
G1 X135.066 Y221.684 E31.77108
G1 X134.188 Y221.473 E31.80111
G1 X133.332 Y221.185 E31.83115
G1 X132.505 Y220.823 E31.86117
G1 X131.713 Y220.389 E31.89121
G1 X130.962 Y219.886 E31.92128
G1 X130.259 Y219.319 E31.95132
G1 X129.609 Y218.692 E31.98135
G1 X129.017 Y218.01 E32.01139
G1 X128.488 Y217.279 E32.0414
G1 X128.025 Y216.503 E32.07146
G1 X127.633 Y215.69 E32.10148
G1 X127.314 Y214.845 E32.13152
G1 X127.071 Y213.975 E32.16156
G1 X126.955 Y213.401 E32.18104
G1 X126.806 Y212.53 E32.21043
G1 X126.633 Y211.429 E32.2475
G1 X126.158 Y208.879 E32.33377
G1 X125.637 Y206.462 E32.41601
G1 X125.028 Y203.986 E32.50081
G1 X124.344 Y201.507 E32.58635
G1 X123.607 Y199.101 E32.67004
G1 X122.521 Y195.904 E32.78234
G1 X122.265 Y195.037 E32.81241
G1 X122.087 Y194.152 E32.84243
G1 X122.019 Y193.629 E32.85997
G1 X121.92 Y192.663 E32.89227
G1 X114.946 Y113.472 E35.53637
G1 X114.892 Y112.738 E35.56085
G1 X114.866 Y111.836 E35.59086
G1 X114.92 Y110.934 E35.62091
G1 X115.053 Y110.041 E35.65094
G1 X115.265 Y109.163 E35.68098
G1 X115.553 Y108.307 E35.71102
G1 X115.916 Y107.48 E35.74106
G1 X116.351 Y106.689 E35.77109
G1 X116.854 Y105.939 E35.80112
G1 X117.376 Y105.287 E35.8289
G1 X118.015 Y104.554 E35.86125
G1 X118.665 Y103.83 E35.89361
G1 X120.331 Y101.865 E35.97929
G1 X121.9 Y99.907 E36.06274
G1 X123.431 Y97.876 E36.14734
G1 X124.919 Y95.784 E36.23272
G1 X126.325 Y93.685 E36.31675
G1 X127.67 Y91.549 E36.40071
G1 X128.972 Y89.345 E36.48585
G1 X130.191 Y87.142 E36.56959
G1 X131.428 Y84.747 E36.65924
G1 X131.913 Y83.775 E36.69537
G1 X132.351 Y82.986 E36.72539
G1 F1500 E30.22539
;MESH:Enderman_Bookmark.STL
G0 F6000 X159.018 Y87.667
G0 X175.661 Y111.985
G0 X167.353 Y193.299
G0 X163.064 Y211.48
G0 X162.199 Y211.48
;TYPE:WALL-OUTER
G1 F1500 E36.72539
G1 F1200 X137.199 Y211.48 E37.55689
G1 X137.197 Y192.034 E38.20367
G1 X137.166 Y191.954 E38.20652
G1 X137.012 Y191.866 E38.21242
G1 X132.333 Y192.354 E38.36889
G1 X125.269 Y112.169 E41.04618
G1 X130.753 Y111.685 E41.22929
G1 X136.483 Y176.745 E43.40157
G1 X136.52 Y176.844 E43.40509
G1 X136.661 Y176.926 E43.41051
G1 X137.038 Y176.91 E43.42306
G1 X137.197 Y176.799 E43.42951
G1 X137.199 Y159.377 E44.00897
G1 X141.07 Y159.374 E44.13772
G1 X141.158 Y159.333 E44.14095
G1 X141.232 Y159.195 E44.14616
G1 X141.232 Y88.52 E46.49682
G1 X147.448 Y88.52 E46.70356
G1 X147.448 Y159.245 E49.05589
G1 X147.573 Y159.377 E49.06193
G1 X151.783 Y159.375 E49.20196
G1 X151.875 Y159.333 E49.20532
G1 X151.949 Y159.195 E49.21053
G1 X151.949 Y88.52 E51.56119
G1 X158.165 Y88.52 E51.76793
G1 X158.165 Y159.195 E54.11859
G1 X158.222 Y159.318 E54.1231
G1 X158.327 Y159.374 E54.12706
G1 X162.199 Y159.377 E54.25584
G1 X162.203 Y177.286 E54.8515
G1 X162.308 Y177.436 E54.85759
G1 X162.733 Y177.457 E54.87174
G1 X162.874 Y177.376 E54.87715
G1 X162.912 Y177.278 E54.88065
G1 X169.603 Y112.101 E57.05984
G1 X174.728 Y112.73 E57.23157
G1 X166.592 Y192.351 E59.89357
G1 X162.384 Y191.867 E60.03445
G1 X162.255 Y191.927 E60.03918
G1 X162.201 Y192.035 E60.0432
G1 X162.199 Y211.48 E60.68994
G1 F1500 E54.18994
G0 F6000 X151.975 Y199.776
G1 F1500 E60.68994
G1 F1200 X152.098 Y199.841 E60.69457
G1 X160.817 Y199.842 E60.98456
G1 X160.938 Y199.803 E60.98879
G1 X161.015 Y199.677 E60.9937
G1 X161.017 Y196.886 E61.08653
G1 X160.938 Y196.725 E61.0925
G1 X160.817 Y196.686 E61.09673
G1 X152.098 Y196.687 E61.38672
G1 X151.955 Y196.779 E61.39238
G1 X151.925 Y196.886 E61.39607
G1 X151.925 Y199.684 E61.48913
G1 X151.975 Y199.776 E61.49262
G1 F1500 E54.99262
G0 F6000 X147.423 Y199.776
G1 F1500 E61.49262
G1 F1200 X147.473 Y199.66 E61.49682
G1 X147.473 Y196.886 E61.58908
G1 X147.443 Y196.779 E61.59278
G1 X147.291 Y196.686 E61.5987
G1 X138.581 Y196.686 E61.8884
G1 X138.46 Y196.726 E61.89264
G1 X138.381 Y196.886 E61.89857
G1 X138.383 Y199.677 E61.9914
G1 X138.46 Y199.802 E61.99629
G1 X138.581 Y199.842 E62.00052
G1 X147.3 Y199.841 E62.29052
G1 X147.423 Y199.776 E62.29515
G1 F1500 E55.79515
G0 F6000 X163.161 Y177.281
G0 X162.529 Y177.775
;TYPE:SKIN
G1 F1500 E62.29515
G1 F1445.8 X162.524 Y177.86 E62.2975
G1 F1500 E55.7975
G0 F6000 X168.941 Y177.871
G0 X167.353 Y193.299
G0 X163.052 Y212.333
G0 X136.346 Y212.333
G0 X131.56 Y193.292
G0 X130.132 Y177.209
G0 X136.864 Y177.253
G1 F1500 E62.2975
G1 F1411.8 X136.874 Y177.466 E62.30353
G1 F1500 E55.80353
G0 F6000 X130.207 Y178.053
G0 X131.56 Y193.292
G0 X136.346 Y212.333
G0 X163.052 Y212.333
G0 X163.064 Y211.12
G0 X161.839 Y211.12
G1 F1500 E62.30353
G1 F1200 X137.559 Y211.12 E63.11108
G1 X137.557 Y200.212 E63.47388
G1 F1145.6 X137.575 Y199.774 E63.48916
