;FLAVOR:Marlin
;TIME:27109
;Filament used: 21.7366m
;Layer height: 0.32
;MINX:14.849
;MINY:61.5
;MINZ:0.2
;MAXX:227.738
;MAXY:173.5
;MAXZ:90.12
;Generated with Cura_SteamEngine 5.3.1
M140 S50
M105
M190 S50
M104 S200
M105
M109 S200
M82 ;absolute extrusion mode
; Ender 3 Custom Start G-code
G92 E0 ; Reset Extruder
G28 ; Home all axes
G1 Z2.0 F3000 ; Move Z Axis up little to prevent scratching of Heat Bed
G1 X0.1 Y20 Z0.3 F5000.0 ; Move to start position
G1 X0.1 Y200.0 Z0.3 F1500.0 E15 ; Draw the first line
G1 X0.4 Y200.0 Z0.3 F5000.0 ; Move to side a little
G1 X0.4 Y20 Z0.3 F1500.0 E30 ; Draw the second line
G92 E0 ; Reset Extruder
G1 Z2.0 F3000 ; Move Z Axis up little to prevent scratching of Heat Bed
G1 X5 Y20 Z0.3 F5000.0 ; Move over to prevent blob squish
G92 E0
G92 E0
G1 F2700 E-5
;LAYER_COUNT:282
;LAYER:0
M107
G0 F6000 X22.676 Y62.818 Z0.2
;TYPE:SKIRT
G1 F2700 E0
G1 F1200 X23.545 Y62.575 E0.03001
G1 X24.433 Y62.409 E0.06006
G1 X25.572 Y62.313 E0.09808
G1 X26.179 Y62.3 E0.11827
G1 X115.289 Y62.301 E3.08208
G1 X116.27 Y62.319 E3.11471
G1 X117.476 Y62.37 E3.15486
G1 X120.087 Y62.444 E3.24174
G1 X122.62 Y62.444 E3.32599
G1 X125.222 Y62.37 E3.41256
G1 X126.094 Y62.327 E3.4416
G1 X127.068 Y62.3 E3.47401
G1 X216.177 Y62.301 E6.43779
G1 X216.875 Y62.311 E6.46101
G1 X217.777 Y62.364 E6.49106
G1 X218.67 Y62.496 E6.52108
G1 X219.548 Y62.707 E6.55112
G1 X220.404 Y62.995 E6.58115
G1 X221.231 Y63.357 E6.61118
G1 X222.023 Y63.792 E6.64123
G1 X222.774 Y64.294 E6.67128
G1 X223.477 Y64.861 E6.70132
G1 X224.127 Y65.488 E6.73136
G1 X224.719 Y66.17 E6.76139
G1 X225.249 Y66.901 E6.79142
G1 X225.711 Y67.677 E6.82146
G1 X226.104 Y68.49 E6.8515
G1 X226.422 Y69.335 E6.88153
G1 X226.665 Y70.205 E6.91157
G1 X226.83 Y71.093 E6.94161
G1 X226.925 Y72.223 E6.97933
G1 X226.938 Y72.83 E6.99952
G1 X226.937 Y161.89 E9.96167
G1 X226.928 Y162.617 E9.98585
G1 X226.877 Y163.519 E10.0159
G1 X226.746 Y164.413 E10.04595
G1 X226.537 Y165.291 E10.07597
G1 X226.251 Y166.148 E10.10602
G1 X225.89 Y166.976 E10.13606
G1 X225.458 Y167.768 E10.16607
G1 X224.957 Y168.52 E10.19612
G1 X224.391 Y169.224 E10.22617
G1 X223.766 Y169.875 E10.25618
G1 X223.085 Y170.469 E10.28624
G1 X222.354 Y171 E10.31629
G1 X221.58 Y171.464 E10.3463
G1 X220.767 Y171.858 E10.37635
G1 X219.923 Y172.178 E10.40637
G1 X219.053 Y172.423 E10.43643
G1 X218.166 Y172.589 E10.46645
G1 X217.015 Y172.687 E10.50487
G1 X216.408 Y172.7 E10.52506
G1 X127.298 Y172.699 E13.48887
G1 X126.318 Y172.681 E13.52147
G1 X125.111 Y172.63 E13.56165
G1 X122.5 Y172.556 E13.64853
G1 X119.967 Y172.556 E13.73278
G1 X117.368 Y172.63 E13.81926
G1 X116.494 Y172.673 E13.84836
G1 X115.519 Y172.7 E13.8808
G1 X26.424 Y172.699 E16.84412
G1 X25.726 Y172.69 E16.86733
G1 X24.825 Y172.639 E16.89735
G1 X23.931 Y172.507 E16.9274
G1 X23.053 Y172.298 E16.95742
G1 X22.196 Y172.011 E16.98748
G1 X21.369 Y171.65 E17.0175
G1 X20.576 Y171.217 E17.04755
G1 X19.825 Y170.716 E17.07757
G1 X19.121 Y170.15 E17.10762
G1 X18.47 Y169.524 E17.13766
G1 X17.877 Y168.843 E17.16769
G1 X17.347 Y168.112 E17.19772
G1 X16.883 Y167.337 E17.22776
G1 X16.489 Y166.524 E17.25781
G1 X16.169 Y165.68 E17.28783
G1 X15.925 Y164.81 E17.31789
G1 X15.759 Y163.922 E17.34793
G1 X15.662 Y162.767 E17.38648
G1 X15.649 Y162.158 E17.40674
G1 X15.65 Y73.036 E20.37095
G1 X15.659 Y72.371 E20.39307
G1 X15.711 Y71.469 E20.42312
G1 X15.843 Y70.576 E20.45315
G1 X16.053 Y69.698 E20.48318
G1 X16.34 Y68.841 E20.51323
G1 X16.702 Y68.014 E20.54326
G1 X17.135 Y67.222 E20.57328
G1 X17.637 Y66.471 E20.60333
G1 X18.204 Y65.767 E20.63339
G1 X18.83 Y65.117 E20.66341
G1 X19.511 Y64.524 E20.69344
G1 X20.243 Y63.994 E20.7235
G1 X21.018 Y63.531 E20.75353
G1 X21.831 Y63.138 E20.78356
G1 X22.676 Y62.818 E20.81361
G0 F6000 X22.534 Y62.444
G1 F1200 X23.471 Y62.182 E20.84597
G1 X24.399 Y62.01 E20.87736
G1 X25.538 Y61.914 E20.91538
G1 X26.179 Y61.9 E20.93671
G1 X115.296 Y61.901 E23.90075
G1 X116.287 Y61.919 E23.93372
G1 X117.493 Y61.97 E23.97386
G1 X120.098 Y62.044 E24.06054
G1 X122.609 Y62.044 E24.14406
G1 X125.202 Y61.97 E24.23034
G1 X126.083 Y61.927 E24.25967
G1 X127.068 Y61.9 E24.29245
G1 X216.183 Y61.901 E27.25642
G1 X216.898 Y61.912 E27.28021
G1 X217.835 Y61.968 E27.31143
G1 X218.728 Y62.1 E27.34145
G1 X219.676 Y62.328 E27.37388
G1 X220.532 Y62.616 E27.40392
G1 X221.424 Y63.006 E27.4363
G1 X222.216 Y63.441 E27.46635
G1 X222.996 Y63.961 E27.49753
G1 X223.755 Y64.573 E27.52996
G1 X224.405 Y65.2 E27.56
G1 X225.043 Y65.935 E27.59237
G1 X225.593 Y66.696 E27.6236
G1 X226.055 Y67.472 E27.65364
G1 X226.478 Y68.349 E27.68602
G1 X226.807 Y69.227 E27.71721
G1 X227.058 Y70.132 E27.74845
G1 X227.229 Y71.059 E27.7798
G1 X227.324 Y72.189 E27.81751
G1 X227.338 Y72.83 E27.83884
G1 X227.337 Y161.895 E30.80115
G1 X227.327 Y162.64 E30.82593
G1 X227.273 Y163.577 E30.85715
G1 X227.142 Y164.471 E30.8872
G1 X226.926 Y165.384 E30.91841
G1 X226.618 Y166.308 E30.9508
G1 X226.257 Y167.136 E30.98084
G1 X225.791 Y167.99 E31.0132
G1 X225.269 Y168.771 E31.04445
G1 X224.703 Y169.475 E31.07449
G1 X224.055 Y170.152 E31.10566
G1 X223.32 Y170.793 E31.1381
G1 X222.589 Y171.324 E31.16815
G1 X221.786 Y171.807 E31.19931
G1 X220.909 Y172.232 E31.23173
G1 X220.065 Y172.552 E31.26175
G1 X219.127 Y172.816 E31.29416
G1 X218.2 Y172.988 E31.32552
G1 X217.049 Y173.086 E31.36394
G1 X216.408 Y173.1 E31.38526
G1 X127.291 Y173.099 E34.34931
G1 X126.301 Y173.081 E34.38224
G1 X125.094 Y173.03 E34.42242
G1 X122.489 Y172.956 E34.5091
G1 X119.978 Y172.956 E34.59262
G1 X117.388 Y173.03 E34.67879
G1 X116.505 Y173.073 E34.7082
G1 X115.53 Y173.1 E34.74064
G1 X26.419 Y173.099 E37.70448
G1 X25.703 Y173.089 E37.7283
G1 X24.767 Y173.035 E37.75948
G1 X23.873 Y172.903 E37.78954
G1 X22.96 Y172.687 E37.82074
G1 X22.036 Y172.378 E37.85315
G1 X21.209 Y172.017 E37.88316
G1 X20.354 Y171.55 E37.91557
G1 X19.574 Y171.028 E37.94678
G1 X18.87 Y170.462 E37.97683
G1 X18.168 Y169.787 E38.00922
G1 X17.575 Y169.106 E38.03925
G1 X17.023 Y168.347 E38.07047
G1 X16.523 Y167.511 E38.10286
G1 X16.115 Y166.666 E38.13407
G1 X15.795 Y165.822 E38.1641
G1 X15.532 Y164.884 E38.1965
G1 X15.36 Y163.955 E38.22792
G1 X15.262 Y162.776 E38.26727
G1 X15.249 Y162.158 E38.28783
G1 X15.25 Y73.031 E41.2522
G1 X15.26 Y72.348 E41.27492
G1 X15.315 Y71.411 E41.30614
G1 X15.447 Y70.518 E41.33617
G1 X15.664 Y69.605 E41.36738
G1 X15.961 Y68.714 E41.39862
G1 X16.351 Y67.822 E41.431
G1 X16.802 Y67 E41.46218
G1 X17.325 Y66.22 E41.49342
G1 X17.892 Y65.516 E41.52348
G1 X18.567 Y64.815 E41.55585
G1 X19.248 Y64.222 E41.58588
G1 X20.008 Y63.67 E41.61712
G1 X20.844 Y63.171 E41.64951
G1 X21.689 Y62.764 E41.6807
G1 X22.534 Y62.444 E41.71075
G0 F6000 X22.392 Y62.07
G1 F1200 X23.398 Y61.789 E41.74549
G1 X24.365 Y61.611 E41.7782
G1 X25.504 Y61.515 E41.81621
G1 X26.179 Y61.5 E41.83867
G1 X115.303 Y61.501 E44.80295
G1 X116.304 Y61.519 E44.83625
G1 X117.51 Y61.57 E44.87639
G1 X120.109 Y61.644 E44.96287
G1 X122.598 Y61.644 E45.04566
G1 X125.182 Y61.57 E45.13164
G1 X126.072 Y61.527 E45.16127
G1 X127.068 Y61.5 E45.19441
G1 X216.189 Y61.501 E48.15859
G1 X216.922 Y61.513 E48.18297
G1 X217.893 Y61.572 E48.21533
G1 X218.822 Y61.711 E48.24657
G1 X219.77 Y61.939 E48.279
G1 X220.692 Y62.249 E48.31135
G1 X221.617 Y62.655 E48.34495
G1 X222.409 Y63.09 E48.375
G1 X223.218 Y63.628 E48.40732
G1 X224.033 Y64.285 E48.44213
G1 X224.683 Y64.912 E48.47217
G1 X225.345 Y65.673 E48.50572
G1 X225.937 Y66.491 E48.5393
G1 X226.399 Y67.267 E48.56934
G1 X226.853 Y68.209 E48.60412
G1 X227.182 Y69.087 E48.63531
G1 X227.451 Y70.059 E48.66885
G1 X227.628 Y71.025 E48.70152
G1 X227.723 Y72.155 E48.73923
G1 X227.738 Y72.83 E48.76169
G1 X227.737 Y161.9 E51.72417
G1 X227.726 Y162.663 E51.74955
G1 X227.669 Y163.635 E51.78193
G1 X227.538 Y164.529 E51.81199
G1 X227.315 Y165.476 E51.84434
G1 X226.985 Y166.468 E51.87912
G1 X226.624 Y167.296 E51.90916
G1 X226.124 Y168.212 E51.94387
G1 X225.581 Y169.022 E51.9763
G1 X225.015 Y169.726 E52.00635
G1 X224.344 Y170.429 E52.03867
G1 X223.555 Y171.117 E52.07349
G1 X222.824 Y171.648 E52.10354
G1 X221.992 Y172.15 E52.13586
G1 X221.051 Y172.606 E52.17064
G1 X220.207 Y172.926 E52.20066
G1 X219.235 Y173.201 E52.23426
G1 X218.234 Y173.387 E52.26812
G1 X217.083 Y173.485 E52.30654
G1 X216.417 Y173.5 E52.3287
G1 X127.284 Y173.499 E55.29327
G1 X126.284 Y173.481 E55.32654
G1 X125.077 Y173.43 E55.36672
G1 X122.478 Y173.356 E55.4532
G1 X119.989 Y173.356 E55.53598
G1 X117.407 Y173.43 E55.6219
G1 X116.516 Y173.473 E55.65156
G1 X115.53 Y173.5 E55.68437
G1 X26.413 Y173.499 E58.64841
G1 X25.68 Y173.488 E58.6728
G1 X24.709 Y173.431 E58.70515
G1 X23.815 Y173.299 E58.73521
G1 X22.833 Y173.066 E58.76877
G1 X21.876 Y172.745 E58.80235
G1 X21.049 Y172.384 E58.83236
G1 X20.162 Y171.901 E58.86595
G1 X19.323 Y171.34 E58.89952
G1 X18.619 Y170.774 E58.92956
G1 X17.866 Y170.05 E58.96431
G1 X17.273 Y169.369 E58.99434
G1 X16.68 Y168.552 E59.02792
G1 X16.163 Y167.685 E59.06149
G1 X15.741 Y166.808 E59.09386
G1 X15.421 Y165.964 E59.12388
G1 X15.147 Y164.992 E59.15747
G1 X14.961 Y163.988 E59.19143
G1 X14.863 Y162.809 E59.23078
G1 X14.849 Y162.158 E59.25244
G1 X14.85 Y73.025 E62.21702
G1 X14.861 Y72.325 E62.2403
G1 X14.919 Y71.353 E62.27269
G1 X15.051 Y70.46 E62.30271
G1 X15.275 Y69.513 E62.33508
G1 X15.594 Y68.554 E62.36869
G1 X15.984 Y67.662 E62.40107
G1 X16.451 Y66.808 E62.43345
G1 X17.013 Y65.969 E62.46703
G1 X17.58 Y65.265 E62.4971
G1 X18.304 Y64.513 E62.53182
G1 X18.985 Y63.92 E62.56185
G1 X19.773 Y63.346 E62.59428
G1 X20.67 Y62.811 E62.62902
G1 X21.547 Y62.39 E62.66137
G1 X22.392 Y62.07 E62.69142
G1 F2700 E57.69142
;MESH:box_only.stl
G0 F6000 X53.673 Y151.747
;TYPE:WALL-OUTER
G1 F2700 E62.69142
G1 F1200 X53.672 Y146.195 E62.87608
G1 X53.579 Y146.051 E62.88179
G1 X53.508 Y146.024 E62.88431
G1 X47.973 Y146.022 E63.06841
G1 X47.859 Y146.11 E63.0732
G1 X47.828 Y146.187 E63.07596
G1 X47.826 Y151.718 E63.25992
G1 X47.881 Y151.807 E63.2634
G1 X47.991 Y151.867 E63.26757
G1 X53.508 Y151.867 E63.45106
G1 X53.673 Y151.747 E63.45785
G1 F2700 E58.45785
G0 F6000 X98.971 Y100.994
G1 F2700 E63.45785
G1 F1200 X99.02 Y100.886 E63.46179
G1 X99.021 Y95.286 E63.64805
G1 X104.666 Y95.286 E63.8358
G1 X104.789 Y95.154 E63.8418
G1 X104.789 Y89.288 E64.03691
G1 X104.745 Y89.194 E64.04036
G1 X104.626 Y89.125 E64.04494
G1 X87.417 Y89.123 E64.61731
G1 X87.416 Y83.741 E64.79632
G1 X87.376 Y83.645 E64.79977
G1 X87.252 Y83.57 E64.80459
G1 X76.064 Y83.57 E65.17671
G1 X75.991 Y83.599 E65.17932
G1 X75.9 Y83.741 E65.18493
G1 X75.899 Y89.123 E65.36394
G1 X70.675 Y89.123 E65.53769
G1 X70.547 Y89.188 E65.54246
G1 X70.495 Y89.304 E65.54669
G1 X70.495 Y95.102 E65.73953
G1 X70.535 Y95.208 E65.7433
G1 X70.666 Y95.285 E65.74836
G1 X87.017 Y95.286 E66.29219
G1 X87.019 Y100.943 E66.48034
G1 X87.175 Y101.06 E66.48683
G1 X98.834 Y101.06 E66.87461
G1 X98.971 Y100.994 E66.87967
G1 F2700 E61.87967
G0 F6000 X82.405 Y117.72
G1 F2700 E66.87967
G1 F1200 X82.433 Y117.651 E66.88214
G1 X82.436 Y112.491 E67.05377
G1 X87.479 Y112.489 E67.2215
G1 X87.56 Y112.455 E67.22442
G1 X87.642 Y112.324 E67.22956
G1 X87.642 Y106.365 E67.42776
G1 X87.486 Y106.248 E67.43424
G1 X65.047 Y106.248 E68.18057
G1 X64.949 Y106.285 E68.18405
G1 X64.868 Y106.413 E68.18909
G1 X64.866 Y112.308 E68.38516
G1 X64.931 Y112.44 E68.39005
G1 X65.027 Y112.488 E68.39362
G1 X70.2 Y112.491 E68.56568
G1 X70.241 Y117.672 E68.738
G1 X70.34 Y117.786 E68.74302
G1 X70.441 Y117.812 E68.74649
G1 X82.271 Y117.81 E69.13996
G1 X82.405 Y117.72 E69.14533
G1 F2700 E64.14533
G0 F6000 X115.649 Y162.3
G1 F2700 E69.14533
G1 F1200 X26.05 Y162.3 E72.1254
G1 X26.05 Y72.701 E75.10548
G1 X115.649 Y72.7 E78.08555
G1 X115.649 Y162.3 E81.06566
G1 F2700 E76.06566
G0 F6000 X104.811 Y151.744
G1 F2700 E81.06566
G1 F1200 X104.863 Y151.642 E81.06947
G1 X104.864 Y146.226 E81.24961
G1 X104.803 Y146.11 E81.25397
G1 X104.714 Y146.055 E81.25745
G1 X93.342 Y146.057 E81.63568
G1 X93.237 Y146.111 E81.63961
G1 X93.177 Y146.235 E81.64419
G1 X93.177 Y151.619 E81.82326
G1 X93.212 Y151.722 E81.82688
G1 X93.342 Y151.805 E81.83201
G1 X104.7 Y151.805 E82.20978
G1 X104.811 Y151.744 E82.21399
G1 F2700 E77.21399
G0 F6000 X93.519 Y135.022
G1 F2700 E82.21399
G1 F1200 X93.559 Y134.917 E82.21773
G1 X93.559 Y123.404 E82.60065
G1 X93.481 Y123.259 E82.60613
G1 X93.376 Y123.219 E82.60986
G1 X81.843 Y123.221 E82.99345
G1 X81.707 Y123.314 E82.99893
G1 X81.68 Y123.385 E83.00146
G1 X81.683 Y134.948 E83.38605
G1 X81.759 Y135.062 E83.3906
G1 X81.864 Y135.1 E83.39432
G1 X93.388 Y135.099 E83.77761
G1 X93.519 Y135.022 E83.78266
G1 F2700 E78.78266
G0 F6000 X76.272 Y146.467
G1 F2700 E83.78266
G1 F1200 X76.344 Y146.33 E83.78781
G1 X76.345 Y140.234 E83.99056
G1 X76.263 Y140.106 E83.99562
G1 X76.158 Y140.068 E83.99933
G1 X64.896 Y140.07 E84.37391
G1 X64.806 Y140.111 E84.3772
G1 X64.734 Y140.232 E84.38188
G1 X64.732 Y146.394 E84.58683
G1 X64.896 Y146.51 E84.59351
G1 X76.179 Y146.51 E84.96879
G1 X76.272 Y146.467 E84.97219
G1 F2700 E79.97219
G0 F6000 X64.976 Y135.087
G1 F2700 E84.97219
G1 F1200 X65.01 Y135.005 E84.97515
G1 X65.013 Y129.066 E85.17268
G1 X70.499 Y129.064 E85.35514
G1 X70.622 Y128.99 E85.35992
G1 X70.662 Y128.901 E85.36316
G1 X70.664 Y123.622 E85.53874
G1 X70.604 Y123.489 E85.5436
G1 X70.506 Y123.433 E85.54735
G1 X41.908 Y123.435 E86.49852
G1 X41.783 Y123.512 E86.50341
G1 X41.744 Y123.588 E86.50625
G1 X41.743 Y128.886 E86.68246
G1 X41.809 Y129.016 E86.68731
G1 X41.916 Y129.065 E86.69122
G1 X52.993 Y129.066 E87.05965
G1 X52.994 Y134.994 E87.25681
G1 X53.041 Y135.1 E87.26067
G1 X53.158 Y135.167 E87.26515
G1 X64.867 Y135.17 E87.6546
G1 X64.976 Y135.087 E87.65915
G1 F2700 E82.65915
G0 F6000 X30.862 Y117.576
G1 F2700 E87.65915
G1 F1200 X41.984 Y117.577 E88.02907
G1 X42.109 Y117.5 E88.03395
G1 X42.148 Y117.424 E88.0368
G1 X42.148 Y112.166 E88.21168
G1 X42.118 Y112.079 E88.21474
G1 X41.992 Y111.988 E88.21991
G1 X30.862 Y111.991 E88.59009
G1 X30.778 Y112.027 E88.59313
G1 X30.699 Y112.137 E88.59764
G1 X30.701 Y117.414 E88.77315
G1 X30.778 Y117.54 E88.77806
G1 X30.862 Y117.576 E88.7811
G1 F2700 E83.7811
G0 F6000 X47.807 Y106.581
G1 F2700 E88.7811
G1 F1200 X47.933 Y106.672 E88.78627
G1 X53.813 Y106.672 E88.98184
G1 X53.949 Y106.602 E88.98693
G1 X53.994 Y106.507 E88.99042
G1 X53.994 Y100.617 E89.18633
G1 X53.946 Y100.517 E89.19002
G1 X53.822 Y100.452 E89.19467
G1 X47.945 Y100.453 E89.39014
G1 X47.864 Y100.484 E89.39303
G1 X47.778 Y100.618 E89.39832
G1 X47.777 Y106.494 E89.59376
G1 X47.807 Y106.581 E89.59682
G1 F2700 E84.59682
G0 F6000 X53.418 Y89.553
G1 F2700 E89.59682
G1 F1200 X53.495 Y89.412 E89.60216
G1 X53.496 Y83.736 E89.79095
G1 X53.425 Y83.64 E89.79492
G1 X53.33 Y83.595 E89.79842
G1 X41.972 Y83.594 E90.17618
G1 X41.876 Y83.635 E90.17966
G1 X41.8 Y83.774 E90.18493
G1 X41.802 Y89.429 E90.37301
G1 X41.869 Y89.546 E90.3775
G1 X41.983 Y89.594 E90.38161
G1 X53.313 Y89.594 E90.75845
G1 X53.418 Y89.553 E90.7622
G1 F2700 E85.7622
G0 F6000 X53.955 Y151.956
;TYPE:SKIN
G1 F2700 E90.7622
G1 F1200 X54.032 Y151.719 E90.77048
G1 X54.027 Y146.133 E90.95628
G1 X53.912 Y145.866 E90.96594
G1 X53.593 Y145.669 E90.97841
G1 X47.928 Y145.667 E91.16683
G1 X47.674 Y145.785 E91.17615
G1 X47.543 Y145.942 E91.18295
G1 X47.466 Y146.185 E91.19143
G1 X47.47 Y151.738 E91.37612
G1 X47.536 Y151.938 E91.38313
G1 X47.723 Y152.139 E91.39226
G1 X47.918 Y152.227 E91.39937
G1 X53.571 Y152.222 E91.58739
G1 X53.771 Y152.144 E91.59453
G1 X53.955 Y151.956 E91.60328
G1 F2700 E86.60328
G0 F6000 X99.28 Y101.187
G1 F2700 E91.60328
G1 F1200 X99.38 Y100.904 E91.61326
G1 X99.381 Y95.646 E91.78815
G1 X104.679 Y95.645 E91.96436
G1 X104.935 Y95.527 E91.97373
G1 X105.144 Y95.275 E91.98462
G1 X105.147 Y89.219 E92.18605
G1 X105.022 Y88.952 E92.19585
G1 X104.708 Y88.77 E92.20792
G1 X87.777 Y88.763 E92.77105
G1 X87.775 Y83.689 E92.93981
G1 X87.703 Y83.489 E92.94688
G1 X87.552 Y83.318 E92.95447
G1 X87.313 Y83.215 E92.96313
G1 X76.004 Y83.215 E93.33927
G1 X75.75 Y83.33 E93.34854
G1 X75.603 Y83.51 E93.35627
G1 X75.539 Y83.724 E93.3637
G1 X75.539 Y88.763 E93.5313
G1 X70.623 Y88.767 E93.6948
G1 X70.423 Y88.832 E93.7018
G1 X70.235 Y89.007 E93.71034
G1 X70.136 Y89.273 E93.71978
G1 X70.136 Y95.124 E93.91438
G1 X70.174 Y95.291 E93.92008
G1 X70.338 Y95.526 E93.92961
