;FLAVOR:Marlin
;TIME:18231
;Filament used: 15.0543m
;Layer height: 0.32
;MINX:0.507
;MINY:24.196
;MINZ:0.2
;MAXX:232.043
;MAXY:205.084
;MAXZ:41.16
;Generated with Cura_SteamEngine 5.3.1
M140 S50
M105
M190 S50
M104 S200
M105
M109 S200
M82 ;absolute extrusion mode
; Ender 3 Custom Start G-code
G92 E0 ; Reset Extruder
G28 ; Home all axes
G1 Z2.0 F3000 ; Move Z Axis up little to prevent scratching of Heat Bed
G1 X0.1 Y20 Z0.3 F5000.0 ; Move to start position
G1 X0.1 Y200.0 Z0.3 F1500.0 E15 ; Draw the first line
G1 X0.4 Y200.0 Z0.3 F5000.0 ; Move to side a little
G1 X0.4 Y20 Z0.3 F1500.0 E30 ; Draw the second line
G92 E0 ; Reset Extruder
G1 Z2.0 F3000 ; Move Z Axis up little to prevent scratching of Heat Bed
G1 X5 Y20 Z0.3 F5000.0 ; Move over to prevent blob squish
G92 E0
G92 E0
G1 F2700 E-5
;LAYER_COUNT:129
;LAYER:0
M107
G0 F6000 X8.344 Y30.84 Z0.2
;TYPE:SKIRT
G1 F2700 E0
G1 F1200 X9.214 Y30.597 E0.03004
G1 X10.059 Y30.439 E0.05864
G1 X11.292 Y30.261 E0.10007
G1 X13.876 Y29.853 E0.18708
G1 X16.506 Y29.363 E0.27606
G1 X17.401 Y29.237 E0.30612
G1 X18.087 Y29.194 E0.32898
G1 X18.694 Y29.181 E0.34918
G1 X45.242 Y29.182 E1.23217
G1 X45.96 Y29.193 E1.25605
G1 X47.101 Y29.275 E1.2941
G1 X47.723 Y29.356 E1.31496
G1 X49.394 Y29.595 E1.3711
G1 X51.903 Y29.881 E1.45509
G1 X54.451 Y30.097 E1.54014
G1 X56.959 Y30.241 E1.6237
G1 X59.549 Y30.315 E1.70988
G1 X60.883 Y30.324 E1.75425
G1 X86.374 Y30.325 E2.60208
G1 X87.075 Y30.335 E2.6254
G1 X87.977 Y30.388 E2.65545
G1 X88.87 Y30.52 E2.68547
G1 X89.89 Y30.773 E2.72043
G1 X92.916 Y31.66 E2.82531
G1 X95.387 Y32.303 E2.91023
G1 X97.826 Y32.865 E2.99348
G1 X100.365 Y33.375 E3.07961
G1 X102.861 Y33.804 E3.16385
G1 X105.343 Y34.157 E3.24723
G1 X107.907 Y34.449 E3.33306
G1 X110.425 Y34.664 E3.41711
G1 X112.931 Y34.807 E3.5006
G1 X115.495 Y34.88 E3.58591
G1 X118.029 Y34.88 E3.67019
G1 X120.564 Y34.809 E3.75454
G1 X123.091 Y34.667 E3.83872
G1 X125.65 Y34.45 E3.92414
G1 X128.179 Y34.163 E4.00879
G1 X130.652 Y33.811 E4.09188
G1 X133.178 Y33.379 E4.17711
G1 X135.686 Y32.876 E4.26219
G1 X137.007 Y32.578 E4.30723
G1 X137.382 Y32.501 E4.31996
G1 X138.274 Y32.359 E4.35
G1 X139.51 Y32.293 E4.39117
G1 X142.433 Y32.315 E4.48839
G1 X143.127 Y32.301 E4.51148
G1 X144.379 Y32.293 E4.55312
G1 X147.311 Y32.315 E4.65064
G1 X147.997 Y32.301 E4.67347
G1 X149.175 Y32.293 E4.71265
G1 X152.151 Y32.316 E4.81163
G1 X152.846 Y32.301 E4.83475
G1 X153.91 Y32.294 E4.87014
G1 X154.812 Y32.328 E4.90016
G1 X155.708 Y32.442 E4.93021
G1 X156.591 Y32.635 E4.96027
G1 X157.438 Y32.899 E4.98978
G1 X159.932 Y33.799 E5.07796
G1 X162.366 Y34.598 E5.16317
G1 X163.437 Y34.917 E5.20034
G1 X164.31 Y35.191 E5.23077
G1 X165.159 Y35.5 E5.26082
G1 X166.18 Y35.993 E5.29853
G1 X167.566 Y36.76 E5.35122
G1 X169.85 Y37.971 E5.4372
G1 X172.136 Y39.102 E5.52203
G1 X174.513 Y40.194 E5.60903
G1 X175.057 Y40.434 E5.62881
G1 X175.88 Y40.842 E5.65936
G1 X177.465 Y41.719 E5.71961
G1 X179.713 Y42.903 E5.80411
G1 X182.016 Y44.037 E5.88949
G1 X184.301 Y45.08 E5.97304
G1 X186.655 Y46.076 E6.05805
G1 X189.019 Y46.998 E6.14245
G1 X191.438 Y47.864 E6.2279
G1 X193.836 Y48.646 E6.3118
G1 X196.263 Y49.363 E6.39597
G1 X198.716 Y50.012 E6.48036
G1 X201.226 Y50.601 E6.56611
G1 X203.667 Y51.101 E6.64899
G1 X206.2 Y51.546 E6.73452
G1 X208.674 Y51.909 E6.81769
G1 X211.237 Y52.212 E6.90353
G1 X212.668 Y52.337 E6.95131
G1 X213.642 Y52.434 E6.98386
G1 X214.536 Y52.563 E7.0139
G1 X215.415 Y52.771 E7.04395
G1 X216.272 Y53.056 E7.07399
G1 X217.1 Y53.415 E7.104
G1 X217.894 Y53.846 E7.13405
G1 X218.646 Y54.346 E7.16409
G1 X219.351 Y54.91 E7.19411
G1 X220.003 Y55.535 E7.22415
G1 X220.598 Y56.215 E7.25421
G1 X221.13 Y56.944 E7.28422
G1 X221.596 Y57.718 E7.31427
G1 X221.991 Y58.53 E7.34431
G1 X222.313 Y59.374 E7.37435
G1 X222.559 Y60.243 E7.40439
G1 X222.727 Y61.13 E7.43442
G1 X222.793 Y61.702 E7.45357
G1 X222.895 Y62.873 E7.49266
G1 X223.152 Y65.442 E7.57853
G1 X223.479 Y67.973 E7.66342
G1 X223.873 Y70.47 E7.74749
G1 X224.341 Y72.975 E7.83225
G1 X224.872 Y75.429 E7.91576
G1 X225.487 Y77.925 E8.00126
G1 X226.155 Y80.343 E8.0847
G1 X226.907 Y82.79 E8.16984
G1 X227.727 Y85.216 E8.25501
G1 X228.634 Y87.664 E8.34184
G1 X229.002 Y88.617 E8.37582
G1 X229.29 Y89.473 E8.40586
G1 X229.501 Y90.351 E8.43589
G1 X229.634 Y91.244 E8.46592
G1 X229.683 Y91.98 E8.49046
G1 X229.698 Y92.619 E8.51172
G1 X229.697 Y98.598 E8.71058
G1 X229.686 Y99.304 E8.73406
G1 X229.632 Y100.205 E8.76408
G1 X229.498 Y101.099 E8.79415
G1 X229.286 Y101.976 E8.82416
G1 X229.063 Y102.659 E8.84806
G1 X228.794 Y103.392 E8.87403
G1 X227.944 Y105.803 E8.95905
G1 X227.165 Y108.228 E9.04377
G1 X226.468 Y110.629 E9.12692
G1 X225.815 Y113.146 E9.21341
G1 X225.254 Y115.583 E9.29659
G1 X224.75 Y118.103 E9.38206
G1 X224.322 Y120.609 E9.46662
G1 X223.969 Y123.093 E9.55007
G1 X223.685 Y125.597 E9.63388
G1 X223.467 Y128.17 E9.71977
G1 X223.326 Y130.668 E9.80298
G1 X223.254 Y133.228 E9.88816
G1 X223.256 Y135.762 E9.97245
G1 X223.329 Y138.306 E10.05709
G1 X223.473 Y140.854 E10.14198
G1 X223.689 Y143.378 E10.22623
G1 X223.981 Y145.931 E10.3117
G1 X224.28 Y148.101 E10.38456
G1 X224.338 Y148.617 E10.40183
G1 X224.437 Y149.765 E10.44015
G1 X224.697 Y152.358 E10.52683
G1 X225.023 Y154.884 E10.61154
G1 X225.419 Y157.39 E10.69592
G1 X225.882 Y159.867 E10.77973
G1 X226.418 Y162.353 E10.86432
G1 X227.027 Y164.819 E10.9488
G1 X227.712 Y167.298 E11.03434
G1 X228.455 Y169.718 E11.11854
G1 X229.258 Y172.091 E11.20186
G1 X230.212 Y174.666 E11.2932
G1 X230.547 Y175.533 E11.32411
G1 X230.835 Y176.389 E11.35415
G1 X231.046 Y177.267 E11.38419
G1 X231.179 Y178.16 E11.41421
G1 X231.228 Y178.896 E11.43875
G1 X231.243 Y179.535 E11.46001
G1 X231.242 Y185.452 E11.65681
G1 X231.233 Y186.178 E11.68096
G1 X231.182 Y187.08 E11.711
G1 X231.051 Y187.974 E11.74106
G1 X230.842 Y188.852 E11.77107
G1 X230.556 Y189.709 E11.80112
G1 X230.195 Y190.537 E11.83117
G1 X229.763 Y191.329 E11.86117
G1 X229.262 Y192.081 E11.89123
G1 X228.696 Y192.785 E11.92127
G1 X228.07 Y193.436 E11.95131
G1 X227.39 Y194.03 E11.98134
G1 X226.659 Y194.561 E12.01139
G1 X225.884 Y195.025 E12.04143
G1 X225.072 Y195.419 E12.07145
G1 X224.227 Y195.739 E12.10151
G1 X223.358 Y195.984 E12.13154
G1 X222.491 Y196.147 E12.16088
G1 X221.268 Y196.323 E12.20197
G1 X218.674 Y196.733 E12.28932
G1 X216.044 Y197.223 E12.3783
G1 X215.149 Y197.349 E12.40836
G1 X214.463 Y197.392 E12.43122
G1 X213.856 Y197.405 E12.45142
G1 X187.309 Y197.404 E13.33437
G1 X186.591 Y197.393 E13.35826
G1 X185.45 Y197.311 E13.39631
G1 X184.828 Y197.23 E13.41717
G1 X183.157 Y196.991 E13.47331
G1 X180.648 Y196.705 E13.5573
G1 X178.1 Y196.489 E13.64235
G1 X175.592 Y196.345 E13.72591
G1 X173.002 Y196.271 E13.81208
G1 X171.668 Y196.262 E13.85645
G1 X146.322 Y196.262 E14.69947
G1 X145.476 Y196.251 E14.72761
G1 X144.574 Y196.198 E14.75766
G1 X143.513 Y196.032 E14.79338
G1 X142.978 Y195.917 E14.81158
G1 X141.067 Y195.477 E14.8768
G1 X138.559 Y194.974 E14.96188
G1 X136.07 Y194.548 E15.04587
G1 X133.572 Y194.193 E15.12979
G1 X131.023 Y193.903 E15.21511
G1 X128.512 Y193.689 E15.29893
G1 X125.966 Y193.546 E15.38375
G1 X123.423 Y193.474 E15.46836
G1 X120.89 Y193.474 E15.55261
G1 X118.357 Y193.546 E15.63689
G1 X115.793 Y193.691 E15.7223
G1 X113.278 Y193.905 E15.80626
G1 X110.77 Y194.191 E15.89021
G1 X108.24 Y194.551 E15.97521
G1 X105.749 Y194.978 E16.05927
G1 X103.255 Y195.478 E16.14387
G1 X100.789 Y196.045 E16.22803
G1 X98.405 Y196.662 E16.30993
G1 X97.521 Y196.849 E16.33999
G1 X96.625 Y196.958 E16.37001
G1 X95.77 Y196.987 E16.39846
G1 X92.874 Y196.964 E16.49479
G1 X92.188 Y196.978 E16.51761
G1 X90.912 Y196.987 E16.56005
G1 X87.996 Y196.965 E16.65704
G1 X87.302 Y196.979 E16.68012
G1 X86.05 Y196.987 E16.72177
G1 X83.118 Y196.965 E16.81929
G1 X82.574 Y196.977 E16.83739
G1 X81.373 Y196.986 E16.87733
G1 X80.471 Y196.952 E16.90735
G1 X79.575 Y196.838 E16.9374
G1 X78.692 Y196.646 E16.96745
G1 X77.85 Y196.383 E16.99679
G1 X75.334 Y195.477 E17.08573
G1 X72.949 Y194.694 E17.16922
G1 X71.871 Y194.373 E17.20663
G1 X70.972 Y194.091 E17.23797
G1 X70.123 Y193.782 E17.26802
G1 X69.135 Y193.307 E17.30448
G1 X67.56 Y192.437 E17.36433
G1 X65.319 Y191.254 E17.44861
G1 X63.033 Y190.127 E17.53338
G1 X60.816 Y189.11 E17.61451
G1 X60.184 Y188.829 E17.63751
G1 X59.435 Y188.457 E17.66533
G1 X58.052 Y187.692 E17.7179
G1 X55.829 Y186.511 E17.80162
G1 X53.526 Y185.369 E17.88712
G1 X51.241 Y184.316 E17.9708
G1 X48.891 Y183.313 E18.05578
G1 X46.533 Y182.384 E18.14008
G1 X44.153 Y181.524 E18.22424
G1 X41.729 Y180.724 E18.30914
G1 X39.304 Y179.999 E18.39333
G1 X36.816 Y179.331 E18.47901
G1 X34.387 Y178.753 E18.56205
G1 X31.873 Y178.229 E18.64747
G1 X29.39 Y177.784 E18.73137
G1 X26.882 Y177.407 E18.81572
G1 X24.364 Y177.102 E18.90008
G1 X22.892 Y176.97 E18.94924
G1 X21.641 Y176.846 E18.99105
G1 X20.747 Y176.717 E19.02109
G1 X19.868 Y176.51 E19.05113
G1 X19.011 Y176.226 E19.08116
G1 X18.182 Y175.867 E19.1112
G1 X17.388 Y175.436 E19.14125
G1 X16.636 Y174.937 E19.17127
G1 X15.931 Y174.373 E19.2013
G1 X15.278 Y173.748 E19.23136
G1 X14.683 Y173.069 E19.26139
G1 X14.151 Y172.34 E19.29141
G1 X13.685 Y171.566 E19.32145
G1 X13.289 Y170.754 E19.3515
G1 X12.967 Y169.91 E19.38155
G1 X12.72 Y169.042 E19.41156
G1 X12.552 Y168.154 E19.44162
G1 X12.485 Y167.578 E19.46091
G1 X12.383 Y166.407 E19.5
G1 X12.126 Y163.838 E19.58588
G1 X11.799 Y161.306 E19.67079
G1 X11.405 Y158.81 E19.75484
G1 X10.938 Y156.311 E19.83939
G1 X10.404 Y153.844 E19.92334
G1 X9.791 Y151.355 E20.0086
G1 X9.12 Y148.926 E20.09242
G1 X8.368 Y146.477 E20.17763
G1 X7.559 Y144.085 E20.26161
G1 X6.626 Y141.569 E20.35086
G1 X6.272 Y140.651 E20.38359
G1 X5.984 Y139.794 E20.41366
G1 X5.774 Y138.916 E20.44368
G1 X5.642 Y138.023 E20.47371
G1 X5.593 Y137.268 E20.49887
G1 X5.58 Y136.661 E20.51906
G1 X5.581 Y130.668 E20.71839
G1 X5.593 Y129.959 E20.74198
G1 X5.649 Y129.058 E20.772
G1 X5.783 Y128.165 E20.80204
G1 X6.034 Y127.161 E20.83646
G1 X6.263 Y126.409 E20.8626
G1 X6.649 Y125.207 E20.90459
G1 X7.355 Y122.778 E20.98872
G1 X8.005 Y120.278 E21.07464
G1 X8.57 Y117.827 E21.1583
G1 X9.073 Y115.315 E21.24351
G1 X9.499 Y112.83 E21.32736
G1 X9.851 Y110.356 E21.41048
G1 X10.142 Y107.795 E21.4962
G1 X10.359 Y105.238 E21.58156
G1 X10.501 Y102.72 E21.66544
G1 X10.573 Y100.186 E21.74975
G1 X10.573 Y97.653 E21.834
G1 X10.501 Y95.12 E21.91828
G1 X10.356 Y92.556 E22.0037
G1 X10.143 Y90.058 E22.08708
G1 X9.854 Y87.511 E22.17234
G1 X9.498 Y85.009 E22.2564
G1 X9.068 Y82.507 E22.34083
G1 X8.558 Y79.961 E22.4272
G1 X8.402 Y79.235 E22.45189
G1 X8.212 Y77.969 E22.49447
G1 X8.112 Y76.809 E22.5332
G1 X7.853 Y74.228 E22.61947
G1 X7.526 Y71.696 E22.70439
G1 X7.132 Y69.2 E22.78843
G1 X6.665 Y66.701 E22.87299
G1 X6.131 Y64.234 E22.95694
G1 X5.518 Y61.745 E23.0422
G1 X4.847 Y59.316 E23.12601
G1 X4.095 Y56.867 E23.21122
G1 X3.286 Y54.475 E23.29521
G1 X2.343 Y51.933 E23.38538
G1 X1.999 Y51.041 E23.41718
G1 X1.711 Y50.184 E23.44725
G1 X1.501 Y49.306 E23.47728
G1 X1.369 Y48.413 E23.5073
G1 X1.32 Y47.658 E23.53247
G1 X1.307 Y47.051 E23.55266
G1 X1.308 Y41.074 E23.75146
G1 X1.318 Y40.386 E23.77434
G1 X1.371 Y39.484 E23.80439
G1 X1.504 Y38.591 E23.83442
G1 X1.715 Y37.713 E23.86446
G1 X2.003 Y36.857 E23.8945
G1 X2.365 Y36.03 E23.92452
G1 X2.8 Y35.238 E23.95458
G1 X3.302 Y34.488 E23.98459
G1 X3.869 Y33.785 E24.01463
G1 X4.496 Y33.135 E24.04467
G1 X5.178 Y32.543 E24.07471
G1 X5.91 Y32.013 E24.10476
G1 X6.686 Y31.551 E24.1348
G1 X7.499 Y31.159 E24.16482
G1 X8.344 Y30.84 E24.19486
G0 F6000 X8.236 Y30.455
G1 F1200 X9.14 Y30.204 E24.22607
G1 X10.002 Y30.043 E24.25523
G1 X11.235 Y29.865 E24.29667
G1 X13.814 Y29.458 E24.38351
G1 X16.45 Y28.967 E24.47269
G1 X17.376 Y28.838 E24.50379
G1 X18.078 Y28.794 E24.52718
G1 X18.694 Y28.781 E24.54767
G1 X45.248 Y28.782 E25.43086
G1 X45.989 Y28.794 E25.45551
G1 X47.153 Y28.878 E25.49433
G1 X47.78 Y28.96 E25.51536
G1 X49.451 Y29.199 E25.5715
G1 X51.937 Y29.482 E25.65472
G1 X54.485 Y29.699 E25.73977
G1 X56.97 Y29.841 E25.82256
G1 X59.56 Y29.915 E25.90874
G1 X60.886 Y29.924 E25.95284
G1 X86.38 Y29.925 E26.80078
G1 X87.098 Y29.936 E26.82466
G1 X88.035 Y29.992 E26.85588
G1 X88.928 Y30.124 E26.88591
G1 X90.003 Y30.389 E26.92273
G1 X93.029 Y31.276 E27.02761
G1 X95.477 Y31.913 E27.11174
G1 X97.916 Y32.475 E27.19499
G1 X100.44 Y32.982 E27.28062
G1 X102.917 Y33.408 E27.36421
G1 X105.399 Y33.761 E27.44759
G1 X107.941 Y34.05 E27.53268
G1 X110.459 Y34.266 E27.61674
G1 X112.942 Y34.407 E27.69946
G1 X115.506 Y34.48 E27.78477
G1 X118.018 Y34.48 E27.86832
G1 X120.553 Y34.409 E27.95267
G1 X123.057 Y34.269 E28.03608
G1 X125.616 Y34.052 E28.1215
G1 X128.123 Y33.767 E28.20542
G1 X130.596 Y33.415 E28.2885
G1 X133.097 Y32.987 E28.3729
G1 X135.607 Y32.484 E28.45804
G1 X136.927 Y32.186 E28.50305
G1 X137.319 Y32.106 E28.51635
G1 X138.211 Y31.964 E28.5464
G1 X139.513 Y31.893 E28.58976
G1 X142.428 Y31.915 E28.68672
G1 X143.124 Y31.901 E28.70987
G1 X144.382 Y31.893 E28.75172
G1 X147.306 Y31.915 E28.84897
G1 X147.994 Y31.901 E28.87186
G1 X149.178 Y31.893 E28.91124
G1 X152.145 Y31.916 E29.00993
G1 X152.843 Y31.901 E29.03315
G1 X153.925 Y31.894 E29.06914
G1 X154.827 Y31.928 E29.09916
G1 X155.793 Y32.051 E29.13155
G1 X156.71 Y32.253 E29.16278
G1 X157.574 Y32.523 E29.19288
G1 X160.057 Y33.419 E29.28068
G1 X162.491 Y34.218 E29.36589
G1 X163.557 Y34.535 E29.40288
G1 X164.447 Y34.815 E29.43391
G1 X165.296 Y35.124 E29.46396
G1 X166.374 Y35.643 E29.50375
G1 X167.76 Y36.411 E29.55645
G1 X170.027 Y37.612 E29.64178
G1 X172.313 Y38.743 E29.72661
G1 X174.674 Y39.828 E29.81303
G1 X175.235 Y40.076 E29.83343
G1 X176.074 Y40.492 E29.86458
G1 X177.659 Y41.369 E29.92483
G1 X179.89 Y42.544 E30.0087
G1 X182.194 Y43.678 E30.09411
G1 X184.467 Y44.716 E30.17722
G1 X186.8 Y45.703 E30.26147
G1 X189.154 Y46.621 E30.34551
G1 X191.573 Y47.488 E30.43098
G1 X193.949 Y48.262 E30.51409
G1 X196.373 Y48.978 E30.59816
G1 X198.818 Y49.626 E30.68228
G1 X201.306 Y50.209 E30.76728
G1 X203.745 Y50.709 E30.85009
G1 X206.258 Y51.15 E30.93495
G1 X208.732 Y51.513 E31.01811
G1 X211.284 Y51.815 E31.10358
G1 X212.708 Y51.939 E31.15113
G1 X213.699 Y52.038 E31.18425
G1 X214.593 Y52.167 E31.21429
G1 X215.541 Y52.391 E31.24669
G1 X216.398 Y52.676 E31.27673
G1 X217.291 Y53.063 E31.3091
G1 X218.085 Y53.494 E31.33915
G1 X218.896 Y54.034 E31.37156
G1 X219.628 Y54.621 E31.40276
G1 X220.28 Y55.246 E31.4328
G1 X220.921 Y55.979 E31.46519
G1 X221.473 Y56.738 E31.49641
G1 X221.956 Y57.543 E31.52763
G1 X222.365 Y58.387 E31.55882
G1 X222.687 Y59.231 E31.58887
G1 X222.944 Y60.134 E31.6201
G1 X223.12 Y61.056 E31.65132
G1 X223.191 Y61.667 E31.67177
G1 X223.293 Y62.833 E31.7107
G1 X223.549 Y65.391 E31.79621
G1 X223.876 Y67.922 E31.88109
G1 X224.266 Y70.397 E31.96442
G1 X224.732 Y72.89 E32.04878
G1 X225.263 Y75.344 E32.13229
G1 X225.873 Y77.818 E32.21704
G1 X226.54 Y80.236 E32.30046
G1 X227.286 Y82.662 E32.38488
G1 X228.102 Y85.077 E32.46967
G1 X229.007 Y87.52 E32.55632
G1 X229.381 Y88.489 E32.59086
G1 X229.679 Y89.38 E32.62211
G1 X229.897 Y90.292 E32.6533
G1 X230.03 Y91.185 E32.68333
G1 X230.083 Y91.971 E32.70953
G1 X230.098 Y92.619 E32.73109
G1 X230.097 Y98.604 E32.93015
G1 X230.085 Y99.328 E32.95423
G1 X230.028 Y100.264 E32.98542
G1 X229.894 Y101.158 E33.01549
G1 X229.675 Y102.07 E33.04668
G1 X229.439 Y102.797 E33.07211
G1 X229.169 Y103.53 E33.09809
G1 X228.321 Y105.936 E33.18294
G1 X227.546 Y108.35 E33.26726
G1 X226.852 Y110.741 E33.35007
G1 X226.205 Y113.236 E33.4358
G1 X225.644 Y115.673 E33.51897
G1 X225.142 Y118.181 E33.60404
G1 X224.716 Y120.676 E33.68823
G1 X224.365 Y123.149 E33.77131
G1 X224.084 Y125.631 E33.85439
G1 X223.865 Y128.204 E33.94027
G1 X223.726 Y130.679 E34.02272
G1 X223.654 Y133.239 E34.1079
G1 X223.656 Y135.762 E34.19182
G1 X223.729 Y138.295 E34.2761
G1 X223.872 Y140.82 E34.36022
G1 X224.087 Y143.344 E34.44447
G1 X224.377 Y145.876 E34.52923
G1 X224.677 Y148.056 E34.60242
G1 X224.737 Y148.583 E34.62007
G1 X224.835 Y149.725 E34.65819
G1 X225.094 Y152.307 E34.7445
G1 X225.42 Y154.833 E34.82921
G1 X225.812 Y157.317 E34.91285
G1 X226.273 Y159.783 E34.99629
G1 X226.806 Y162.257 E35.08046
G1 X227.413 Y164.712 E35.16458
G1 X228.097 Y167.191 E35.25011
G1 X228.834 Y169.59 E35.33358
G1 X229.633 Y171.952 E35.41651
