;FLAVOR:Marlin
;TIME:4174
;Filament used: 3.322m
;Layer height: 0.32
;MINX:65.185
;MINY:72.829
;MINZ:0.2
;MAXX:170.603
;MAXY:162.172
;MAXZ:24.2
;Generated with Cura_SteamEngine 5.3.1
M140 S50
M105
M190 S50
M104 S200
M105
M109 S200
M82 ;absolute extrusion mode
; Ender 3 Custom Start G-code
G92 E0 ; Reset Extruder
G28 ; Home all axes
G1 Z2.0 F3000 ; Move Z Axis up little to prevent scratching of Heat Bed
G1 X0.1 Y20 Z0.3 F5000.0 ; Move to start position
G1 X0.1 Y200.0 Z0.3 F1500.0 E15 ; Draw the first line
G1 X0.4 Y200.0 Z0.3 F5000.0 ; Move to side a little
G1 X0.4 Y20 Z0.3 F1500.0 E30 ; Draw the second line
G92 E0 ; Reset Extruder
G1 Z2.0 F3000 ; Move Z Axis up little to prevent scratching of Heat Bed
G1 X5 Y20 Z0.3 F5000.0 ; Move over to prevent blob squish
G92 E0
G92 E0
G1 F2700 E-5
;LAYER_COUNT:76
;LAYER:0
M107
G0 F6000 X70.579 Y98.798 Z0.2
;TYPE:SKIRT
G1 F2700 E0
G1 F1200 X71.354 Y98.335 E0.03003
G1 X72.167 Y97.942 E0.06006
G1 X73.012 Y97.622 E0.09011
G1 X73.881 Y97.379 E0.12012
G1 X74.769 Y97.213 E0.15017
G1 X75.908 Y97.117 E0.18819
G1 X76.515 Y97.104 E0.20838
G1 X95.87 Y97.104 E0.85213
G1 X96.714 Y97.115 E0.88021
G1 X97.616 Y97.168 E0.91026
G1 X98.509 Y97.3 E0.94028
G1 X99.387 Y97.511 E0.97032
G1 X100.243 Y97.799 E1.00036
G1 X101.07 Y98.161 E1.03038
G1 X101.862 Y98.596 E1.06044
G1 X102.613 Y99.098 E1.09048
G1 X103.316 Y99.665 E1.12052
G1 X103.966 Y100.292 E1.15056
G1 X104.558 Y100.974 E1.18059
G1 X105.088 Y101.705 E1.21063
G1 X105.55 Y102.481 E1.24066
G1 X105.943 Y103.294 E1.2707
G1 X106.261 Y104.139 E1.30073
G1 X106.504 Y105.009 E1.33077
G1 X106.669 Y105.897 E1.36081
G1 X106.764 Y107.027 E1.39853
G1 X106.777 Y107.634 E1.41872
G1 X106.776 Y127.086 E2.0657
G1 X106.767 Y127.813 E2.08988
G1 X106.716 Y128.715 E2.11993
G1 X106.585 Y129.609 E2.14998
G1 X106.376 Y130.487 E2.18
G1 X106.09 Y131.344 E2.21005
G1 X105.729 Y132.172 E2.24009
G1 X105.297 Y132.964 E2.2701
G1 X104.796 Y133.716 E2.30015
G1 X104.23 Y134.42 E2.33019
G1 X103.605 Y135.071 E2.36021
G1 X102.924 Y135.665 E2.39027
G1 X102.193 Y136.196 E2.42032
G1 X101.419 Y136.66 E2.45033
G1 X100.606 Y137.054 E2.48038
G1 X99.762 Y137.374 E2.5104
G1 X98.892 Y137.619 E2.54046
G1 X98.005 Y137.785 E2.57048
G1 X96.854 Y137.883 E2.6089
G1 X96.247 Y137.896 E2.62909
G1 X76.76 Y137.895 E3.27723
G1 X76.062 Y137.886 E3.30045
G1 X75.161 Y137.835 E3.33047
G1 X74.267 Y137.703 E3.36052
G1 X73.389 Y137.494 E3.39054
G1 X72.532 Y137.207 E3.4206
G1 X71.705 Y136.846 E3.45061
G1 X70.912 Y136.413 E3.48066
G1 X70.161 Y135.912 E3.51069
G1 X69.457 Y135.346 E3.54073
G1 X68.806 Y134.72 E3.57077
G1 X68.213 Y134.039 E3.60081
G1 X67.683 Y133.308 E3.63084
G1 X67.219 Y132.533 E3.66088
G1 X66.825 Y131.72 E3.69093
G1 X66.505 Y130.876 E3.72095
G1 X66.261 Y130.006 E3.751
G1 X66.095 Y129.118 E3.78105
G1 X65.998 Y127.963 E3.8196
G1 X65.985 Y127.354 E3.83986
G1 X65.986 Y107.84 E4.4889
G1 X65.995 Y107.175 E4.51102
G1 X66.047 Y106.273 E4.54107
G1 X66.179 Y105.38 E4.57109
G1 X66.389 Y104.502 E4.60112
G1 X66.676 Y103.645 E4.63118
G1 X67.038 Y102.818 E4.66121
G1 X67.471 Y102.026 E4.69123
G1 X67.973 Y101.275 E4.72127
G1 X68.54 Y100.571 E4.75134
G1 X69.166 Y99.921 E4.78135
G1 X69.847 Y99.328 E4.81139
G1 X70.579 Y98.798 E4.84145
G0 F6000 X70.344 Y98.474
G1 F1200 X71.18 Y97.975 E4.87383
G1 X72.025 Y97.568 E4.90502
G1 X72.87 Y97.248 E4.93507
G1 X73.807 Y96.986 E4.96744
G1 X74.735 Y96.814 E4.99883
G1 X75.874 Y96.718 E5.03684
G1 X76.506 Y96.704 E5.05787
G1 X95.875 Y96.704 E5.70208
G1 X96.737 Y96.716 E5.73076
G1 X97.674 Y96.772 E5.76198
G1 X98.567 Y96.904 E5.792
G1 X99.515 Y97.132 E5.82443
G1 X100.371 Y97.42 E5.85447
G1 X101.263 Y97.81 E5.88685
G1 X102.055 Y98.245 E5.9169
G1 X102.835 Y98.765 E5.94808
G1 X103.594 Y99.377 E5.98051
G1 X104.244 Y100.004 E6.01055
G1 X104.882 Y100.739 E6.04292
G1 X105.432 Y101.5 E6.07415
G1 X105.894 Y102.276 E6.10419
G1 X106.317 Y103.153 E6.13657
G1 X106.646 Y104.031 E6.16776
G1 X106.897 Y104.936 E6.199
G1 X107.068 Y105.863 E6.23035
G1 X107.163 Y106.993 E6.26806
G1 X107.177 Y107.634 E6.28939
G1 X107.176 Y127.091 E6.93653
G1 X107.166 Y127.836 E6.96131
G1 X107.112 Y128.773 E6.99253
G1 X106.981 Y129.667 E7.02258
G1 X106.765 Y130.58 E7.05379
G1 X106.457 Y131.504 E7.08618
G1 X106.096 Y132.332 E7.11622
G1 X105.63 Y133.186 E7.14858
G1 X105.108 Y133.967 E7.17983
G1 X104.542 Y134.671 E7.20987
G1 X103.894 Y135.348 E7.24104
G1 X103.159 Y135.989 E7.27348
G1 X102.428 Y136.52 E7.30353
G1 X101.625 Y137.003 E7.33469
G1 X100.748 Y137.428 E7.36711
G1 X99.904 Y137.748 E7.39713
G1 X98.966 Y138.012 E7.42954
G1 X98.039 Y138.184 E7.4609
G1 X96.888 Y138.282 E7.49932
G1 X96.256 Y138.296 E7.52034
G1 X76.755 Y138.295 E8.16895
G1 X76.039 Y138.285 E8.19277
G1 X75.103 Y138.231 E8.22395
G1 X74.209 Y138.099 E8.25401
G1 X73.296 Y137.883 E8.28521
G1 X72.372 Y137.574 E8.31762
G1 X71.545 Y137.213 E8.34763
G1 X70.69 Y136.746 E8.38003
G1 X69.91 Y136.224 E8.41125
G1 X69.206 Y135.658 E8.44129
G1 X68.504 Y134.983 E8.47368
G1 X67.911 Y134.302 E8.50372
G1 X67.359 Y133.543 E8.53493
G1 X66.859 Y132.707 E8.56733
G1 X66.451 Y131.862 E8.59854
G1 X66.131 Y131.018 E8.62856
G1 X65.868 Y130.08 E8.66096
G1 X65.696 Y129.151 E8.69239
G1 X65.598 Y127.972 E8.73174
G1 X65.585 Y127.354 E8.7523
G1 X65.586 Y107.835 E9.4015
G1 X65.596 Y107.152 E9.42422
G1 X65.651 Y106.215 E9.45544
G1 X65.783 Y105.322 E9.48546
G1 X66 Y104.409 E9.51667
G1 X66.297 Y103.518 E9.54791
G1 X66.687 Y102.626 E9.58029
G1 X67.138 Y101.804 E9.61148
G1 X67.661 Y101.024 E9.64271
G1 X68.228 Y100.32 E9.67278
G1 X68.903 Y99.619 E9.70514
G1 X69.584 Y99.026 E9.73518
G1 X70.344 Y98.474 E9.76642
G0 F6000 X70.109 Y98.15
G1 F1200 X71.006 Y97.615 E9.80116
G1 X71.883 Y97.194 E9.83351
G1 X72.728 Y96.874 E9.86357
G1 X73.734 Y96.593 E9.89831
G1 X74.701 Y96.415 E9.93101
G1 X75.84 Y96.319 E9.96903
G1 X76.497 Y96.304 E9.99088
G1 X95.881 Y96.304 E10.6356
G1 X96.761 Y96.317 E10.66487
G1 X97.732 Y96.376 E10.69723
G1 X98.661 Y96.515 E10.72847
G1 X99.609 Y96.743 E10.7609
G1 X100.531 Y97.053 E10.79325
G1 X101.456 Y97.459 E10.82685
G1 X102.248 Y97.894 E10.8569
G1 X103.057 Y98.432 E10.88922
G1 X103.872 Y99.089 E10.92404
G1 X104.522 Y99.716 E10.95407
G1 X105.184 Y100.477 E10.98762
G1 X105.776 Y101.295 E11.02121
G1 X106.238 Y102.071 E11.05124
G1 X106.692 Y103.013 E11.08602
G1 X107.021 Y103.891 E11.11721
G1 X107.29 Y104.863 E11.15075
G1 X107.467 Y105.829 E11.18342
G1 X107.562 Y106.959 E11.22113
G1 X107.577 Y107.634 E11.24359
G1 X107.576 Y127.096 E11.8909
G1 X107.565 Y127.859 E11.91628
G1 X107.508 Y128.831 E11.94866
G1 X107.377 Y129.725 E11.97872
G1 X107.154 Y130.672 E12.01107
G1 X106.824 Y131.664 E12.04585
G1 X106.463 Y132.492 E12.07589
G1 X105.963 Y133.408 E12.1106
G1 X105.42 Y134.218 E12.14303
G1 X104.854 Y134.922 E12.17308
G1 X104.183 Y135.625 E12.2054
G1 X103.394 Y136.313 E12.24022
G1 X102.663 Y136.844 E12.27027
G1 X101.831 Y137.346 E12.30259
G1 X100.89 Y137.802 E12.33737
G1 X100.046 Y138.122 E12.36739
G1 X99.074 Y138.397 E12.40099
G1 X98.073 Y138.583 E12.43485
G1 X96.922 Y138.681 E12.47327
G1 X96.256 Y138.696 E12.49543
G1 X76.749 Y138.695 E13.14423
G1 X76.016 Y138.684 E13.16862
G1 X75.045 Y138.627 E13.20097
G1 X74.151 Y138.495 E13.23102
G1 X73.169 Y138.262 E13.26459
G1 X72.212 Y137.941 E13.29816
G1 X71.385 Y137.58 E13.32818
G1 X70.498 Y137.097 E13.36177
G1 X69.659 Y136.536 E13.39534
G1 X68.955 Y135.97 E13.42538
G1 X68.202 Y135.246 E13.46013
G1 X67.609 Y134.565 E13.49016
G1 X67.016 Y133.748 E13.52374
G1 X66.499 Y132.881 E13.55731
G1 X66.077 Y132.004 E13.58968
G1 X65.757 Y131.16 E13.6197
G1 X65.483 Y130.188 E13.65329
G1 X65.297 Y129.184 E13.68725
G1 X65.199 Y128.005 E13.7266
G1 X65.185 Y127.354 E13.74826
G1 X65.186 Y107.829 E14.39766
G1 X65.197 Y107.129 E14.42095
G1 X65.255 Y106.157 E14.45333
G1 X65.387 Y105.264 E14.48336
G1 X65.611 Y104.317 E14.51573
G1 X65.93 Y103.358 E14.54934
G1 X66.32 Y102.466 E14.58172
G1 X66.787 Y101.612 E14.61409
G1 X67.349 Y100.773 E14.64768
G1 X67.916 Y100.069 E14.67775
G1 X68.64 Y99.317 E14.71247
G1 X69.321 Y98.724 E14.7425
G1 X70.109 Y98.15 E14.77492
G1 F2700 E9.77492
;MESH:head.stl
G0 F6000 X83.878 Y122.584
G0 X84.142 Y122.976
;TYPE:WALL-OUTER
G1 F2700 E14.77492
G1 F1200 X83.871 Y122.858 E14.78476
G1 X83.538 Y122.688 E14.79719
G1 X83.215 Y122.498 E14.80965
G1 X82.893 Y122.28 E14.82259
G1 X82.614 Y122.063 E14.83434
G1 X82.348 Y121.828 E14.84615
G1 X82.068 Y121.55 E14.85927
G1 X81.828 Y121.279 E14.87131
G1 X81.589 Y120.97 E14.88431
G1 X81.388 Y120.676 E14.89615
G1 X81.191 Y120.341 E14.90908
G1 X81.023 Y120.009 E14.92145
G1 X80.888 Y119.699 E14.9327
G1 X80.75 Y119.318 E14.94618
G1 X80.657 Y118.997 E14.95729
G1 X80.567 Y118.598 E14.9709
G1 X80.506 Y118.207 E14.98406
G1 X80.476 Y117.878 E14.99505
G1 X80.464 Y117.532 E15.00656
G1 X80.476 Y117.118 E15.02034
G1 X80.509 Y116.77 E15.03196
G1 X80.569 Y116.393 E15.04466
G1 X80.65 Y116.022 E15.05729
G1 X80.75 Y115.683 E15.06905
G1 X80.879 Y115.323 E15.08176
G1 X81.023 Y114.991 E15.0938
G1 X81.18 Y114.68 E15.10539
G1 X81.391 Y114.321 E15.11924
G1 X81.589 Y114.03 E15.13094
G1 X81.83 Y113.719 E15.14403
G1 X82.068 Y113.451 E15.15595
G1 X82.333 Y113.184 E15.16846
G1 X82.605 Y112.946 E15.18048
G1 X82.898 Y112.716 E15.19287
G1 X83.189 Y112.518 E15.20458
G1 X83.522 Y112.32 E15.21747
G1 X83.878 Y112.139 E15.23075
G1 X84.142 Y112.024 E15.24033
G1 X84.142 Y113.773 E15.2985
G1 X83.916 Y113.908 E15.30725
G1 X83.612 Y114.143 E15.32003
G1 X83.41 Y114.323 E15.32903
G1 X83.102 Y114.634 E15.34359
G1 X82.865 Y114.938 E15.35641
G1 X82.627 Y115.29 E15.37054
G1 X82.452 Y115.634 E15.38338
G1 X82.284 Y116.022 E15.39744
G1 X82.135 Y116.527 E15.41496
G1 X82.066 Y116.942 E15.42895
G1 X82.039 Y117.23 E15.43857
G1 X82.032 Y117.494 E15.44735
G1 X82.039 Y117.77 E15.45654
G1 X82.064 Y118.044 E15.46569
G1 X82.132 Y118.461 E15.47974
G1 X82.243 Y118.842 E15.49294
G1 X82.333 Y119.092 E15.50178
G1 X82.446 Y119.353 E15.51124
G1 X82.567 Y119.592 E15.52015
G1 X82.784 Y119.958 E15.5343
G1 X83.025 Y120.269 E15.54738
G1 X83.203 Y120.467 E15.55624
G1 X83.479 Y120.749 E15.56936
G1 X83.821 Y121.018 E15.58384
G1 X84.142 Y121.236 E15.59674
G1 X84.142 Y122.976 E15.65461
G0 F6000 X83.782 Y122.409
;TYPE:SKIN
G1 F1200 X83.388 Y122.181 E15.66975
G1 X83.132 Y122.006 E15.68007
G1 X82.846 Y121.785 E15.69209
G1 X82.593 Y121.562 E15.70331
G1 X82.327 Y121.299 E15.71575
G1 X82.07 Y121.006 E15.72871
G1 X81.899 Y120.785 E15.73801
G1 X81.703 Y120.498 E15.74956
G1 X81.492 Y120.142 E15.76333
G1 X81.364 Y119.889 E15.77276
G1 X81.211 Y119.537 E15.78552
G1 X81.09 Y119.201 E15.7974
G1 X81.004 Y118.907 E15.80759
G1 X80.927 Y118.558 E15.81948
G1 X80.866 Y118.188 E15.83195
G1 X80.84 Y117.9 E15.84157
G1 X80.824 Y117.549 E15.85325
G1 X80.836 Y117.131 E15.86716
G1 X80.863 Y116.845 E15.87672
G1 X80.925 Y116.451 E15.88998
G1 X80.995 Y116.124 E15.90111
G1 X81.086 Y115.821 E15.91163
G1 X81.21 Y115.469 E15.92404
G1 X81.331 Y115.187 E15.93425
G1 X81.499 Y114.85 E15.94677
G1 X81.679 Y114.544 E15.95858
G1 X81.875 Y114.252 E15.97028
G1 X82.103 Y113.957 E15.98268
G1 X82.32 Y113.712 E15.99356
G1 X82.563 Y113.464 E16.00511
G1 X82.824 Y113.234 E16.01668
G1 X83.122 Y113.001 E16.02926
G1 X83.393 Y112.818 E16.04014
G1 X83.782 Y112.592 E16.0551
G1 X83.782 Y113.557 E16.0872
G1 X83.395 Y113.856 E16.10346
G1 X83.157 Y114.065 E16.114
G1 X82.837 Y114.389 E16.12915
G1 X82.562 Y114.74 E16.14398
G1 X82.313 Y115.114 E16.15892
G1 X82.122 Y115.485 E16.1728
G1 X81.939 Y115.914 E16.18831
G1 X81.782 Y116.451 E16.20692
G1 X81.71 Y116.88 E16.22139
G1 X81.68 Y117.196 E16.23195
G1 X81.668 Y117.659 E16.24735
G1 X81.71 Y118.12 E16.26275
G1 X81.775 Y118.519 E16.27619
G1 X81.89 Y118.922 E16.29013
G1 X81.993 Y119.214 E16.30043
G1 X82.107 Y119.484 E16.31018
G1 X82.255 Y119.775 E16.32104
G1 X82.487 Y120.163 E16.33607
G1 X82.738 Y120.489 E16.34976
G1 X82.944 Y120.718 E16.36
G1 X83.253 Y121.029 E16.37458
G1 X83.782 Y121.442 E16.3969
G1 X83.782 Y122.409 E16.42907
G1 F2700 E11.42907
G0 F6000 X82.744 Y123.224
G0 X81.738 Y122.445
G0 X81.26 Y121.902
G0 X80.655 Y121.134
G0 X81.797 Y120.264
G1 F2700 E16.42907
G1 F1200 X83.582 Y122.048 E16.513
G1 F2700 E11.513
G0 F6000 X83.417 Y122.328
G0 X82.64 Y119.911
G0 X82.243 Y120.144
G1 F2700 E16.513
G1 F1200 X81.303 Y119.204 E16.55722
G0 F6000 X81.728 Y119.064
G1 F1200 X81.11 Y118.446 E16.58629
G0 F6000 X81.539 Y118.308
G1 F1200 X81.035 Y117.805 E16.60997
G0 F6000 X81.47 Y117.673
G1 F1200 X81.032 Y117.236 E16.63055
G0 F6000 X81.486 Y117.124
G1 F1200 X81.084 Y116.722 E16.64946
G0 F6000 X81.55 Y116.623
G1 F1200 X81.173 Y116.245 E16.66722
G0 F6000 X81.302 Y115.809
G1 F1200 X81.657 Y116.164 E16.68391
G0 F6000 X81.797 Y115.738
G1 F1200 X81.457 Y115.398 E16.69991
G0 F6000 X81.639 Y115.015
G1 F1200 X81.969 Y115.344 E16.7154
G0 F6000 X82.164 Y114.974
G1 F1200 X81.844 Y114.654 E16.73046
G0 F6000 X82.074 Y114.318
G1 F1200 X82.391 Y114.635 E16.74537
G0 F6000 X82.638 Y114.317
G1 F1200 X82.327 Y114.005 E16.76002
G0 F6000 X82.599 Y113.711
G1 F1200 X82.913 Y114.026 E16.77481
G0 F6000 X83.206 Y113.753
G1 F1200 X82.892 Y113.439 E16.78958
G0 F6000 X83.205 Y113.187
G1 F1200 X83.522 Y113.504 E16.80449
G1 F2700 E11.80449
G0 F6000 X84.394 Y114.633
G0 X87.755 Y122.675
G0 X88.62 Y122.975
;TYPE:WALL-OUTER
G1 F2700 E16.80449
G1 F1200 X88.62 Y121.226 E16.86266
G1 X88.855 Y121.085 E16.87178
G1 X89.149 Y120.857 E16.88415
G1 X89.352 Y120.677 E16.89318
G1 X89.553 Y120.474 E16.90268
G1 X89.728 Y120.281 E16.91134
G1 X89.989 Y119.944 E16.92552
G1 X90.186 Y119.608 E16.93848
G1 X90.319 Y119.348 E16.94819
G1 X90.478 Y118.985 E16.96137
G1 X90.592 Y118.593 E16.97495
G1 X90.652 Y118.324 E16.98412
G1 X90.696 Y118.058 E16.99308
G1 X90.723 Y117.77 E17.0027
G1 X90.732 Y117.507 E17.01146
G1 X90.723 Y117.242 E17.02028
G1 X90.698 Y116.956 E17.02982
G1 X90.653 Y116.679 E17.03916
G1 X90.594 Y116.413 E17.04822
G1 X90.482 Y116.027 E17.06159
G1 X90.324 Y115.662 E17.07482
G1 X90.192 Y115.403 E17.08448
G1 X89.989 Y115.056 E17.09786
G1 X89.738 Y114.731 E17.11151
G1 X89.555 Y114.527 E17.12063
G1 X89.36 Y114.328 E17.1299
G1 X89.15 Y114.145 E17.13916
G1 X88.944 Y113.983 E17.14788
G1 X88.62 Y113.764 E17.16088
G1 X88.62 Y112.024 E17.21876
G1 X88.888 Y112.142 E17.2285
G1 X89.224 Y112.312 E17.24102
G1 X89.547 Y112.502 E17.25348
G1 X89.844 Y112.703 E17.26541
G1 X90.137 Y112.928 E17.2777
G1 X90.415 Y113.172 E17.29
G1 X90.695 Y113.45 E17.30313
G1 X90.933 Y113.72 E17.3151
G1 X91.173 Y114.03 E17.32814
G1 X91.372 Y114.321 E17.33986
G1 X91.561 Y114.64 E17.35219
G1 X91.742 Y114.994 E17.36542
G1 X91.877 Y115.311 E17.37688
G1 X92.012 Y115.682 E17.39001
G1 X92.111 Y116.019 E17.40169
G1 X92.187 Y116.362 E17.41338
G1 X92.254 Y116.77 E17.42713
G1 X92.287 Y117.118 E17.43875
G1 X92.298 Y117.446 E17.44967
G1 X92.287 Y117.882 E17.46418
G1 X92.254 Y118.23 E17.4758
G1 X92.191 Y118.616 E17.48881
G1 X92.118 Y118.955 E17.50034
G1 X92.017 Y119.302 E17.51236
G1 X91.885 Y119.669 E17.52534
G1 X91.733 Y120.024 E17.53818
G1 X91.571 Y120.341 E17.55002
G1 X91.373 Y120.676 E17.56296
G1 X91.169 Y120.976 E17.57503
G1 X90.94 Y121.271 E17.58745
G1 X90.687 Y121.559 E17.6002
G1 X90.437 Y121.808 E17.61194
G1 X90.158 Y122.054 E17.62431
G1 X89.848 Y122.294 E17.63735
G1 X89.557 Y122.493 E17.64907
G1 X89.24 Y122.68 E17.66131
G1 X88.895 Y122.856 E17.6742
G1 X88.62 Y122.975 E17.68416
G0 F6000 X88.982 Y122.406
;TYPE:SKIN
G1 F1200 X88.981 Y121.443 E17.71619
G1 X89.378 Y121.134 E17.73292
G1 X89.595 Y120.945 E17.7425
G1 X89.79 Y120.749 E17.75169
G1 X89.998 Y120.52 E17.76198
G1 X90.289 Y120.147 E17.77772
G1 X90.489 Y119.808 E17.79081
G1 X90.638 Y119.519 E17.80162
G1 X90.819 Y119.102 E17.81674
G1 X90.979 Y118.556 E17.83566
G1 X91.052 Y118.12 E17.85037
G1 X91.083 Y117.802 E17.86099
G1 X91.093 Y117.517 E17.87048
G1 X91.084 Y117.239 E17.87973
G1 X91.057 Y116.922 E17.89031
G1 X91.007 Y116.611 E17.90079
G1 X90.949 Y116.344 E17.90988
G1 X90.817 Y115.89 E17.9256
G1 X90.645 Y115.499 E17.93981
G1 X90.509 Y115.23 E17.94984
G1 X90.287 Y114.849 E17.9645
G1 X90 Y114.48 E17.98005
G1 X89.629 Y114.084 E17.9981
G1 X89.395 Y113.88 E18.00842
G1 X88.98 Y113.554 E18.02598
G1 X88.981 Y112.593 E18.05794
G1 X89.36 Y112.811 E18.07248
G1 X89.62 Y112.988 E18.08294
G1 X89.902 Y113.203 E18.09474
G1 X90.171 Y113.439 E18.10664
