;FLAVOR:Marlin
;TIME:9351
;Filament used: 7.55048m
;Layer height: 0.32
;MINX:2.593
;MINY:9.5
;MINZ:0.2
;MAXX:233.891
;MAXY:225.5
;MAXZ:4.04
;Generated with Cura_SteamEngine 5.3.1
M140 S50
M105
M190 S50
M104 S200
M105
M109 S200
M82 ;absolute extrusion mode
; Ender 3 Custom Start G-code
G92 E0 ; Reset Extruder
G28 ; Home all axes
G1 Z2.0 F3000 ; Move Z Axis up little to prevent scratching of Heat Bed
G1 X0.1 Y20 Z0.3 F5000.0 ; Move to start position
G1 X0.1 Y200.0 Z0.3 F1500.0 E15 ; Draw the first line
G1 X0.4 Y200.0 Z0.3 F5000.0 ; Move to side a little
G1 X0.4 Y20 Z0.3 F1500.0 E30 ; Draw the second line
G92 E0 ; Reset Extruder
G1 Z2.0 F3000 ; Move Z Axis up little to prevent scratching of Heat Bed
G1 X5 Y20 Z0.3 F5000.0 ; Move over to prevent blob squish
G92 E0
G92 E0
G1 F2700 E-5
;LAYER_COUNT:13
;LAYER:0
M107
G0 F6000 X7.308 Y9.5 Z0.2
;TYPE:SKIRT
G1 F2700 E0
G1 F1200 X6.904 Y9.851 E0.0178
G1 X6.278 Y10.502 E0.04784
G1 X5.712 Y11.206 E0.07788
G1 X5.211 Y11.957 E0.10791
G1 X4.778 Y12.749 E0.13793
G1 X4.416 Y13.577 E0.16799
G1 X4.13 Y14.433 E0.19801
G1 X3.92 Y15.312 E0.22806
G1 X3.789 Y16.205 E0.25808
G1 X3.737 Y17.107 E0.28813
G1 X3.728 Y17.796 E0.31105
G1 X3.727 Y26.26 E0.59257
G1 X3.74 Y26.867 E0.61276
G1 X3.792 Y27.642 E0.63859
G1 X3.926 Y28.536 E0.66866
G1 X4.302 Y30.461 E0.7339
G1 X4.745 Y33.038 E0.82086
G1 X5.103 Y35.546 E0.90513
G1 X5.388 Y38.047 E0.98885
G1 X5.604 Y40.595 E1.0739
G1 X5.748 Y43.102 E1.15742
G1 X5.821 Y45.668 E1.2428
G1 X5.821 Y48.202 E1.32708
G1 X5.75 Y50.737 E1.41143
G1 X5.608 Y53.264 E1.49561
G1 X5.391 Y55.823 E1.58103
G1 X5.104 Y58.352 E1.66568
G1 X4.752 Y60.825 E1.74876
G1 X4.322 Y63.339 E1.83359
G1 X3.802 Y65.94 E1.92182
G1 X3.631 Y66.735 E1.94886
G1 X3.459 Y67.815 E1.98524
G1 X3.405 Y68.716 E2.01526
G1 X3.394 Y69.423 E2.03877
G1 X3.393 Y77.903 E2.32082
G1 X3.408 Y78.542 E2.34208
G1 X3.457 Y79.272 E2.36641
G1 X3.589 Y80.166 E2.39647
G1 X3.8 Y81.044 E2.42651
G1 X4.087 Y81.9 E2.45653
G1 X4.536 Y83.062 E2.49797
G1 X4.606 Y83.267 E2.50517
G1 X5.29 Y85.004 E2.56726
G1 X6.139 Y87.405 E2.65197
G1 X6.908 Y89.788 E2.73525
G1 X7.616 Y92.22 E2.8195
G1 X8.264 Y94.703 E2.90485
G1 X8.835 Y97.18 E2.98939
G1 X9.328 Y99.63 E3.07251
G1 X9.763 Y102.166 E3.15809
G1 X10.123 Y104.675 E3.2424
G1 X10.41 Y107.189 E3.32656
G1 X10.628 Y109.741 E3.41175
G1 X10.77 Y112.234 E3.4948
G1 X10.845 Y114.81 E3.58051
G1 X10.847 Y117.345 E3.66483
G1 X10.814 Y118.539 E3.70455
G1 X10.79 Y120.157 E3.75837
G1 X10.789 Y128.621 E4.03989
G1 X10.802 Y129.228 E4.06008
G1 X10.854 Y130.006 E4.08602
G1 X10.988 Y130.9 E4.11608
G1 X11.364 Y132.825 E4.18132
G1 X11.807 Y135.402 E4.26829
G1 X12.165 Y137.91 E4.35255
G1 X12.45 Y140.411 E4.43627
G1 X12.666 Y142.959 E4.52132
G1 X12.81 Y145.466 E4.60484
G1 X12.883 Y148.032 E4.69022
G1 X12.883 Y150.566 E4.7745
G1 X12.812 Y153.101 E4.85885
G1 X12.67 Y155.628 E4.94303
G1 X12.453 Y158.187 E5.02845
G1 X12.166 Y160.716 E5.1131
G1 X11.814 Y163.189 E5.19619
G1 X11.384 Y165.703 E5.28102
G1 X10.864 Y168.304 E5.36924
G1 X10.693 Y169.099 E5.39628
G1 X10.521 Y170.179 E5.43266
G1 X10.467 Y171.08 E5.46268
G1 X10.456 Y171.787 E5.4862
G1 X10.455 Y180.267 E5.76824
G1 X10.47 Y180.906 E5.7895
G1 X10.516 Y181.614 E5.8131
G1 X10.647 Y182.507 E5.84312
G1 X10.855 Y183.386 E5.87316
G1 X11.141 Y184.243 E5.90321
G1 X11.317 Y184.702 E5.91956
G1 X11.999 Y186.396 E5.9803
G1 X12.898 Y188.822 E6.06635
G1 X13.712 Y191.226 E6.15077
G1 X14.447 Y193.617 E6.23396
G1 X15.143 Y196.133 E6.32079
G1 X15.732 Y198.53 E6.40289
G1 X16.279 Y201.055 E6.48882
G1 X16.752 Y203.583 E6.57436
G1 X16.85 Y204.153 E6.59359
G1 X17.07 Y205.135 E6.62706
G1 X17.348 Y205.994 E6.65709
G1 X17.702 Y206.825 E6.68714
G1 X18.127 Y207.621 E6.71715
G1 X18.622 Y208.377 E6.7472
G1 X19.181 Y209.086 E6.77723
G1 X19.801 Y209.743 E6.80728
G1 X20.476 Y210.342 E6.83729
G1 X21.202 Y210.88 E6.86735
G1 X21.973 Y211.351 E6.8974
G1 X22.782 Y211.752 E6.92743
G1 X23.623 Y212.08 E6.95745
G1 X24.168 Y212.265 E6.9766
G1 X25.796 Y212.789 E7.03348
G1 X28.163 Y213.625 E7.11697
G1 X30.558 Y214.547 E7.20233
G1 X32.902 Y215.528 E7.28684
G1 X35.228 Y216.578 E7.37172
G1 X37.499 Y217.682 E7.45571
G1 X39.739 Y218.852 E7.53976
G1 X41.993 Y220.109 E7.6256
G1 X44.145 Y221.392 E7.70893
G1 X46.286 Y222.751 E7.79328
G1 X48.402 Y224.18 E7.8782
G1 X50.242 Y225.5 E7.95352
G1 F2700 E2.95352
G0 F6000 X26.241 Y203.083
G0 X20.002 Y181.25
G0 X6.698 Y9.5
G1 F2700 E7.95352
G1 F1200 X6.642 Y9.549 E7.95599
G1 X5.966 Y10.251 E7.98841
G1 X5.4 Y10.955 E8.01845
G1 X4.878 Y11.735 E8.04967
G1 X4.411 Y12.589 E8.08204
G1 X4.049 Y13.417 E8.1121
G1 X3.741 Y14.34 E8.14446
G1 X3.524 Y15.254 E8.17571
G1 X3.393 Y16.147 E8.20573
G1 X3.338 Y17.084 E8.23694
G1 X3.328 Y17.791 E8.26046
G1 X3.327 Y26.26 E8.54214
G1 X3.34 Y26.876 E8.56263
G1 X3.396 Y27.701 E8.59014
G1 X3.53 Y28.595 E8.6202
G1 X3.909 Y30.538 E8.68605
G1 X4.349 Y33.095 E8.77234
G1 X4.707 Y35.603 E8.8566
G1 X4.99 Y38.081 E8.93956
G1 X5.205 Y40.629 E9.02461
G1 X5.348 Y43.113 E9.10736
G1 X5.421 Y45.668 E9.19238
G1 X5.421 Y48.191 E9.27629
G1 X5.35 Y50.726 E9.36064
G1 X5.21 Y53.23 E9.44405
G1 X4.992 Y55.789 E9.52947
G1 X4.708 Y58.296 E9.61339
G1 X4.358 Y60.758 E9.6961
G1 X3.93 Y63.261 E9.78056
G1 X3.411 Y65.856 E9.86858
G1 X3.24 Y66.651 E9.89562
G1 X3.064 Y67.752 E9.93271
G1 X3.006 Y68.692 E9.96403
G1 X2.994 Y69.417 E9.98815
G1 X2.993 Y77.903 E10.27039
G1 X3.008 Y78.551 E10.29195
G1 X3.061 Y79.33 E10.31792
G1 X3.193 Y80.224 E10.34798
G1 X3.411 Y81.137 E10.3792
G1 X3.708 Y82.027 E10.41041
G1 X4.157 Y83.191 E10.4519
G1 X4.227 Y83.396 E10.45911
G1 X4.918 Y85.151 E10.52184
G1 X5.758 Y87.528 E10.60569
G1 X6.527 Y89.911 E10.68897
G1 X7.229 Y92.321 E10.77246
G1 X7.874 Y94.793 E10.85743
G1 X8.445 Y97.27 E10.94198
G1 X8.934 Y99.698 E11.02436
G1 X9.367 Y102.223 E11.10956
G1 X9.727 Y104.732 E11.19387
G1 X10.012 Y107.223 E11.27726
G1 X10.229 Y109.775 E11.36245
G1 X10.37 Y112.246 E11.44477
G1 X10.445 Y114.81 E11.53008
G1 X10.447 Y117.334 E11.61403
G1 X10.414 Y118.528 E11.65376
G1 X10.39 Y120.151 E11.70774
G1 X10.389 Y128.621 E11.98946
G1 X10.402 Y129.237 E12.00995
G1 X10.458 Y130.065 E12.03755
G1 X10.592 Y130.959 E12.06762
G1 X10.971 Y132.902 E12.13346
G1 X11.411 Y135.459 E12.21976
G1 X11.769 Y137.967 E12.30402
G1 X12.052 Y140.445 E12.38697
G1 X12.267 Y142.993 E12.47202
G1 X12.41 Y145.477 E12.55478
G1 X12.483 Y148.032 E12.63979
G1 X12.483 Y150.555 E12.72371
G1 X12.412 Y153.09 E12.80805
G1 X12.272 Y155.594 E12.89147
G1 X12.054 Y158.153 E12.97689
G1 X11.77 Y160.66 E13.06081
G1 X11.42 Y163.122 E13.14352
G1 X10.992 Y165.625 E13.22797
G1 X10.473 Y168.22 E13.31599
G1 X10.302 Y169.015 E13.34304
G1 X10.126 Y170.116 E13.38012
G1 X10.068 Y171.056 E13.41145
G1 X10.056 Y171.781 E13.43556
G1 X10.055 Y180.267 E13.71781
G1 X10.07 Y180.915 E13.73937
G1 X10.12 Y181.672 E13.7646
G1 X10.251 Y182.565 E13.79462
G1 X10.466 Y183.478 E13.82582
G1 X10.762 Y184.37 E13.85708
G1 X10.944 Y184.845 E13.874
G1 X11.624 Y186.535 E13.93458
G1 X12.519 Y188.95 E14.02025
G1 X13.33 Y191.344 E14.10432
G1 X14.062 Y193.724 E14.18713
G1 X14.757 Y196.24 E14.27395
G1 X15.342 Y198.615 E14.3553
G1 X15.886 Y201.129 E14.44086
G1 X16.358 Y203.651 E14.52619
G1 X16.456 Y204.221 E14.54543
G1 X16.689 Y205.258 E14.58078
G1 X16.967 Y206.117 E14.61081
G1 X17.334 Y206.982 E14.64206
G1 X17.792 Y207.84 E14.67441
G1 X18.287 Y208.596 E14.70447
G1 X18.89 Y209.361 E14.73686
G1 X19.51 Y210.018 E14.76691
G1 X20.211 Y210.641 E14.7981
G1 X20.993 Y211.221 E14.83049
G1 X21.764 Y211.692 E14.86054
G1 X22.637 Y212.125 E14.89295
G1 X23.478 Y212.453 E14.92297
G1 X24.039 Y212.644 E14.94268
G1 X25.673 Y213.17 E14.99977
G1 X28.019 Y213.998 E15.08252
G1 X30.404 Y214.916 E15.16752
G1 X32.737 Y215.892 E15.25163
G1 X35.063 Y216.943 E15.33653
G1 X37.314 Y218.037 E15.41977
G1 X39.554 Y219.207 E15.50382
G1 X41.788 Y220.453 E15.5889
G1 X43.94 Y221.736 E15.67223
G1 X46.072 Y223.089 E15.75622
G1 X48.169 Y224.505 E15.84037
G1 X49.556 Y225.5 E15.89715
G1 F2700 E10.89715
G0 F6000 X26.241 Y203.083
G0 X20.002 Y181.25
G0 X6.136 Y9.5
G1 F2700 E15.89715
G1 F1200 X5.654 Y10 E15.92025
G1 X5.088 Y10.704 E15.95029
G1 X4.527 Y11.543 E15.98386
G1 X4.044 Y12.429 E16.01742
G1 X3.682 Y13.257 E16.04748
G1 X3.362 Y14.213 E16.08101
G1 X3.128 Y15.196 E16.11462
G1 X2.997 Y16.089 E16.14464
G1 X2.939 Y17.061 E16.17702
G1 X2.928 Y17.785 E16.20111
G1 X2.927 Y26.26 E16.48299
G1 X2.94 Y26.884 E16.50375
G1 X3 Y27.76 E16.53295
G1 X3.134 Y28.654 E16.56302
G1 X3.516 Y30.615 E16.62947
G1 X3.953 Y33.152 E16.71509
G1 X4.311 Y35.66 E16.79935
G1 X4.592 Y38.115 E16.88154
G1 X4.806 Y40.663 E16.96658
G1 X4.948 Y43.124 E17.04857
G1 X5.021 Y45.668 E17.13322
G1 X5.021 Y48.18 E17.21677
G1 X4.95 Y50.715 E17.30112
G1 X4.812 Y53.196 E17.38376
G1 X4.593 Y55.755 E17.46919
G1 X4.312 Y58.24 E17.55237
G1 X3.964 Y60.691 E17.6347
G1 X3.538 Y63.183 E17.71879
G1 X3.02 Y65.772 E17.80661
G1 X2.849 Y66.567 E17.83365
G1 X2.669 Y67.689 E17.87145
G1 X2.607 Y68.667 E17.90404
G1 X2.594 Y69.41 E17.92876
G1 X2.593 Y77.903 E18.21124
G1 X2.608 Y78.56 E18.2331
G1 X2.665 Y79.388 E18.2607
G1 X2.797 Y80.282 E18.29076
G1 X3.022 Y81.23 E18.32316
G1 X3.329 Y82.154 E18.35555
G1 X3.778 Y83.32 E18.39711
G1 X3.848 Y83.525 E18.40431
G1 X4.546 Y85.298 E18.46769
G1 X5.377 Y87.651 E18.55068
G1 X6.146 Y90.034 E18.63397
G1 X6.842 Y92.422 E18.7167
G1 X7.484 Y94.883 E18.80129
G1 X8.055 Y97.36 E18.88584
G1 X8.54 Y99.766 E18.96747
G1 X8.971 Y102.28 E19.05231
G1 X9.331 Y104.789 E19.13661
G1 X9.614 Y107.257 E19.21923
G1 X9.83 Y109.809 E19.30442
G1 X9.97 Y112.258 E19.386
G1 X10.045 Y114.81 E19.47092
G1 X10.047 Y117.323 E19.5545
G1 X10.014 Y118.517 E19.59423
G1 X9.99 Y120.145 E19.64838
G1 X9.989 Y128.621 E19.9303
G1 X10.002 Y129.245 E19.95106
G1 X10.062 Y130.124 E19.98036
G1 X10.196 Y131.018 E20.01043
G1 X10.578 Y132.979 E20.07688
G1 X11.015 Y135.516 E20.1625
G1 X11.373 Y138.024 E20.24676
G1 X11.654 Y140.479 E20.32895
G1 X11.868 Y143.027 E20.41399
G1 X12.01 Y145.488 E20.49598
G1 X12.083 Y148.032 E20.58063
G1 X12.083 Y150.544 E20.66418
G1 X12.012 Y153.079 E20.74853
G1 X11.874 Y155.56 E20.83117
G1 X11.655 Y158.119 E20.9166
G1 X11.374 Y160.604 E20.99978
G1 X11.026 Y163.055 E21.08211
G1 X10.6 Y165.547 E21.1662
G1 X10.082 Y168.136 E21.25402
G1 X9.911 Y168.931 E21.28106
G1 X9.731 Y170.053 E21.31886
G1 X9.669 Y171.031 E21.35145
G1 X9.656 Y171.774 E21.37617
G1 X9.655 Y180.267 E21.65865
G1 X9.67 Y180.924 E21.68051
G1 X9.724 Y181.73 E21.70737
G1 X9.855 Y182.623 E21.73739
G1 X10.086 Y183.604 E21.77091
G1 X10.382 Y184.496 E21.80217
G1 X10.57 Y184.988 E21.81969
G1 X11.249 Y186.674 E21.88014
G1 X12.14 Y189.078 E21.96542
G1 X12.948 Y191.462 E22.04914
G1 X13.677 Y193.831 E22.13158
G1 X14.371 Y196.347 E22.21839
G1 X14.951 Y198.7 E22.29899
G1 X15.493 Y201.203 E22.38417
G1 X15.964 Y203.719 E22.4693
G1 X16.062 Y204.289 E22.48854
G1 X16.308 Y205.381 E22.52577
G1 X16.586 Y206.24 E22.5558
G1 X16.981 Y207.17 E22.58941
G1 X17.457 Y208.059 E22.62295
G1 X17.952 Y208.815 E22.653
G1 X18.599 Y209.636 E22.68777
G1 X19.219 Y210.293 E22.71781
G1 X19.945 Y210.94 E22.75016
G1 X20.784 Y211.562 E22.7849
G1 X21.555 Y212.033 E22.81495
G1 X22.492 Y212.498 E22.84974
G1 X23.333 Y212.826 E22.87976
G1 X23.91 Y213.023 E22.90004
G1 X25.55 Y213.551 E22.95734
G1 X27.875 Y214.371 E23.03934
G1 X30.25 Y215.285 E23.12398
G1 X32.572 Y216.256 E23.20769
G1 X34.898 Y217.308 E23.2926
G1 X37.129 Y218.392 E23.3751
G1 X39.369 Y219.562 E23.45915
G1 X41.583 Y220.797 E23.54347
G1 X43.735 Y222.08 E23.6268
G1 X45.848 Y223.421 E23.71004
G1 X47.945 Y224.837 E23.7942
G1 X48.87 Y225.5 E23.83205
G1 F2700 E18.83205
G0 F6000 X227.563 Y225.5
G1 F2700 E23.83205
G1 F1200 X228.102 Y224.949 E23.85769
G1 X230.049 Y223.025 E23.94873
G1 X230.53 Y222.516 E23.97202
G1 X231.097 Y221.813 E24.00206
G1 X231.599 Y221.062 E24.03211
G1 X232.033 Y220.27 E24.06214
G1 X232.395 Y219.443 E24.09217
G1 X232.683 Y218.587 E24.12221
G1 X232.894 Y217.709 E24.15224
G1 X233.026 Y216.816 E24.18227
G1 X233.079 Y215.914 E24.21232
G1 X233.089 Y215.211 E24.2357
G1 X233.09 Y206.745 E24.51728
G1 X233.075 Y206.106 E24.53854
G1 X233.031 Y205.412 E24.56167
G1 X232.902 Y204.518 E24.59171
G1 X232.695 Y203.639 E24.62175
G1 X232.231 Y201.997 E24.6785
G1 X231.584 Y199.487 E24.76471
G1 X231.032 Y197.052 E24.84776
G1 X230.536 Y194.541 E24.93289
G1 X230.114 Y192.035 E25.01741
G1 X229.765 Y189.535 E25.10137
G1 X229.482 Y186.989 E25.18657
G1 X229.275 Y184.455 E25.27113
G1 X229.14 Y181.953 E25.35447
G1 X229.073 Y179.379 E25.44011
G1 X229.081 Y176.848 E25.52429
G1 X229.159 Y174.318 E25.60848
G1 X229.31 Y171.787 E25.69281
G1 X229.533 Y169.25 E25.77752
G1 X229.83 Y166.703 E25.8628
G1 X230.192 Y164.207 E25.94669
G1 X230.626 Y161.718 E26.03072
G1 X231.131 Y159.238 E26.1149
G1 X231.708 Y156.76 E26.19952
G1 X232.372 Y154.236 E26.28633
G1 X232.703 Y153.051 E26.32725
G1 X232.888 Y152.272 E26.35388
G1 X233.022 Y151.379 E26.38392
G1 X233.078 Y150.477 E26.41397
G1 X233.09 Y149.762 E26.43776
G1 X233.091 Y144.389 E26.61647
G1 X233.076 Y143.75 E26.63772
G1 X233.046 Y143.215 E26.65555
G1 X232.931 Y142.32 E26.68556
G1 X232.738 Y141.437 E26.71562
G1 X232.467 Y140.576 E26.74564
G1 X232.122 Y139.741 E26.77569
G1 X231.157 Y137.677 E26.85147
G1 X230.123 Y135.305 E26.93754
G1 X229.183 Y132.971 E27.02123
G1 X228.304 Y130.596 E27.10545
G1 X227.493 Y128.202 E27.18952
G1 X226.748 Y125.775 E27.27396
G1 X226.054 Y123.268 E27.36048
G1 X225.466 Y120.879 E27.44231
G1 X224.918 Y118.346 E27.52851
G1 X224.455 Y115.866 E27.61242
G1 X224.061 Y113.371 E27.69643
G1 X223.735 Y110.848 E27.78105
G1 X223.481 Y108.32 E27.86555
G1 X223.297 Y105.76 E27.95092
G1 X223.186 Y103.211 E28.03578
G1 X223.171 Y102.693 E28.05301
G1 X223.127 Y101.995 E28.07627
G1 X222.999 Y101.101 E28.10631
G1 X222.794 Y100.222 E28.13633
G1 X222.317 Y98.526 E28.19493
G1 X221.678 Y96.048 E28.28004
G1 X221.126 Y93.613 E28.36309
G1 X220.63 Y91.102 E28.44822
G1 X220.208 Y88.596 E28.53274
G1 X219.859 Y86.096 E28.6167
G1 X219.576 Y83.55 E28.7019
G1 X219.369 Y81.016 E28.78646
G1 X219.234 Y78.514 E28.8698
G1 X219.167 Y75.94 E28.95544
G1 X219.175 Y73.409 E29.03962
G1 X219.253 Y70.879 E29.12381
G1 X219.404 Y68.352 E29.20801
G1 X219.627 Y65.811 E29.29285
G1 X219.924 Y63.264 E29.37814
G1 X220.286 Y60.768 E29.46202
G1 X220.72 Y58.279 E29.54605
G1 X221.225 Y55.799 E29.63023
G1 X221.802 Y53.321 E29.71486
G1 X222.466 Y50.797 E29.80166
G1 X222.797 Y49.612 E29.84258
G1 X222.982 Y48.833 E29.86921
G1 X223.116 Y47.94 E29.89925
G1 X223.172 Y47.038 E29.92931
G1 X223.184 Y46.323 E29.95309
G1 X223.185 Y40.95 E30.1318
G1 X223.17 Y40.311 E30.15306
G1 X223.136 Y39.735 E30.17225
G1 X223.018 Y38.84 E30.20227
G1 X222.82 Y37.959 E30.23231
G1 X222.546 Y37.098 E30.26236
G1 X222.196 Y36.265 E30.29241
G1 X221.775 Y35.467 E30.32242
G1 X221.284 Y34.709 E30.35246
G1 X220.728 Y33.997 E30.3825
G1 X220.111 Y33.337 E30.41255
G1 X219.001 Y32.251 E30.4642
G1 X217.116 Y30.342 E30.55343
G1 X216.214 Y29.531 E30.59378
G1 X215.483 Y29 E30.62383
G1 X214.708 Y28.536 E30.65387
G1 X213.641 Y27.96 E30.6942
G1 X211.345 Y26.677 E30.78168
G1 X209.132 Y25.357 E30.86738
G1 X207.027 Y24.02 E30.95032
G1 X204.892 Y22.577 E31.03603
G1 X202.819 Y21.09 E31.12089
G1 X200.833 Y19.578 E31.2039
G1 X198.833 Y17.963 E31.2894
G1 X196.925 Y16.332 E31.37289
G1 X195.022 Y14.609 E31.45827
G1 X193.194 Y12.858 E31.54247
G1 X191.404 Y11.042 E31.62728
G1 X189.973 Y9.5 E31.69725
G0 F6000 X190.518 Y9.5
G1 F1200 X191.689 Y10.761 E31.75448
G1 X193.471 Y12.569 E31.83891
G1 X195.299 Y14.32 E31.92311
G1 X197.185 Y16.028 E32.00774
G1 X199.093 Y17.659 E32.09122
G1 X201.075 Y19.26 E32.17596
G1 X203.052 Y20.765 E32.2586
G1 X205.125 Y22.252 E32.34346
G1 X207.241 Y23.682 E32.4284
G1 X209.337 Y25.013 E32.51098
G1 X211.55 Y26.333 E32.59668
G1 X213.831 Y27.608 E32.6836
G1 X214.913 Y28.193 E32.72451
G1 X215.718 Y28.676 E32.75573
G1 X216.449 Y29.207 E32.78578
G1 X217.401 Y30.061 E32.82832
G1 X219.281 Y31.965 E32.91732
G1 X220.403 Y33.064 E32.96955
G1 X221.043 Y33.751 E33.00078
G1 X221.62 Y34.492 E33.03202
G1 X222.129 Y35.28 E33.06322
G1 X222.55 Y36.078 E33.09323
G1 X222.915 Y36.943 E33.12446
G1 X223.21 Y37.871 E33.15684
G1 X223.415 Y38.788 E33.1881
G1 X223.533 Y39.683 E33.21812
G1 X223.57 Y40.302 E33.23875
