;FLAVOR:Marlin
;TIME:2362
;Filament used: 1.91808m
;Layer height: 0.32
;MINX:57.499
;MINY:55.667
;MINZ:0.2
;MAXX:177.501
;MAXY:179.333
;MAXZ:4.04
;Generated with Cura_SteamEngine 5.3.1
M140 S50
M105
M190 S50
M104 S200
M105
M109 S200
M82 ;absolute extrusion mode
; Ender 3 Custom Start G-code
G92 E0 ; Reset Extruder
G28 ; Home all axes
G1 Z2.0 F3000 ; Move Z Axis up little to prevent scratching of Heat Bed
G1 X0.1 Y20 Z0.3 F5000.0 ; Move to start position
G1 X0.1 Y200.0 Z0.3 F1500.0 E15 ; Draw the first line
G1 X0.4 Y200.0 Z0.3 F5000.0 ; Move to side a little
G1 X0.4 Y20 Z0.3 F1500.0 E30 ; Draw the second line
G92 E0 ; Reset Extruder
G1 Z2.0 F3000 ; Move Z Axis up little to prevent scratching of Heat Bed
G1 X5 Y20 Z0.3 F5000.0 ; Move over to prevent blob squish
G92 E0
G92 E0
G1 F2700 E-5
;LAYER_COUNT:13
;LAYER:0
M107
G0 F6000 X61.811 Y59.404 Z0.2
;TYPE:SKIRT
G1 F2700 E0
G1 F1200 X62.492 Y58.811 E0.03003
G1 X63.223 Y58.281 E0.06007
G1 X63.998 Y57.817 E0.09011
G1 X64.811 Y57.424 E0.12014
G1 X65.656 Y57.104 E0.1502
G1 X66.525 Y56.861 E0.18021
G1 X67.413 Y56.695 E0.21025
G1 X68.556 Y56.598 E0.24841
G1 X69.163 Y56.585 E0.2686
G1 X77.629 Y56.586 E0.55018
G1 X78.33 Y56.596 E0.5735
G1 X79.232 Y56.649 E0.60355
G1 X80.459 Y56.852 E0.64492
G1 X82.899 Y57.41 E0.72817
G1 X85.39 Y57.91 E0.81267
G1 X87.905 Y58.34 E0.89753
G1 X90.416 Y58.698 E0.98189
G1 X92.948 Y58.986 E1.06665
G1 X95.455 Y59.199 E1.15033
G1 X98.016 Y59.344 E1.23565
G1 X100.55 Y59.416 E1.31996
G1 X103.082 Y59.416 E1.40418
G1 X105.615 Y59.344 E1.48846
G1 X108.155 Y59.2 E1.57308
G1 X110.725 Y58.982 E1.65886
G1 X113.18 Y58.703 E1.74104
G1 X115.748 Y58.338 E1.82731
G1 X118.236 Y57.911 E1.91127
G1 X120.719 Y57.414 E1.9955
G1 X123.683 Y56.734 E2.09664
G1 X124.572 Y56.571 E2.1267
G1 X125.675 Y56.48 E2.16351
G1 X126.282 Y56.467 E2.18371
G1 X134.603 Y56.467 E2.46046
G1 X135.451 Y56.478 E2.48867
G1 X136.353 Y56.531 E2.51872
G1 X137.246 Y56.663 E2.54875
G1 X138.124 Y56.874 E2.57878
G1 X138.98 Y57.162 E2.60882
G1 X139.807 Y57.524 E2.63885
G1 X140.599 Y57.958 E2.66888
G1 X141.35 Y58.46 E2.69893
G1 X142.053 Y59.027 E2.72897
G1 X142.871 Y59.835 E2.76721
G1 X143.148 Y60.141 E2.78094
G1 X144.913 Y62.035 E2.86705
G1 X146.706 Y63.853 E2.95197
G1 X148.544 Y65.615 E3.03666
G1 X150.417 Y67.31 E3.12068
G1 X152.36 Y68.971 E3.2057
G1 X154.315 Y70.551 E3.2893
G1 X156.351 Y72.101 E3.37441
G1 X158.388 Y73.563 E3.4578
G1 X160.529 Y75.011 E3.54377
G1 X162.668 Y76.369 E3.62804
G1 X164.843 Y77.666 E3.71227
G1 X167.134 Y78.946 E3.79955
G1 X168.224 Y79.535 E3.84076
G1 X168.999 Y79.999 E3.8708
G1 X169.73 Y80.53 E3.90085
G1 X170.632 Y81.341 E3.9412
G1 X172.517 Y83.25 E4.03043
G1 X173.627 Y84.336 E4.08208
G1 X174.244 Y84.996 E4.11213
G1 X174.8 Y85.708 E4.14217
G1 X175.291 Y86.466 E4.17221
G1 X175.712 Y87.264 E4.20222
G1 X176.062 Y88.097 E4.23227
G1 X176.336 Y88.958 E4.26233
G1 X176.534 Y89.839 E4.29236
G1 X176.652 Y90.734 E4.32238
G1 X176.686 Y91.31 E4.34158
G1 X176.701 Y91.949 E4.36283
G1 X176.7 Y97.322 E4.54154
G1 X176.688 Y98.037 E4.56533
G1 X176.632 Y98.939 E4.59538
G1 X176.498 Y99.832 E4.62542
G1 X176.313 Y100.61 E4.65202
G1 X175.947 Y101.92 E4.69726
G1 X175.277 Y104.483 E4.78537
G1 X174.709 Y106.944 E4.86937
G1 X174.209 Y109.42 E4.95339
G1 X173.778 Y111.925 E5.03793
G1 X173.416 Y114.442 E5.1225
G1 X173.13 Y116.934 E5.20593
G1 X172.909 Y119.506 E5.29179
G1 X172.764 Y122.013 E5.37531
G1 X172.689 Y124.578 E5.46066
G1 X172.686 Y127.119 E5.54518
G1 X172.754 Y129.644 E5.62919
G1 X172.895 Y132.172 E5.7134
G1 X173.108 Y134.71 E5.79811
G1 X173.39 Y137.215 E5.88196
G1 X173.749 Y139.753 E5.96721
G1 X174.178 Y142.279 E6.05243
G1 X174.669 Y144.74 E6.13589
G1 X175.227 Y147.182 E6.21921
G1 X175.887 Y149.726 E6.30662
G1 X176.303 Y151.192 E6.35731
G1 X176.511 Y152.071 E6.38735
G1 X176.64 Y152.965 E6.41739
G1 X176.685 Y153.667 E6.44079
G1 X176.7 Y154.306 E6.46205
G1 X176.699 Y162.771 E6.7436
G1 X176.689 Y163.474 E6.76698
G1 X176.636 Y164.376 E6.79703
G1 X176.504 Y165.269 E6.82706
G1 X176.293 Y166.147 E6.85709
G1 X176.005 Y167.003 E6.88713
G1 X175.643 Y167.83 E6.91716
G1 X175.209 Y168.622 E6.94719
G1 X174.707 Y169.373 E6.97724
G1 X174.14 Y170.076 E7.00728
G1 X173.659 Y170.585 E7.03057
G1 X171.712 Y172.509 E7.12161
G1 X170.669 Y173.575 E7.17122
G1 X170.01 Y174.192 E7.20124
G1 X169.298 Y174.748 E7.23129
G1 X168.54 Y175.24 E7.26134
G1 X167.742 Y175.662 E7.29137
G1 X166.909 Y176.012 E7.32142
G1 X166.049 Y176.287 E7.35145
G1 X165.168 Y176.485 E7.38148
G1 X164.273 Y176.604 E7.41151
G1 X163.69 Y176.638 E7.43094
G1 X163.051 Y176.653 E7.4522
G1 X154.584 Y176.652 E7.73381
G1 X153.887 Y176.642 E7.75699
G1 X152.892 Y176.579 E7.79015
G1 X150.276 Y176.285 E7.87771
G1 X147.712 Y176.067 E7.9633
G1 X145.185 Y175.925 E8.04748
G1 X142.65 Y175.854 E8.13183
G1 X140.115 Y175.854 E8.21614
G1 X137.551 Y175.927 E8.30145
G1 X135.045 Y176.07 E8.38494
G1 X132.492 Y176.288 E8.47016
G1 X129.999 Y176.572 E8.55362
G1 X127.476 Y176.931 E8.63838
G1 X124.948 Y177.365 E8.72369
G1 X122.448 Y177.868 E8.8085
G1 X120.63 Y178.276 E8.87048
G1 X119.741 Y178.435 E8.90051
G1 X118.682 Y178.52 E8.93585
G1 X118.075 Y178.533 E8.95604
G1 X109.609 Y178.532 E9.23762
G1 X108.906 Y178.522 E9.26101
G1 X108.004 Y178.469 E9.29106
G1 X107.111 Y178.337 E9.32108
G1 X106.233 Y178.126 E9.35112
G1 X105.377 Y177.838 E9.38116
G1 X104.55 Y177.476 E9.41118
G1 X103.758 Y177.042 E9.44122
G1 X103.007 Y176.54 E9.47126
G1 X102.636 Y176.253 E9.48687
G1 X100.32 Y174.379 E9.58595
G1 X98.326 Y172.861 E9.66931
G1 X96.246 Y171.369 E9.75444
G1 X94.13 Y169.94 E9.83937
G1 X91.989 Y168.581 E9.92371
G1 X89.837 Y167.298 E10.00704
G1 X87.583 Y166.041 E10.09288
G1 X85.343 Y164.871 E10.17694
G1 X83.072 Y163.767 E10.26092
G1 X80.746 Y162.717 E10.3458
G1 X78.402 Y161.736 E10.43032
G1 X76.007 Y160.814 E10.51567
G1 X73.64 Y159.978 E10.59917
G1 X72.012 Y159.454 E10.65605
G1 X71.467 Y159.269 E10.67519
G1 X70.626 Y158.941 E10.70522
G1 X69.817 Y158.54 E10.73525
G1 X69.046 Y158.069 E10.7653
G1 X68.32 Y157.531 E10.79535
G1 X67.645 Y156.932 E10.82537
G1 X67.025 Y156.275 E10.85541
G1 X66.466 Y155.566 E10.88544
G1 X65.971 Y154.81 E10.9155
G1 X65.546 Y154.014 E10.94551
G1 X65.192 Y153.183 E10.97555
G1 X64.914 Y152.324 E11.00558
G1 X64.694 Y151.342 E11.03905
G1 X64.596 Y150.772 E11.05829
G1 X64.123 Y148.244 E11.14383
G1 X63.576 Y145.719 E11.22976
G1 X62.987 Y143.322 E11.31186
G1 X62.291 Y140.806 E11.39868
G1 X61.556 Y138.415 E11.48188
G1 X60.742 Y136.011 E11.5663
G1 X59.843 Y133.585 E11.65235
G1 X59.161 Y131.891 E11.71308
G1 X58.985 Y131.432 E11.72943
G1 X58.699 Y130.575 E11.75948
G1 X58.491 Y129.696 E11.78953
G1 X58.36 Y128.803 E11.81955
G1 X58.314 Y128.095 E11.84314
G1 X58.299 Y127.456 E11.8644
G1 X58.3 Y118.976 E12.14645
G1 X58.311 Y118.27 E12.16993
G1 X58.365 Y117.369 E12.19995
G1 X58.537 Y116.289 E12.23633
G1 X58.712 Y115.474 E12.26405
G1 X59.225 Y112.914 E12.35089
G1 X59.657 Y110.391 E12.43603
G1 X60.009 Y107.909 E12.51941
G1 X60.3 Y105.35 E12.60507
G1 X60.51 Y102.868 E12.68791
G1 X60.656 Y100.29 E12.7738
G1 X60.727 Y97.765 E12.85781
G1 X60.727 Y95.23 E12.94212
G1 X60.654 Y92.692 E13.02657
G1 X60.509 Y90.132 E13.11186
G1 X60.297 Y87.643 E13.19494
G1 X60.005 Y85.079 E13.28077
G1 X59.648 Y82.572 E13.365
G1 X59.217 Y80.059 E13.4498
G1 X58.832 Y78.091 E13.5165
G1 X58.698 Y77.198 E13.54653
G1 X58.646 Y76.421 E13.57243
G1 X58.633 Y75.814 E13.59262
G1 X58.634 Y67.344 E13.87434
G1 X58.643 Y66.66 E13.89709
G1 X58.695 Y65.758 E13.92714
G1 X58.826 Y64.865 E13.95716
G1 X59.036 Y63.986 E13.98722
G1 X59.323 Y63.13 E14.01725
G1 X59.684 Y62.302 E14.04729
G1 X60.117 Y61.51 E14.07731
G1 X60.619 Y60.759 E14.10735
G1 X61.185 Y60.055 E14.1374
G1 X61.811 Y59.404 E14.16744
G0 F6000 X61.548 Y59.102
G1 F1200 X62.229 Y58.509 E14.19747
G1 X62.988 Y57.957 E14.22869
G1 X63.824 Y57.457 E14.26109
G1 X64.669 Y57.05 E14.29228
G1 X65.514 Y56.73 E14.32233
G1 X66.451 Y56.468 E14.35469
G1 X67.379 Y56.296 E14.38608
G1 X68.522 Y56.199 E14.42424
G1 X69.163 Y56.185 E14.44556
G1 X77.635 Y56.186 E14.72734
G1 X78.353 Y56.197 E14.75123
G1 X79.297 Y56.254 E14.78268
G1 X80.548 Y56.462 E14.82486
G1 X82.988 Y57.02 E14.90811
G1 X85.471 Y57.518 E14.99234
G1 X87.961 Y57.944 E15.07636
G1 X90.472 Y58.302 E15.16072
G1 X92.982 Y58.587 E15.24474
G1 X95.489 Y58.801 E15.32843
G1 X98.027 Y58.944 E15.41298
G1 X100.561 Y59.016 E15.49729
G1 X103.071 Y59.016 E15.58077
G1 X105.604 Y58.944 E15.66506
G1 X108.121 Y58.801 E15.74891
G1 X110.691 Y58.584 E15.83469
G1 X113.124 Y58.307 E15.91613
G1 X115.692 Y57.942 E16.0024
G1 X118.161 Y57.518 E16.08573
G1 X120.63 Y57.024 E16.16947
G1 X123.611 Y56.341 E16.27119
G1 X124.539 Y56.172 E16.30256
G1 X125.666 Y56.08 E16.34017
G1 X126.273 Y56.067 E16.36037
G1 X134.608 Y56.067 E16.63759
G1 X135.474 Y56.079 E16.66639
G1 X136.411 Y56.135 E16.69761
G1 X137.304 Y56.267 E16.72764
G1 X138.252 Y56.495 E16.76007
G1 X139.108 Y56.783 E16.79011
G1 X139.999 Y57.173 E16.82246
G1 X140.821 Y57.625 E16.85366
G1 X141.572 Y58.127 E16.8837
G1 X142.334 Y58.742 E16.91627
G1 X143.168 Y59.567 E16.95529
G1 X145.206 Y61.762 E17.05491
G1 X146.983 Y63.564 E17.13909
G1 X148.821 Y65.326 E17.22377
G1 X150.677 Y67.006 E17.30704
G1 X152.62 Y68.667 E17.39205
G1 X154.557 Y70.233 E17.4749
G1 X156.584 Y71.776 E17.55963
G1 X158.621 Y73.238 E17.64302
G1 X160.743 Y74.673 E17.72823
G1 X162.873 Y76.025 E17.81214
G1 X165.048 Y77.322 E17.89636
G1 X167.324 Y78.594 E17.98308
G1 X168.429 Y79.192 E18.02487
G1 X169.234 Y79.675 E18.0561
G1 X169.965 Y80.206 E18.08615
G1 X170.917 Y81.06 E18.12868
G1 X172.797 Y82.964 E18.21768
G1 X173.919 Y84.063 E18.26992
G1 X174.559 Y84.75 E18.30115
G1 X175.136 Y85.491 E18.33238
G1 X175.645 Y86.279 E18.36358
G1 X176.066 Y87.077 E18.39359
G1 X176.431 Y87.942 E18.42482
G1 X176.726 Y88.87 E18.45721
G1 X176.931 Y89.787 E18.48846
G1 X177.049 Y90.682 E18.51848
G1 X177.086 Y91.301 E18.53911
G1 X177.101 Y91.949 E18.56067
G1 X177.1 Y97.329 E18.73961
G1 X177.087 Y98.062 E18.76399
G1 X177.028 Y98.998 E18.79518
G1 X176.894 Y99.891 E18.82522
G1 X176.698 Y100.718 E18.85348
G1 X176.332 Y102.028 E18.89872
G1 X175.664 Y104.584 E18.98659
G1 X175.099 Y107.034 E19.07022
G1 X174.601 Y109.499 E19.15386
G1 X174.172 Y111.993 E19.23803
G1 X173.812 Y114.499 E19.32224
G1 X173.529 Y116.968 E19.40489
G1 X173.307 Y119.54 E19.49076
G1 X173.164 Y122.025 E19.57354
G1 X173.089 Y124.59 E19.65889
G1 X173.086 Y127.119 E19.74301
G1 X173.154 Y129.633 E19.82665
G1 X173.294 Y132.139 E19.91013
G1 X173.506 Y134.677 E19.99484
G1 X173.786 Y137.159 E20.07792
G1 X174.143 Y139.686 E20.1628
G1 X174.57 Y142.201 E20.24765
G1 X175.059 Y144.651 E20.33074
G1 X175.614 Y147.082 E20.41368
G1 X176.272 Y149.617 E20.50079
G1 X176.692 Y151.1 E20.55205
G1 X176.907 Y152.014 E20.58328
G1 X177.036 Y152.908 E20.61332
G1 X177.085 Y153.658 E20.63832
G1 X177.1 Y154.306 E20.65988
G1 X177.099 Y162.777 E20.94163
G1 X177.088 Y163.497 E20.96558
G1 X177.032 Y164.434 E20.9968
G1 X176.9 Y165.327 E21.02682
G1 X176.672 Y166.275 E21.05925
G1 X176.384 Y167.131 E21.08929
G1 X175.994 Y168.022 E21.12164
G1 X175.542 Y168.844 E21.15284
G1 X175.04 Y169.595 E21.18288
G1 X174.431 Y170.351 E21.21517
G1 X173.94 Y170.87 E21.23893
G1 X171.993 Y172.794 E21.32998
G1 X170.942 Y173.867 E21.37993
G1 X170.256 Y174.507 E21.41114
G1 X169.516 Y175.084 E21.44235
G1 X168.758 Y175.576 E21.4724
G1 X167.929 Y176.016 E21.50362
G1 X167.064 Y176.381 E21.53484
G1 X166.171 Y176.668 E21.56604
G1 X165.221 Y176.882 E21.59843
G1 X164.326 Y177.001 E21.62846
G1 X163.699 Y177.038 E21.64935
G1 X163.051 Y177.053 E21.67091
G1 X154.578 Y177.052 E21.95272
G1 X153.862 Y177.041 E21.97654
G1 X152.847 Y176.976 E22.01037
G1 X150.242 Y176.684 E22.09755
G1 X147.678 Y176.465 E22.18314
G1 X145.174 Y176.325 E22.26656
G1 X142.639 Y176.254 E22.3509
G1 X140.126 Y176.254 E22.43449
G1 X137.562 Y176.327 E22.5198
G1 X135.079 Y176.469 E22.60252
G1 X132.526 Y176.686 E22.68774
G1 X130.055 Y176.968 E22.77046
G1 X127.532 Y177.327 E22.85522
G1 X125.023 Y177.758 E22.93989
G1 X122.527 Y178.26 E23.02457
G1 X120.7 Y178.67 E23.08685
G1 X119.773 Y178.834 E23.11816
G1 X118.714 Y178.919 E23.1535
G1 X118.075 Y178.933 E23.17475
G1 X109.603 Y178.932 E23.45653
G1 X108.883 Y178.921 E23.48048
G1 X107.946 Y178.865 E23.5117
G1 X107.053 Y178.733 E23.54173
G1 X106.105 Y178.505 E23.57416
G1 X105.249 Y178.217 E23.6042
G1 X104.358 Y177.827 E23.63655
G1 X103.536 Y177.375 E23.66775
G1 X102.785 Y176.873 E23.69779
G1 X102.384 Y176.564 E23.71463
G1 X100.068 Y174.69 E23.81372
G1 X98.093 Y173.186 E23.89629
G1 X96.013 Y171.694 E23.98142
G1 X93.916 Y170.278 E24.06558
G1 X91.784 Y168.925 E24.14957
G1 X89.632 Y167.642 E24.2329
G1 X87.398 Y166.396 E24.31798
G1 X85.158 Y165.226 E24.40203
G1 X82.907 Y164.132 E24.48527
G1 X80.581 Y163.081 E24.57017
G1 X78.248 Y162.105 E24.65428
G1 X75.863 Y161.187 E24.73928
G1 X73.517 Y160.359 E24.82202
G1 X71.883 Y159.833 E24.87912
G1 X71.322 Y159.642 E24.89883
G1 X70.481 Y159.314 E24.92885
G1 X69.608 Y158.881 E24.96126
G1 X68.837 Y158.41 E24.99131
G1 X68.055 Y157.83 E25.0237
G1 X67.354 Y157.207 E25.05489
G1 X66.734 Y156.55 E25.08493
G1 X66.131 Y155.785 E25.11733
G1 X65.636 Y155.029 E25.14739
G1 X65.178 Y154.171 E25.17973
G1 X64.811 Y153.306 E25.21099
G1 X64.533 Y152.447 E25.24102
G1 X64.3 Y151.41 E25.27637
G1 X64.202 Y150.84 E25.2956
G1 X63.73 Y148.318 E25.38094
G1 X63.186 Y145.804 E25.46649
G1 X62.601 Y143.429 E25.54785
G1 X61.906 Y140.913 E25.63466
G1 X61.174 Y138.533 E25.71748
G1 X60.363 Y136.139 E25.80155
G1 X59.468 Y133.724 E25.88721
G1 X58.788 Y132.034 E25.9478
G1 X58.606 Y131.559 E25.96472
G1 X58.31 Y130.667 E25.99598
G1 X58.095 Y129.754 E26.02718
G1 X57.964 Y128.861 E26.0572
G1 X57.914 Y128.104 E26.08243
G1 X57.899 Y127.456 E26.10399
G1 X57.9 Y118.97 E26.38623
G1 X57.912 Y118.246 E26.41032
G1 X57.97 Y117.306 E26.44164
G1 X58.146 Y116.205 E26.47873
G1 X58.321 Y115.39 E26.50645
G1 X58.833 Y112.835 E26.59312
G1 X59.263 Y110.323 E26.67788
G1 X59.613 Y107.853 E26.76086
G1 X59.901 Y105.316 E26.84578
G1 X60.112 Y102.834 E26.92863
G1 X60.256 Y100.279 E27.01374
G1 X60.327 Y97.754 E27.09776
G1 X60.327 Y95.23 E27.18171
G1 X60.254 Y92.704 E27.26576
G1 X60.11 Y90.166 E27.35031
G1 X59.899 Y87.677 E27.43339
G1 X59.609 Y85.135 E27.51848
G1 X59.252 Y82.628 E27.60271
G1 X58.824 Y80.136 E27.68681
G1 X58.436 Y78.15 E27.75411
G1 X58.302 Y77.257 E27.78414
G1 X58.246 Y76.43 E27.81171
G1 X58.233 Y75.814 E27.83221
G1 X58.234 Y67.339 E28.11409
G1 X58.244 Y66.637 E28.13744
G1 X58.299 Y65.7 E28.16866
G1 X58.43 Y64.807 E28.19867
G1 X58.647 Y63.893 E28.22992
G1 X58.956 Y62.97 E28.26229
G1 X59.317 Y62.142 E28.29234
G1 X59.784 Y61.288 E28.32471
G1 X60.307 Y60.508 E28.35594
G1 X60.873 Y59.804 E28.38599
G1 X61.548 Y59.102 E28.41838
G0 F6000 X61.285 Y58.8
G1 F1200 X61.966 Y58.207 E28.44841
G1 X62.783 Y57.614 E28.48199
G1 X63.65 Y57.097 E28.51556
G1 X64.527 Y56.676 E28.54792
G1 X65.372 Y56.356 E28.57797
G1 X66.378 Y56.075 E28.61271
G1 X67.345 Y55.897 E28.64542
G1 X68.488 Y55.8 E28.68357
G1 X69.163 Y55.785 E28.70603
G1 X77.641 Y55.786 E28.98801
G1 X78.377 Y55.798 E29.01249
G1 X79.363 Y55.859 E29.04535
G1 X80.614 Y56.067 E29.08752
G1 X83.077 Y56.63 E29.17156
G1 X85.552 Y57.126 E29.25551
G1 X88.017 Y57.548 E29.33869
G1 X90.528 Y57.906 E29.42305
G1 X93.016 Y58.188 E29.50633
G1 X95.523 Y58.403 E29.59002
G1 X98.038 Y58.544 E29.6738
G1 X100.572 Y58.616 E29.75812
G1 X103.06 Y58.616 E29.84087
G1 X105.593 Y58.544 E29.92515
G1 X108.087 Y58.402 E30.00824
G1 X110.657 Y58.186 E30.09402
G1 X113.068 Y57.911 E30.17473
G1 X115.636 Y57.546 E30.261
G1 X118.093 Y57.124 E30.34391
G1 X120.541 Y56.634 E30.42695
G1 X123.539 Y55.947 E30.52925
G1 X124.506 Y55.773 E30.56193
G1 X125.657 Y55.68 E30.60034
G1 X126.264 Y55.667 E30.62053
G1 X134.614 Y55.667 E30.89825
G1 X135.498 Y55.68 E30.92766
G1 X136.469 Y55.739 E30.96001
G1 X137.398 Y55.878 E30.99125
G1 X138.346 Y56.106 E31.02368
G1 X139.236 Y56.404 E31.0549
G1 X140.192 Y56.822 E31.0896
G1 X141.014 Y57.274 E31.1208
G1 X141.794 Y57.794 E31.15198
G1 X142.585 Y58.431 E31.18576
G1 X143.461 Y59.295 E31.22669
G1 X145.491 Y61.481 E31.32591
G1 X147.26 Y63.275 E31.40971
G1 X149.098 Y65.037 E31.49439
G1 X150.937 Y66.702 E31.5769
G1 X152.88 Y68.363 E31.66192
G1 X154.799 Y69.915 E31.74401
